(G-CODE GENERATED BY FLATCAM v8.994 - www.flatcam.org - Version Date: 2020/11/7)

(Name: spindle_fan_control-F_Cu.gbr_iso_combined_cnc)
(Type: G-code from Geometry)
(Units: MM)

(Created on torstai, 07 marraskuu 2024 at 14:02)

(This preprocessor is the default preprocessor used by FlatCAM.)
(It is made to work with MACH3 compatible motion controllers.)

(TOOL DIAMETER: 0.25 mm)
(Feedrate_XY: 200.0 mm/min)
(Feedrate_Z: 250.0 mm/min)
(Feedrate rapids 1500.0 mm/min)

(Z_Cut: -0.0933 mm)
(Z_Move: 2.0 mm)
(Z Start: None mm)
(Z End: 15.0 mm)
(X,Y End: None mm)
(Steps per circle: 64)
(Preprocessor Geometry: default)

(X range:  -30.0745 ...   14.0745  mm)
(Y range:  -22.4745 ...   19.1745  mm)

(Spindle Speed: 24000.0 RPM)
G21
G90
G94

G01 F200.00

M5
G00 Z15.0000
G00 X0.0000 Y0.0000
T1
M6    
(MSG, Change to Tool Dia = 0.2500)
M0
G00 Z15.0000

M03 S24000.0
G01 F200.00
G00 X-1.0116 Y-0.4989
G01 F250.00
G01 Z-0.0933
G01 F200.00
G01 X-0.9378 Y-0.6266
G01 X-0.8480 Y-0.7437
G01 X-0.7437 Y-0.8480
G01 X-0.6266 Y-0.9378
G01 X-0.4989 Y-1.0116
G01 X-0.3626 Y-1.0681
G01 X-0.2200 Y-1.1062
G01 X-0.0738 Y-1.1255
G01 X0.0738 Y-1.1255
G01 X0.2200 Y-1.1062
G01 X0.3626 Y-1.0681
G01 X0.4989 Y-1.0116
G01 X0.6266 Y-0.9378
G01 X0.7437 Y-0.8480
G01 X0.8480 Y-0.7437
G01 X0.9378 Y-0.6266
G01 X1.0116 Y-0.4989
G01 X1.0681 Y-0.3626
G01 X1.1062 Y-0.2200
G01 X1.1255 Y-0.0738
G01 X1.1255 Y0.0738
G01 X1.1062 Y0.2200
G01 X1.0681 Y0.3626
G01 X1.0116 Y0.4989
G01 X0.9378 Y0.6266
G01 X0.8480 Y0.7437
G01 X0.7437 Y0.8480
G01 X0.6266 Y0.9378
G01 X0.5234 Y0.9974
G01 X0.4989 Y1.0116
G01 X0.3626 Y1.0681
G01 X0.2200 Y1.1062
G01 X0.0738 Y1.1255
G01 X-0.0738 Y1.1255
G01 X-0.2200 Y1.1062
G01 X-0.3626 Y1.0681
G01 X-0.4989 Y1.0116
G01 X-0.6266 Y0.9378
G01 X-0.7437 Y0.8480
G01 X-0.8480 Y0.7437
G01 X-0.9378 Y0.6266
G01 X-1.0116 Y0.4989
G01 X-1.0681 Y0.3626
G01 X-1.1062 Y0.2200
G01 X-1.1255 Y0.0738
G01 X-1.1255 Y-0.0738
G01 X-1.1062 Y-0.2200
G01 X-1.0681 Y-0.3626
G01 X-1.0116 Y-0.4989
G00 Z2.0000
G00 X-1.1801 Y-0.5820
G01 F250.00
G01 Z-0.0933
G01 F200.00
G01 X-1.0941 Y-0.7310
G01 X-0.9893 Y-0.8676
G01 X-0.8676 Y-0.9893
G01 X-0.7310 Y-1.0941
G01 X-0.5820 Y-1.1801
G01 X-0.4230 Y-1.2460
G01 X-0.2567 Y-1.2905
G01 X-0.0861 Y-1.3130
G01 X0.0861 Y-1.3130
G01 X0.2567 Y-1.2905
G01 X0.4230 Y-1.2460
G01 X0.5820 Y-1.1801
G01 X0.7310 Y-1.0941
G01 X0.8676 Y-0.9893
G01 X0.9893 Y-0.8676
G01 X1.0941 Y-0.7310
G01 X1.1801 Y-0.5820
G01 X1.2460 Y-0.4230
G01 X1.2905 Y-0.2567
G01 X1.3130 Y-0.0861
G01 X1.3130 Y0.0861
G01 X1.2905 Y0.2567
G01 X1.2460 Y0.4230
G01 X1.1801 Y0.5820
G01 X1.0941 Y0.7310
G01 X0.9893 Y0.8676
G01 X0.8676 Y0.9893
G01 X0.7310 Y1.0941
G01 X0.6171 Y1.1598
G01 X0.5820 Y1.1801
G01 X0.4230 Y1.2460
G01 X0.2567 Y1.2905
G01 X0.0861 Y1.3130
G01 X-0.0861 Y1.3130
G01 X-0.2567 Y1.2905
G01 X-0.4230 Y1.2460
G01 X-0.5820 Y1.1801
G01 X-0.7310 Y1.0941
G01 X-0.8676 Y0.9893
G01 X-0.9893 Y0.8676
G01 X-1.0941 Y0.7310
G01 X-1.1801 Y0.5820
G01 X-1.2460 Y0.4230
G01 X-1.2905 Y0.2567
G01 X-1.3130 Y0.0861
G01 X-1.3130 Y-0.0861
G01 X-1.2905 Y-0.2567
G01 X-1.2460 Y-0.4230
G01 X-1.1801 Y-0.5820
G00 Z2.0000
G00 X-1.3486 Y-0.6651
G01 F250.00
G01 Z-0.0933
G01 F200.00
G01 X-1.2503 Y-0.8354
G01 X-1.1306 Y-0.9915
G01 X-0.9915 Y-1.1306
G01 X-0.8354 Y-1.2503
G01 X-0.6651 Y-1.3486
G01 X-0.4834 Y-1.4239
G01 X-0.2934 Y-1.4748
G01 X-0.0983 Y-1.5005
G01 X0.0983 Y-1.5005
G01 X0.2934 Y-1.4748
G01 X0.4834 Y-1.4239
G01 X0.6651 Y-1.3486
G01 X0.8354 Y-1.2503
G01 X0.9915 Y-1.1306
G01 X1.1306 Y-0.9915
G01 X1.2503 Y-0.8354
G01 X1.3486 Y-0.6651
G01 X1.4239 Y-0.4834
G01 X1.4748 Y-0.2934
G01 X1.5005 Y-0.0983
G01 X1.5005 Y0.0983
G01 X1.4748 Y0.2934
G01 X1.4239 Y0.4834
G01 X1.3486 Y0.6651
G01 X1.2503 Y0.8354
G01 X1.1306 Y0.9915
G01 X0.9915 Y1.1306
G01 X0.8354 Y1.2503
G01 X0.7109 Y1.3222
G01 X0.6651 Y1.3486
G01 X0.4834 Y1.4239
G01 X0.2934 Y1.4748
G01 X0.0983 Y1.5005
G01 X-0.0983 Y1.5005
G01 X-0.2934 Y1.4748
G01 X-0.4834 Y1.4239
G01 X-0.6651 Y1.3486
G01 X-0.8354 Y1.2503
G01 X-0.9915 Y1.1306
G01 X-1.1306 Y0.9915
G01 X-1.2503 Y0.8354
G01 X-1.3486 Y0.6651
G01 X-1.4239 Y0.4834
G01 X-1.4748 Y0.2934
G01 X-1.5005 Y0.0983
G01 X-1.5005 Y-0.0983
G01 X-1.4748 Y-0.2934
G01 X-1.4239 Y-0.4834
G01 X-1.3486 Y-0.6651
G00 Z2.0000
G00 X-1.5172 Y-0.7482
G01 F250.00
G01 Z-0.0933
G01 F200.00
G01 X-1.4065 Y-0.9398
G01 X-1.2718 Y-1.1154
G01 X-1.1154 Y-1.2718
G01 X-0.9398 Y-1.4065
G01 X-0.7482 Y-1.5172
G01 X-0.5438 Y-1.6018
G01 X-0.3300 Y-1.6591
G01 X-0.1106 Y-1.6880
G01 X0.1106 Y-1.6880
G01 X0.3300 Y-1.6591
G01 X0.5438 Y-1.6018
G01 X0.7482 Y-1.5172
G01 X0.9398 Y-1.4065
G01 X1.1154 Y-1.2718
G01 X1.2718 Y-1.1154
G01 X1.4065 Y-0.9398
G01 X1.5172 Y-0.7482
G01 X1.6018 Y-0.5438
G01 X1.6591 Y-0.3300
G01 X1.6880 Y-0.1106
G01 X1.6880 Y0.1106
G01 X1.6591 Y0.3300
G01 X1.6018 Y0.5438
G01 X1.5172 Y0.7482
G01 X1.4065 Y0.9398
G01 X1.2718 Y1.1154
G01 X1.1154 Y1.2718
G01 X0.9398 Y1.4065
G01 X0.8046 Y1.4846
G01 X0.7482 Y1.5172
G01 X0.5438 Y1.6018
G01 X0.3300 Y1.6591
G01 X0.1106 Y1.6880
G01 X-0.1106 Y1.6880
G01 X-0.3300 Y1.6591
G01 X-0.5438 Y1.6018
G01 X-0.7482 Y1.5172
G01 X-0.9398 Y1.4065
G01 X-1.1154 Y1.2718
G01 X-1.2718 Y1.1154
G01 X-1.4065 Y0.9398
G01 X-1.5172 Y0.7482
G01 X-1.6018 Y0.5438
G01 X-1.6591 Y0.3300
G01 X-1.6880 Y0.1106
G01 X-1.6880 Y-0.1106
G01 X-1.6591 Y-0.3300
G01 X-1.6018 Y-0.5438
G01 X-1.5172 Y-0.7482
G00 Z2.0000
G00 X-1.6857 Y-0.8313
G01 F250.00
G01 Z-0.0933
G01 F200.00
G01 X-1.5628 Y-1.0442
G01 X-1.4131 Y-1.2393
G01 X-1.2393 Y-1.4131
G01 X-1.0442 Y-1.5628
G01 X-0.8313 Y-1.6857
G01 X-0.6042 Y-1.7798
G01 X-0.3667 Y-1.8434
G01 X-0.1229 Y-1.8755
G01 X0.1229 Y-1.8755
G01 X0.3667 Y-1.8434
G01 X0.6042 Y-1.7798
G01 X0.8313 Y-1.6857
G01 X1.0442 Y-1.5628
G01 X1.2393 Y-1.4131
G01 X1.4131 Y-1.2393
G01 X1.5628 Y-1.0442
G01 X1.6857 Y-0.8313
G01 X1.7798 Y-0.6042
G01 X1.8434 Y-0.3667
G01 X1.8755 Y-0.1229
G01 X1.8755 Y0.1229
G01 X1.8434 Y0.3667
G01 X1.7798 Y0.6042
G01 X1.6857 Y0.8313
G01 X1.5628 Y1.0442
G01 X1.4131 Y1.2393
G01 X1.2393 Y1.4131
G01 X1.0442 Y1.5628
G01 X0.8984 Y1.6470
G01 X0.8313 Y1.6857
G01 X0.6042 Y1.7798
G01 X0.3667 Y1.8434
G01 X0.1229 Y1.8755
G01 X-0.1229 Y1.8755
G01 X-0.3667 Y1.8434
G01 X-0.6042 Y1.7798
G01 X-0.8313 Y1.6857
G01 X-1.0442 Y1.5628
G01 X-1.2393 Y1.4131
G01 X-1.4131 Y1.2393
G01 X-1.5628 Y1.0442
G01 X-1.6857 Y0.8313
G01 X-1.7798 Y0.6042
G01 X-1.8434 Y0.3667
G01 X-1.8755 Y0.1229
G01 X-1.8755 Y-0.1229
G01 X-1.8434 Y-0.3667
G01 X-1.7798 Y-0.6042
G01 X-1.6857 Y-0.8313
G00 Z2.0000
G00 X-6.3674 Y2.4292
G01 F250.00
G01 Z-0.0933
G01 F200.00
G01 X-6.3674 Y2.3875
G01 X-6.3282 Y2.3875
G01 X-6.3362 Y2.3957
G01 X-6.3674 Y2.4292
G00 Z2.0000
G00 X-8.7599 Y2.3405
G01 F250.00
G01 Z-0.0933
G01 F200.00
G01 X-8.6731 Y2.2762
G01 X-8.6542 Y2.2607
G01 X-8.6450 Y2.2525
G01 X-8.5832 Y2.1965
G01 X-8.5654 Y2.1796
G01 X-8.5485 Y2.1618
G01 X-8.4925 Y2.1000
G01 X-8.4764 Y2.0814
G01 X-8.4613 Y2.0621
G01 X-8.4116 Y1.9951
G01 X-8.3975 Y1.9750
G01 X-8.3844 Y1.9543
G01 X-8.3415 Y1.8827
G01 X-8.3300 Y1.8625
G01 X-8.3298 Y2.0873
G01 X-8.3294 Y2.0995
G01 X-8.3276 Y2.1240
G01 X-8.3262 Y2.1362
G01 X-8.3226 Y2.1605
G01 X-8.3179 Y2.1846
G01 X-8.3119 Y2.2084
G01 X-8.3048 Y2.2318
G01 X-8.2965 Y2.2549
G01 X-8.2871 Y2.2776
G01 X-8.2766 Y2.2998
G01 X-8.2650 Y2.3214
G01 X-8.2589 Y2.3321
G01 X-8.2476 Y2.3499
G01 X-8.7736 Y2.3499
G01 X-8.7599 Y2.3405
G00 Z2.0000
G00 X-9.1682 Y3.7724
G01 F250.00
G01 Z-0.0933
G01 F200.00
G01 X-9.1862 Y3.7868
G01 X-9.2030 Y3.8025
G01 X-9.2187 Y3.8193
G01 X-9.2331 Y3.8373
G01 X-9.3697 Y3.8374
G01 X-9.3873 Y3.8181
G01 X-9.4037 Y3.8020
G01 X-9.4299 Y3.7788
G01 X-9.4511 Y3.7626
G01 X-9.1543 Y3.7626
G01 X-9.1682 Y3.7724
G00 Z2.0000
G00 X-9.5252 Y4.9548
G01 F250.00
G01 Z-0.0933
G01 F200.00
G01 X-9.5038 Y4.9312
G01 X-9.4883 Y4.9106
G01 X-9.4815 Y4.9004
G01 X-9.4699 Y4.8809
G01 X-9.4668 Y4.8752
G01 X-9.1995 Y4.8751
G01 X-9.2268 Y4.9627
G01 X-9.2946 Y5.0749
G01 X-9.5299 Y5.0749
G01 X-9.5299 Y4.9592
G01 X-9.5252 Y4.9548
G00 Z2.0000
G00 X-10.4801 Y3.7788
G01 F250.00
G01 Z-0.0933
G01 F200.00
G01 X-10.4917 Y3.7889
G01 X-10.5174 Y3.8126
G01 X-10.5280 Y3.8237
G01 X-10.5512 Y3.8499
G01 X-10.5723 Y3.8777
G01 X-10.5811 Y3.8903
G01 X-10.5893 Y3.9032
G01 X-10.6033 Y3.9267
G01 X-10.6105 Y3.9402
G01 X-10.6255 Y3.9718
G01 X-10.6313 Y3.9860
G01 X-10.6431 Y4.0189
G01 X-10.6476 Y4.0336
G01 X-10.6561 Y4.0675
G01 X-10.6591 Y4.0826
G01 X-10.6632 Y4.1095
G01 X-10.6657 Y4.1324
G01 X-10.6671 Y4.1597
G01 X-10.6675 Y4.1750
G01 X-10.6674 Y4.7327
G01 X-10.6662 Y4.7599
G01 X-10.6650 Y4.7752
G01 X-10.6603 Y4.8099
G01 X-10.6577 Y4.8250
G01 X-10.6543 Y4.8399
G01 X-10.6476 Y4.8664
G01 X-10.6431 Y4.8811
G01 X-10.6352 Y4.9036
G01 X-10.7187 Y4.8869
G01 X-10.7338 Y4.8843
G01 X-10.7567 Y4.8818
G01 X-10.7796 Y4.8809
G01 X-10.8026 Y4.8818
G01 X-10.8255 Y4.8843
G01 X-10.8406 Y4.8869
G01 X-10.9249 Y4.9037
G01 X-10.9169 Y4.8811
G01 X-10.9124 Y4.8664
G01 X-10.9057 Y4.8399
G01 X-10.9023 Y4.8250
G01 X-10.8997 Y4.8099
G01 X-10.8950 Y4.7752
G01 X-10.8938 Y4.7599
G01 X-10.8926 Y4.7327
G01 X-10.8926 Y4.1673
G01 X-10.8943 Y4.1324
G01 X-10.8968 Y4.1095
G01 X-10.9023 Y4.0750
G01 X-10.9089 Y4.0472
G01 X-10.6258 Y3.7626
G01 X-10.4589 Y3.7626
G01 X-10.4801 Y3.7788
G00 Z2.0000
G00 X-10.6556 Y1.9543
G01 F250.00
G01 Z-0.0933
G01 F200.00
G01 X-10.6425 Y1.9750
G01 X-10.6284 Y1.9951
G01 X-10.5787 Y2.0621
G01 X-10.5636 Y2.0814
G01 X-10.5475 Y2.1000
G01 X-10.4915 Y2.1618
G01 X-10.4746 Y2.1796
G01 X-10.4568 Y2.1965
G01 X-10.3950 Y2.2525
G01 X-10.3764 Y2.2686
G01 X-10.3571 Y2.2837
G01 X-10.2901 Y2.3334
G01 X-10.2664 Y2.3499
G01 X-10.8800 Y2.3499
G01 X-10.9045 Y2.3505
G01 X-10.9340 Y2.3519
G01 X-10.9584 Y2.3537
G01 X-10.9828 Y2.3567
G01 X-11.0119 Y2.3610
G01 X-11.0361 Y2.3652
G01 X-11.0481 Y2.3678
G01 X-11.0886 Y2.3778
G01 X-11.1048 Y2.3821
G01 X-11.0895 Y2.3689
G01 X-11.0168 Y2.3029
G01 X-10.9990 Y2.2860
G01 X-10.9821 Y2.2682
G01 X-10.9161 Y2.1955
G01 X-10.9001 Y2.1769
G01 X-10.8924 Y2.1673
G01 X-10.8265 Y2.0787
G01 X-10.8193 Y2.0688
G01 X-10.8057 Y2.0483
G01 X-10.7426 Y1.9431
G01 X-10.7310 Y1.9214
G01 X-10.7062 Y1.8693
G01 X-10.6556 Y1.9543
G00 Z2.0000
G00 X-10.1326 Y0.2381
G01 F250.00
G01 Z-0.0933
G01 F200.00
G01 X-10.1594 Y0.2542
G01 X-10.1722 Y0.2628
G01 X-10.2515 Y0.3216
G01 X-10.2691 Y0.3364
G01 X-10.3365 Y0.3976
G01 X-10.3526 Y0.4141
G01 X-10.4086 Y0.4759
G01 X-10.4186 Y0.4875
G01 X-10.4281 Y0.4996
G01 X-10.4778 Y0.5666
G01 X-10.4908 Y0.5856
G01 X-10.5377 Y0.6637
G01 X-10.5452 Y0.6770
G01 X-10.5521 Y0.6907
G01 X-10.5878 Y0.7661
G01 X-10.5940 Y0.7801
G01 X-10.5995 Y0.7944
G01 X-10.6276 Y0.8730
G01 X-10.6324 Y0.8875
G01 X-10.6365 Y0.9023
G01 X-10.6568 Y0.9832
G01 X-10.6602 Y0.9982
G01 X-10.6628 Y1.0133
G01 X-10.6750 Y1.0958
G01 X-10.6776 Y1.1187
G01 X-10.6821 Y1.2097
G01 X-10.6825 Y1.2250
G01 X-10.6821 Y1.2403
G01 X-10.6780 Y1.3236
G01 X-10.6769 Y1.3389
G01 X-10.6750 Y1.3542
G01 X-10.6628 Y1.4367
G01 X-10.6602 Y1.4518
G01 X-10.6568 Y1.4668
G01 X-10.6365 Y1.5477
G01 X-10.6324 Y1.5625
G01 X-10.6276 Y1.5770
G01 X-10.5995 Y1.6556
G01 X-10.5940 Y1.6699
G01 X-10.5878 Y1.6839
G01 X-10.5521 Y1.7593
G01 X-10.5452 Y1.7730
G01 X-10.5377 Y1.7863
G01 X-10.4948 Y1.8579
G01 X-10.4866 Y1.8709
G01 X-10.4778 Y1.8834
G01 X-10.4281 Y1.9504
G01 X-10.4186 Y1.9625
G01 X-10.4086 Y1.9741
G01 X-10.3526 Y2.0359
G01 X-10.3420 Y2.0470
G01 X-10.3309 Y2.0576
G01 X-10.2634 Y2.1187
G01 X-10.2454 Y2.1331
G01 X-10.1784 Y2.1828
G01 X-10.1659 Y2.1916
G01 X-10.1529 Y2.1998
G01 X-10.0813 Y2.2427
G01 X-10.0612 Y2.2538
G01 X-9.9789 Y2.2928
G01 X-9.9649 Y2.2990
G01 X-9.9506 Y2.3045
G01 X-9.8720 Y2.3326
G01 X-9.8575 Y2.3374
G01 X-9.8427 Y2.3415
G01 X-9.7618 Y2.3618
G01 X-9.7468 Y2.3652
G01 X-9.7317 Y2.3678
G01 X-9.6492 Y2.3800
G01 X-9.6339 Y2.3819
G01 X-9.6186 Y2.3830
G01 X-9.5353 Y2.3871
G01 X-9.5200 Y2.3875
G01 X-9.5047 Y2.3871
G01 X-9.4214 Y2.3830
G01 X-9.4061 Y2.3819
G01 X-9.3908 Y2.3800
G01 X-9.3083 Y2.3678
G01 X-9.2932 Y2.3652
G01 X-9.2782 Y2.3618
G01 X-9.1899 Y2.3396
G01 X-9.1680 Y2.3326
G01 X-9.0894 Y2.3045
G01 X-9.0751 Y2.2990
G01 X-9.0611 Y2.2928
G01 X-8.9857 Y2.2571
G01 X-8.9720 Y2.2502
G01 X-8.9587 Y2.2427
G01 X-8.8871 Y2.1998
G01 X-8.8741 Y2.1916
G01 X-8.8616 Y2.1828
G01 X-8.7885 Y2.1284
G01 X-8.7709 Y2.1136
G01 X-8.7091 Y2.0576
G01 X-8.6980 Y2.0470
G01 X-8.6874 Y2.0359
G01 X-8.6314 Y1.9741
G01 X-8.6214 Y1.9625
G01 X-8.6119 Y1.9504
G01 X-8.5622 Y1.8834
G01 X-8.5534 Y1.8709
G01 X-8.5452 Y1.8579
G01 X-8.5023 Y1.7863
G01 X-8.4948 Y1.7730
G01 X-8.4879 Y1.7593
G01 X-8.4522 Y1.6839
G01 X-8.4460 Y1.6699
G01 X-8.4405 Y1.6556
G01 X-8.4124 Y1.5770
G01 X-8.4076 Y1.5625
G01 X-8.4035 Y1.5477
G01 X-8.3832 Y1.4668
G01 X-8.3798 Y1.4518
G01 X-8.3772 Y1.4367
G01 X-8.3639 Y1.3466
G01 X-8.3620 Y1.3236
G01 X-8.3579 Y1.2403
G01 X-8.3575 Y1.2250
G01 X-8.3579 Y1.2097
G01 X-8.3620 Y1.1264
G01 X-8.3631 Y1.1111
G01 X-8.3650 Y1.0958
G01 X-8.3772 Y1.0133
G01 X-8.3798 Y0.9982
G01 X-8.3832 Y0.9832
G01 X-8.4054 Y0.8949
G01 X-8.4124 Y0.8730
G01 X-8.4405 Y0.7944
G01 X-8.4460 Y0.7801
G01 X-8.4522 Y0.7661
G01 X-8.4912 Y0.6838
G01 X-8.5023 Y0.6637
G01 X-8.5492 Y0.5856
G01 X-8.5622 Y0.5666
G01 X-8.5947 Y0.5229
G01 X-8.5315 Y0.5354
G01 X-8.5164 Y0.5381
G01 X-8.5011 Y0.5399
G01 X-8.4858 Y0.5411
G01 X-8.4628 Y0.5413
G01 X-8.4399 Y0.5399
G01 X-8.4171 Y0.5368
G01 X-8.3142 Y0.5165
G01 X-8.2919 Y0.5112
G01 X-8.2699 Y0.5042
G01 X-8.2556 Y0.4987
G01 X-8.2347 Y0.4891
G01 X-8.2212 Y0.4819
G01 X-8.2080 Y0.4740
G01 X-8.1425 Y0.4303
G01 X-8.1425 Y2.0750
G01 X-8.1421 Y2.0903
G01 X-8.1410 Y2.1056
G01 X-8.1379 Y2.1284
G01 X-8.1349 Y2.1435
G01 X-8.1312 Y2.1583
G01 X-8.1242 Y2.1803
G01 X-8.1187 Y2.1946
G01 X-8.1125 Y2.2086
G01 X-8.1056 Y2.2223
G01 X-8.0940 Y2.2422
G01 X-8.0855 Y2.2549
G01 X-8.0764 Y2.2673
G01 X-8.0666 Y2.2791
G01 X-8.0563 Y2.2905
G01 X-8.0455 Y2.3013
G01 X-8.0341 Y2.3116
G01 X-8.0223 Y2.3214
G01 X-8.0099 Y2.3305
G01 X-7.9907 Y2.3430
G01 X-7.9773 Y2.3506
G01 X-7.9566 Y2.3607
G01 X-7.9425 Y2.3666
G01 X-7.9280 Y2.3717
G01 X-7.9133 Y2.3762
G01 X-7.8985 Y2.3799
G01 X-7.8834 Y2.3829
G01 X-7.8683 Y2.3851
G01 X-7.8530 Y2.3867
G01 X-7.8377 Y2.3874
G01 X-7.6839 Y2.3875
G01 X-7.8338 Y2.5374
G01 X-10.8800 Y2.5374
G01 X-10.9248 Y2.5392
G01 X-10.9477 Y2.5411
G01 X-10.9920 Y2.5477
G01 X-11.0145 Y2.5525
G01 X-11.0578 Y2.5637
G01 X-11.1001 Y2.5785
G01 X-11.1215 Y2.5870
G01 X-11.1620 Y2.6062
G01 X-11.1821 Y2.6173
G01 X-11.2204 Y2.6406
G01 X-11.2566 Y2.6670
G01 X-11.2745 Y2.6814
G01 X-11.3021 Y2.7062
G01 X-11.3132 Y2.7168
G01 X-12.0436 Y3.4473
G01 X-12.0686 Y3.4747
G01 X-12.0786 Y3.4863
G01 X-12.0880 Y3.4984
G01 X-12.1144 Y3.5346
G01 X-12.1226 Y3.5476
G01 X-12.1453 Y3.5862
G01 X-12.1522 Y3.5999
G01 X-12.1680 Y3.6335
G01 X-12.1739 Y3.6477
G01 X-12.1890 Y3.6898
G01 X-12.1934 Y3.7045
G01 X-12.2043 Y3.7480
G01 X-12.2073 Y3.7630
G01 X-12.2139 Y3.8073
G01 X-12.2154 Y3.8226
G01 X-12.2162 Y3.8373
G01 X-12.4697 Y3.8374
G01 X-12.4926 Y3.8126
G01 X-12.5183 Y3.7889
G01 X-12.5359 Y3.7740
G01 X-12.5577 Y3.7577
G01 X-12.5767 Y3.7447
G01 X-12.6067 Y3.7267
G01 X-12.6202 Y3.7195
G01 X-12.6449 Y3.7077
G01 X-12.6660 Y3.6987
G01 X-12.6989 Y3.6869
G01 X-12.7136 Y3.6824
G01 X-12.7475 Y3.6739
G01 X-12.7626 Y3.6709
G01 X-12.7971 Y3.6658
G01 X-12.8124 Y3.6643
G01 X-12.8458 Y3.6626
G01 X-12.5800 Y3.6626
G01 X-12.5352 Y3.6608
G01 X-12.5123 Y3.6589
G01 X-12.4680 Y3.6523
G01 X-12.4530 Y3.6493
G01 X-12.4095 Y3.6384
G01 X-12.3948 Y3.6340
G01 X-12.3527 Y3.6189
G01 X-12.3385 Y3.6130
G01 X-12.2980 Y3.5938
G01 X-12.2845 Y3.5866
G01 X-12.2461 Y3.5636
G01 X-12.2271 Y3.5506
G01 X-12.1913 Y3.5236
G01 X-12.1797 Y3.5136
G01 X-12.1523 Y3.4886
G01 X-11.6268 Y2.9632
G01 X-11.6162 Y2.9521
G01 X-11.5914 Y2.9245
G01 X-11.5770 Y2.9066
G01 X-11.5506 Y2.8704
G01 X-11.5273 Y2.8321
G01 X-11.5162 Y2.8120
G01 X-11.4970 Y2.7715
G01 X-11.4885 Y2.7501
G01 X-11.4737 Y2.7078
G01 X-11.4625 Y2.6645
G01 X-11.4591 Y2.6495
G01 X-11.4522 Y2.6053
G01 X-11.4496 Y2.5824
G01 X-11.4477 Y2.5453
G01 X-11.4474 Y2.5300
G01 X-11.4474 Y2.3862
G01 X-11.4277 Y2.3754
G01 X-11.3435 Y2.3249
G01 X-11.3305 Y2.3167
G01 X-11.3180 Y2.3079
G01 X-11.2391 Y2.2494
G01 X-11.2270 Y2.2400
G01 X-11.2154 Y2.2299
G01 X-11.1427 Y2.1640
G01 X-11.1316 Y2.1534
G01 X-11.1210 Y2.1423
G01 X-11.0551 Y2.0696
G01 X-11.0450 Y2.0580
G01 X-11.0356 Y2.0459
G01 X-10.9771 Y1.9670
G01 X-10.9683 Y1.9545
G01 X-10.9601 Y1.9415
G01 X-10.9096 Y1.8573
G01 X-10.9020 Y1.8439
G01 X-10.8951 Y1.8302
G01 X-10.8532 Y1.7415
G01 X-10.8469 Y1.7275
G01 X-10.8414 Y1.7132
G01 X-10.8083 Y1.6207
G01 X-10.8035 Y1.6061
G01 X-10.7994 Y1.5914
G01 X-10.7756 Y1.4961
G01 X-10.7722 Y1.4812
G01 X-10.7696 Y1.4660
G01 X-10.7552 Y1.3689
G01 X-10.7533 Y1.3537
G01 X-10.7522 Y1.3384
G01 X-10.7474 Y1.2403
G01 X-10.7470 Y1.2250
G01 X-10.7470 Y-10.2600
G01 X-10.7474 Y-10.2753
G01 X-10.7522 Y-10.3734
G01 X-10.7533 Y-10.3887
G01 X-10.7552 Y-10.4039
G01 X-10.7708 Y-10.5086
G01 X-10.7756 Y-10.5311
G01 X-10.7994 Y-10.6264
G01 X-10.8035 Y-10.6411
G01 X-10.8083 Y-10.6557
G01 X-10.8414 Y-10.7482
G01 X-10.8469 Y-10.7625
G01 X-10.8532 Y-10.7765
G01 X-10.8951 Y-10.8652
G01 X-10.9020 Y-10.8789
G01 X-10.9096 Y-10.8923
G01 X-10.9601 Y-10.9765
G01 X-10.9683 Y-10.9895
G01 X-10.9771 Y-11.0020
G01 X-11.0356 Y-11.0809
G01 X-11.0450 Y-11.0930
G01 X-11.0551 Y-11.1046
G01 X-11.1262 Y-11.1829
G01 X-16.0875 Y-16.1444
G01 X-16.0875 Y-16.6000
G01 X-16.0891 Y-16.6398
G01 X-16.0902 Y-16.6551
G01 X-16.0957 Y-16.6946
G01 X-16.0983 Y-16.7097
G01 X-16.1076 Y-16.7485
G01 X-16.1140 Y-16.7706
G01 X-16.1275 Y-16.8081
G01 X-16.1333 Y-16.8223
G01 X-16.1504 Y-16.8584
G01 X-16.1576 Y-16.8719
G01 X-16.1668 Y-16.8874
G01 X-15.5838 Y-16.8874
G01 X-10.1326 Y-11.4362
G01 X-10.1326 Y0.2381
G00 Z2.0000
G00 X-10.3201 Y0.1389
G01 F250.00
G01 Z-0.0933
G01 F200.00
G01 X-10.3669 Y0.1738
G01 X-10.3858 Y0.1893
G01 X-10.4658 Y0.2618
G01 X-10.4746 Y0.2704
G01 X-10.4915 Y0.2882
G01 X-10.5475 Y0.3500
G01 X-10.5595 Y0.3637
G01 X-10.5595 Y-10.2600
G01 X-10.5601 Y-10.2845
G01 X-10.5649 Y-10.3826
G01 X-10.5667 Y-10.4071
G01 X-10.5697 Y-10.4314
G01 X-10.5841 Y-10.5286
G01 X-10.5883 Y-10.5527
G01 X-10.5937 Y-10.5767
G01 X-10.6176 Y-10.6719
G01 X-10.6241 Y-10.6956
G01 X-10.6278 Y-10.7073
G01 X-10.6692 Y-10.8228
G01 X-10.6737 Y-10.8342
G01 X-10.6837 Y-10.8567
G01 X-10.7256 Y-10.9454
G01 X-10.7367 Y-10.9673
G01 X-10.7488 Y-10.9887
G01 X-10.7993 Y-11.0729
G01 X-10.8057 Y-11.0833
G01 X-10.8193 Y-11.1038
G01 X-10.8924 Y-11.2023
G01 X-10.9001 Y-11.2119
G01 X-10.9161 Y-11.2305
G01 X-10.9904 Y-11.3122
G01 X-15.9000 Y-16.2220
G01 X-15.9002 Y-16.6123
G01 X-15.9026 Y-16.6613
G01 X-15.9050 Y-16.6857
G01 X-15.9069 Y-16.6999
G01 X-15.6614 Y-16.6999
G01 X-10.3201 Y-11.3586
G01 X-10.3201 Y0.1389
G00 Z2.0000
G00 X-13.4401 Y2.1769
G01 F250.00
G01 Z-0.0933
G01 F200.00
G01 X-13.4250 Y2.1576
G01 X-13.3593 Y2.0688
G01 X-13.3457 Y2.0483
G01 X-13.3300 Y2.0225
G01 X-13.3143 Y2.0483
G01 X-13.3007 Y2.0688
G01 X-13.2276 Y2.1673
G01 X-13.2120 Y2.1863
G01 X-13.1546 Y2.2499
G01 X-13.5054 Y2.2499
G01 X-13.4561 Y2.1955
G01 X-13.4401 Y2.1769
G00 Z2.0000
G00 X-13.9948 Y2.3899
G01 F250.00
G01 Z-0.0933
G01 F200.00
G01 X-13.9811 Y2.3830
G01 X-13.9677 Y2.3754
G01 X-13.8835 Y2.3249
G01 X-13.8705 Y2.3167
G01 X-13.8580 Y2.3079
G01 X-13.7791 Y2.2494
G01 X-13.7670 Y2.2400
G01 X-13.7554 Y2.2299
G01 X-13.6827 Y2.1640
G01 X-13.6716 Y2.1534
G01 X-13.6610 Y2.1423
G01 X-13.5951 Y2.0696
G01 X-13.5802 Y2.0520
G01 X-13.5171 Y1.9670
G01 X-13.5083 Y1.9545
G01 X-13.5001 Y1.9415
G01 X-13.4496 Y1.8573
G01 X-13.4385 Y1.8371
G01 X-13.3932 Y1.7415
G01 X-13.3841 Y1.7203
G01 X-13.3459 Y1.6135
G01 X-13.3414 Y1.5988
G01 X-13.3300 Y1.5536
G01 X-13.3186 Y1.5988
G01 X-13.3141 Y1.6135
G01 X-13.2759 Y1.7203
G01 X-13.2668 Y1.7415
G01 X-13.2215 Y1.8371
G01 X-13.2104 Y1.8573
G01 X-13.1599 Y1.9415
G01 X-13.1517 Y1.9545
G01 X-13.1429 Y1.9670
G01 X-13.0844 Y2.0459
G01 X-13.0750 Y2.0580
G01 X-13.0649 Y2.0696
G01 X-12.9990 Y2.1423
G01 X-12.9884 Y2.1534
G01 X-12.9773 Y2.1640
G01 X-12.8988 Y2.2350
G01 X-12.8809 Y2.2494
G01 X-12.7958 Y2.3124
G01 X-12.7830 Y2.3209
G01 X-12.7420 Y2.3456
G01 X-12.8338 Y2.4374
G01 X-14.0959 Y2.4374
G01 X-14.0835 Y2.4318
G01 X-13.9948 Y2.3899
G00 Z2.0000
G00 X-15.1041 Y2.4374
G01 F250.00
G01 Z-0.0933
G01 F200.00
G01 X-15.1262 Y2.4374
G01 X-15.1454 Y2.4181
G01 X-15.1165 Y2.4318
G01 X-15.1041 Y2.4374
G00 Z2.0000
G00 X-14.9203 Y3.6629
G01 F250.00
G01 Z-0.0933
G01 F200.00
G01 X-14.9552 Y3.6650
G01 X-14.9705 Y3.6668
G01 X-14.9974 Y3.6709
G01 X-15.0199 Y3.6757
G01 X-15.0464 Y3.6824
G01 X-15.0611 Y3.6869
G01 X-15.0868 Y3.6960
G01 X-15.1011 Y3.7015
G01 X-15.1151 Y3.7077
G01 X-15.1398 Y3.7195
G01 X-15.1533 Y3.7267
G01 X-15.1768 Y3.7407
G01 X-15.1897 Y3.7489
G01 X-15.2043 Y3.7592
G01 X-15.3009 Y3.6626
G01 X-14.9142 Y3.6626
G01 X-14.9203 Y3.6629
G00 Z2.0000
G00 X-13.8780 Y3.8559
G01 F250.00
G01 Z-0.0933
G01 F200.00
G01 X-13.8800 Y3.8600
G01 X-13.8850 Y3.8501
G01 X-13.8750 Y3.8501
G01 X-13.8780 Y3.8559
G00 Z2.0000
G00 X-13.5798 Y4.1689
G01 F250.00
G01 Z-0.0933
G01 F200.00
G01 X-13.5784 Y4.1431
G01 X-13.5738 Y4.1116
G01 X-13.5660 Y4.0807
G01 X-13.5553 Y4.0506
G01 X-13.5416 Y4.0218
G01 X-13.5252 Y3.9944
G01 X-13.5062 Y3.9688
G01 X-13.4890 Y3.9496
G01 X-13.4826 Y3.9430
G01 X-13.4658 Y3.9278
G01 X-13.4563 Y3.9200
G01 X-13.4330 Y3.9031
G01 X-13.4109 Y3.8899
G01 X-13.4027 Y3.8856
G01 X-13.3794 Y3.8747
G01 X-13.3493 Y3.8640
G01 X-13.3184 Y3.8562
G01 X-13.2869 Y3.8516
G01 X-13.2550 Y3.8500
G01 X-12.8550 Y3.8500
G01 X-12.8231 Y3.8516
G01 X-12.7976 Y3.8552
G01 X-12.7856 Y3.8576
G01 X-12.7636 Y3.8631
G01 X-12.7548 Y3.8659
G01 X-12.7306 Y3.8747
G01 X-12.7073 Y3.8856
G01 X-12.6991 Y3.8899
G01 X-12.6770 Y3.9031
G01 X-12.6694 Y3.9083
G01 X-12.6512 Y3.9219
G01 X-12.6442 Y3.9278
G01 X-12.6252 Y3.9452
G01 X-12.6038 Y3.9688
G01 X-12.5848 Y3.9944
G01 X-12.5714 Y4.0165
G01 X-12.5668 Y4.0249
G01 X-12.0932 Y4.0248
G01 X-12.0886 Y4.0165
G01 X-12.0769 Y3.9970
G01 X-12.0600 Y3.9737
G01 X-12.0543 Y3.9665
G01 X-12.0390 Y3.9496
G01 X-12.0301 Y3.9408
G01 X-12.0301 Y3.8719
G01 X-12.0281 Y3.8333
G01 X-12.0220 Y3.7921
G01 X-12.0118 Y3.7516
G01 X-11.9978 Y3.7123
G01 X-11.9799 Y3.6746
G01 X-11.9585 Y3.6388
G01 X-11.9374 Y3.6101
G01 X-11.9317 Y3.6029
G01 X-11.9056 Y3.5744
G01 X-11.1806 Y2.8494
G01 X-11.1544 Y2.8254
G01 X-11.1449 Y2.8176
G01 X-11.1162 Y2.7965
G01 X-11.0858 Y2.7781
G01 X-11.0777 Y2.7736
G01 X-11.0455 Y2.7584
G01 X-11.0370 Y2.7550
G01 X-11.0034 Y2.7432
G01 X-10.9689 Y2.7344
G01 X-10.9569 Y2.7320
G01 X-10.9217 Y2.7269
G01 X-10.8800 Y2.7249
G01 X-7.7561 Y2.7248
G01 X-7.4051 Y2.3739
G01 X-7.4052 Y2.2000
G01 X-7.8300 Y2.2000
G01 X-7.8423 Y2.1994
G01 X-7.8514 Y2.1982
G01 X-7.8604 Y2.1963
G01 X-7.8692 Y2.1937
G01 X-7.8834 Y2.1880
G01 X-7.8916 Y2.1838
G01 X-7.8994 Y2.1789
G01 X-7.9069 Y2.1735
G01 X-7.9139 Y2.1676
G01 X-7.9205 Y2.1612
G01 X-7.9266 Y2.1543
G01 X-7.9322 Y2.1470
G01 X-7.9372 Y2.1393
G01 X-7.9417 Y2.1312
G01 X-7.9455 Y2.1228
G01 X-7.9505 Y2.1083
G01 X-7.9526 Y2.0994
G01 X-7.9541 Y2.0903
G01 X-7.9550 Y2.0750
G01 X-7.9550 Y0.3750
G01 X-7.9547 Y0.3658
G01 X-7.9536 Y0.3567
G01 X-7.9520 Y0.3476
G01 X-7.9496 Y0.3387
G01 X-7.9466 Y0.3300
G01 X-7.9417 Y0.3188
G01 X-7.9372 Y0.3107
G01 X-7.9322 Y0.3030
G01 X-7.9226 Y0.2911
G01 X-7.9116 Y0.2803
G01 X-7.8994 Y0.2711
G01 X-7.8889 Y0.2648
G01 X-7.8778 Y0.2595
G01 X-7.8633 Y0.2545
G01 X-7.8483 Y0.2514
G01 X-7.8331 Y0.2500
G01 X-6.1300 Y0.2500
G01 X-6.1208 Y0.2503
G01 X-6.1117 Y0.2514
G01 X-6.1026 Y0.2530
G01 X-6.0937 Y0.2554
G01 X-6.0793 Y0.2607
G01 X-6.0711 Y0.2648
G01 X-6.0631 Y0.2694
G01 X-6.0507 Y0.2784
G01 X-6.0438 Y0.2845
G01 X-6.0374 Y0.2911
G01 X-6.0278 Y0.3030
G01 X-6.0228 Y0.3107
G01 X-6.0183 Y0.3188
G01 X-6.0123 Y0.3329
G01 X-6.0080 Y0.3476
G01 X-6.0059 Y0.3597
G01 X-6.0050 Y0.3750
G01 X-6.0050 Y2.0750
G01 X-6.0056 Y2.0873
G01 X-6.0074 Y2.0994
G01 X-6.0104 Y2.1113
G01 X-6.0145 Y2.1228
G01 X-6.0212 Y2.1366
G01 X-6.0296 Y2.1495
G01 X-6.0395 Y2.1612
G01 X-6.0461 Y2.1676
G01 X-6.0531 Y2.1735
G01 X-6.0657 Y2.1822
G01 X-6.0738 Y2.1867
G01 X-6.0822 Y2.1905
G01 X-6.0967 Y2.1955
G01 X-6.1117 Y2.1986
G01 X-6.1208 Y2.1997
G01 X-6.1300 Y2.2000
G01 X-6.5549 Y2.2000
G01 X-6.5549 Y2.5500
G01 X-6.5564 Y2.5856
G01 X-6.5572 Y2.5947
G01 X-6.5625 Y2.6299
G01 X-6.5644 Y2.6389
G01 X-6.5732 Y2.6734
G01 X-6.5850 Y2.7070
G01 X-6.5897 Y2.7183
G01 X-6.6051 Y2.7504
G01 X-6.6248 Y2.7836
G01 X-6.6300 Y2.7912
G01 X-6.6514 Y2.8197
G01 X-6.6794 Y2.8506
G01 X-7.2794 Y3.4506
G01 X-7.3103 Y3.4786
G01 X-7.3388 Y3.5000
G01 X-7.3490 Y3.5068
G01 X-7.3742 Y3.5219
G01 X-7.3823 Y3.5264
G01 X-7.4145 Y3.5416
G01 X-7.4230 Y3.5450
G01 X-7.4566 Y3.5568
G01 X-7.4911 Y3.5656
G01 X-7.5031 Y3.5680
G01 X-7.5383 Y3.5731
G01 X-7.5769 Y3.5751
G01 X-10.7039 Y3.5752
G01 X-11.1303 Y4.0016
G01 X-11.1184 Y4.0218
G01 X-11.1072 Y4.0450
G01 X-11.1036 Y4.0535
G01 X-11.0949 Y4.0777
G01 X-11.0924 Y4.0866
G01 X-11.0862 Y4.1116
G01 X-11.0823 Y4.1371
G01 X-11.0811 Y4.1493
G01 X-11.0800 Y4.1750
G01 X-11.0800 Y4.7250
G01 X-11.0816 Y4.7569
G01 X-11.0852 Y4.7824
G01 X-11.0869 Y4.7914
G01 X-11.0940 Y4.8193
G01 X-11.1036 Y4.8465
G01 X-11.1156 Y4.8727
G01 X-11.1214 Y4.8835
G01 X-11.1348 Y4.9056
G01 X-11.1538 Y4.9312
G01 X-11.1752 Y4.9548
G01 X-11.1942 Y4.9722
G01 X-11.2037 Y4.9800
G01 X-11.2219 Y4.9935
G01 X-11.2296 Y4.9985
G01 X-11.2518 Y5.0116
G01 X-11.2806 Y5.0253
G01 X-11.3107 Y5.0360
G01 X-11.3356 Y5.0424
G01 X-11.3476 Y5.0448
G01 X-11.3731 Y5.0484
G01 X-11.4050 Y5.0500
G01 X-11.8050 Y5.0500
G01 X-11.8369 Y5.0484
G01 X-11.8624 Y5.0448
G01 X-11.8744 Y5.0424
G01 X-11.8964 Y5.0369
G01 X-11.9052 Y5.0341
G01 X-11.9294 Y5.0253
G01 X-11.9527 Y5.0144
G01 X-11.9609 Y5.0101
G01 X-11.9830 Y4.9969
G01 X-11.9906 Y4.9917
G01 X-12.0088 Y4.9781
G01 X-12.0158 Y4.9722
G01 X-12.0348 Y4.9548
G01 X-12.0562 Y4.9312
G01 X-12.0752 Y4.9056
G01 X-12.0886 Y4.8835
G01 X-12.0932 Y4.8751
G01 X-12.5668 Y4.8752
G01 X-12.5714 Y4.8835
G01 X-12.5848 Y4.9056
G01 X-12.6000 Y4.9263
G01 X-12.6078 Y4.9358
G01 X-12.6252 Y4.9548
G01 X-12.6442 Y4.9722
G01 X-12.6537 Y4.9800
G01 X-12.6744 Y4.9952
G01 X-12.7018 Y5.0116
G01 X-12.7250 Y5.0228
G01 X-12.7364 Y5.0275
G01 X-12.7607 Y5.0360
G01 X-12.7856 Y5.0424
G01 X-12.7946 Y5.0443
G01 X-12.8201 Y5.0481
G01 X-12.8293 Y5.0489
G01 X-12.8550 Y5.0500
G01 X-13.2611 Y5.0498
G01 X-13.2869 Y5.0484
G01 X-13.3184 Y5.0438
G01 X-13.3493 Y5.0360
G01 X-13.3765 Y5.0264
G01 X-13.3850 Y5.0228
G01 X-13.4082 Y5.0116
G01 X-13.4304 Y4.9985
G01 X-13.4406 Y4.9917
G01 X-13.4612 Y4.9762
G01 X-13.4804 Y4.9590
G01 X-13.4890 Y4.9504
G01 X-13.5062 Y4.9312
G01 X-13.5252 Y4.9056
G01 X-13.5386 Y4.8835
G01 X-13.5444 Y4.8727
G01 X-13.5553 Y4.8494
G01 X-13.5641 Y4.8252
G01 X-13.5669 Y4.8164
G01 X-13.5731 Y4.7914
G01 X-13.5748 Y4.7824
G01 X-13.5784 Y4.7569
G01 X-13.5800 Y4.7250
G01 X-13.5798 Y4.1689
G00 Z2.0000
G00 X-13.2703 Y3.6629
G01 F250.00
G01 Z-0.0933
G01 F200.00
G01 X-13.3052 Y3.6650
G01 X-13.3205 Y3.6668
G01 X-13.3474 Y3.6709
G01 X-13.3699 Y3.6757
G01 X-13.3964 Y3.6824
G01 X-13.4111 Y3.6869
G01 X-13.4368 Y3.6960
G01 X-13.4511 Y3.7015
G01 X-13.4651 Y3.7077
G01 X-13.4898 Y3.7195
G01 X-13.5099 Y3.7306
G01 X-13.5333 Y3.7447
G01 X-13.5461 Y3.7532
G01 X-13.5680 Y3.7694
G01 X-13.5801 Y3.7788
G01 X-13.5917 Y3.7889
G01 X-13.6119 Y3.8073
G01 X-13.6280 Y3.8237
G01 X-13.6462 Y3.8440
G01 X-13.6560 Y3.8559
G01 X-13.6723 Y3.8777
G01 X-13.6811 Y3.8903
G01 X-13.6893 Y3.9032
G01 X-13.7033 Y3.9267
G01 X-13.7139 Y3.9471
G01 X-13.7255 Y3.9718
G01 X-13.7313 Y3.9860
G01 X-13.7406 Y4.0117
G01 X-13.7454 Y4.0262
G01 X-13.7543 Y4.0601
G01 X-13.7577 Y4.0750
G01 X-13.7603 Y4.0901
G01 X-13.7650 Y4.1248
G01 X-13.7671 Y4.1597
G01 X-13.7675 Y4.1750
G01 X-13.7675 Y4.7250
G01 X-13.7671 Y4.7403
G01 X-13.7657 Y4.7676
G01 X-13.7642 Y4.7829
G01 X-13.7603 Y4.8099
G01 X-13.7577 Y4.8250
G01 X-13.7543 Y4.8399
G01 X-13.7476 Y4.8664
G01 X-13.7431 Y4.8811
G01 X-13.7350 Y4.9040
G01 X-13.8190 Y4.8873
G01 X-13.8342 Y4.8847
G01 X-13.8570 Y4.8821
G01 X-13.8800 Y4.8813
G01 X-13.9030 Y4.8821
G01 X-13.9259 Y4.8847
G01 X-13.9410 Y4.8873
G01 X-14.0250 Y4.9040
G01 X-14.0169 Y4.8811
G01 X-14.0124 Y4.8664
G01 X-14.0057 Y4.8399
G01 X-14.0023 Y4.8250
G01 X-13.9997 Y4.8099
G01 X-13.9958 Y4.7829
G01 X-13.9943 Y4.7676
G01 X-13.9929 Y4.7403
G01 X-13.9925 Y4.7250
G01 X-13.9925 Y4.1750
G01 X-13.9929 Y4.1597
G01 X-13.9950 Y4.1248
G01 X-13.9997 Y4.0901
G01 X-14.0023 Y4.0750
G01 X-14.0057 Y4.0601
G01 X-14.0146 Y4.0262
G01 X-14.0194 Y4.0117
G01 X-14.0287 Y3.9860
G01 X-14.0345 Y3.9718
G01 X-14.0461 Y3.9471
G01 X-14.0567 Y3.9267
G01 X-14.0707 Y3.9032
G01 X-14.0789 Y3.8903
G01 X-14.0877 Y3.8777
G01 X-14.1040 Y3.8559
G01 X-14.1189 Y3.8383
G01 X-14.1373 Y3.8181
G01 X-14.1481 Y3.8073
G01 X-14.1683 Y3.7889
G01 X-14.1799 Y3.7788
G01 X-14.1920 Y3.7694
G01 X-14.2139 Y3.7532
G01 X-14.2332 Y3.7407
G01 X-14.2567 Y3.7267
G01 X-14.2702 Y3.7195
G01 X-14.2949 Y3.7077
G01 X-14.3089 Y3.7015
G01 X-14.3232 Y3.6960
G01 X-14.3489 Y3.6869
G01 X-14.3636 Y3.6824
G01 X-14.3901 Y3.6757
G01 X-14.4126 Y3.6709
G01 X-14.4395 Y3.6668
G01 X-14.4548 Y3.6650
G01 X-14.4701 Y3.6638
G01 X-14.4958 Y3.6626
G01 X-13.2642 Y3.6626
G01 X-13.2703 Y3.6629
G00 Z2.0000
G00 X-17.0836 Y3.6332
G01 F250.00
G01 Z-0.0933
G01 F200.00
G01 X-17.0989 Y3.6317
G01 X-17.1219 Y3.6309
G01 X-17.1372 Y3.6312
G01 X-17.1601 Y3.6332
G01 X-17.1828 Y3.6369
G01 X-17.2781 Y3.6558
G01 X-17.2931 Y3.6592
G01 X-17.3079 Y3.6633
G01 X-17.3224 Y3.6681
G01 X-17.3367 Y3.6736
G01 X-17.3508 Y3.6798
G01 X-17.3645 Y3.6867
G01 X-17.3778 Y3.6943
G01 X-17.4089 Y3.7146
G01 X-17.4014 Y3.6843
G01 X-17.3984 Y3.6693
G01 X-17.3850 Y3.5792
G01 X-17.3831 Y3.5639
G01 X-17.3820 Y3.5486
G01 X-17.3779 Y3.4653
G01 X-17.3776 Y3.4423
G01 X-17.3824 Y3.3437
G01 X-17.3839 Y3.3284
G01 X-17.3866 Y3.3098
G01 X-17.0592 Y3.6372
G01 X-17.0836 Y3.6332
G00 Z2.0000
G00 X-19.9028 Y2.6797
G01 F250.00
G01 Z-0.0933
G01 F200.00
G01 X-19.8898 Y2.6878
G01 X-19.8764 Y2.6953
G01 X-19.7903 Y2.7403
G01 X-19.7765 Y2.7471
G01 X-19.7624 Y2.7532
G01 X-19.7481 Y2.7586
G01 X-19.7335 Y2.7633
G01 X-19.7187 Y2.7672
G01 X-19.7037 Y2.7705
G01 X-19.6809 Y2.7739
G01 X-19.5765 Y2.7834
G01 X-19.5612 Y2.7844
G01 X-19.5459 Y2.7846
G01 X-19.5229 Y2.7836
G01 X-19.5077 Y2.7819
G01 X-19.4882 Y2.7787
G01 X-19.5022 Y2.7978
G01 X-19.5108 Y2.8106
G01 X-19.5577 Y2.8887
G01 X-19.5688 Y2.9088
G01 X-19.6078 Y2.9911
G01 X-19.6140 Y3.0051
G01 X-19.6195 Y3.0194
G01 X-19.6501 Y3.1052
G01 X-19.6565 Y3.1273
G01 X-19.6768 Y3.2082
G01 X-19.6802 Y3.2232
G01 X-19.6828 Y3.2383
G01 X-19.6950 Y3.3208
G01 X-19.6969 Y3.3361
G01 X-19.6980 Y3.3514
G01 X-19.7021 Y3.4347
G01 X-19.7025 Y3.4500
G01 X-19.7021 Y3.4653
G01 X-19.6980 Y3.5486
G01 X-19.6969 Y3.5639
G01 X-19.6950 Y3.5792
G01 X-19.6828 Y3.6617
G01 X-19.6802 Y3.6768
G01 X-19.6768 Y3.6918
G01 X-19.6565 Y3.7727
G01 X-19.6501 Y3.7948
G01 X-19.6195 Y3.8806
G01 X-19.6140 Y3.8949
G01 X-19.6078 Y3.9089
G01 X-19.5688 Y3.9912
G01 X-19.5577 Y4.0113
G01 X-19.5108 Y4.0894
G01 X-19.5022 Y4.1022
G01 X-19.4852 Y4.1253
G01 X-19.5705 Y4.1160
G01 X-19.5935 Y4.1149
G01 X-19.6165 Y4.1155
G01 X-19.6318 Y4.1169
G01 X-19.6545 Y4.1203
G01 X-19.6770 Y4.1253
G01 X-19.7850 Y4.1568
G01 X-19.7995 Y4.1618
G01 X-19.8207 Y4.1707
G01 X-19.8412 Y4.1810
G01 X-19.8545 Y4.1888
G01 X-19.8673 Y4.1972
G01 X-19.8798 Y4.2062
G01 X-19.9175 Y4.2363
G01 X-19.9175 Y2.6695
G01 X-19.9028 Y2.6797
G00 Z2.0000
G00 X-21.3066 Y1.6963
G01 F250.00
G01 Z-0.0933
G01 F200.00
G01 X-21.3003 Y1.6858
G01 X-21.2463 Y1.6050
G01 X-21.2409 Y1.5975
G01 X-21.2350 Y1.5905
G01 X-21.0203 Y1.3756
G01 X-20.9464 Y1.2650
G01 X-20.8955 Y1.1420
G01 X-20.8695 Y1.0115
G01 X-20.8695 Y0.9396
G01 X-20.8686 Y0.9243
G01 X-20.8671 Y0.9152
G01 X-20.8481 Y0.8199
G01 X-20.8452 Y0.8080
G01 X-20.8398 Y0.7936
G01 X-20.8328 Y0.7800
G01 X-20.7738 Y0.6915
G01 X-20.7682 Y0.6842
G01 X-20.7600 Y0.6751
G01 X-20.7532 Y0.6689
G01 X-20.7460 Y0.6631
G01 X-20.6602 Y0.6056
G01 X-20.6524 Y0.6008
G01 X-20.6442 Y0.5965
G01 X-20.6300 Y0.5909
G01 X-20.6182 Y0.5876
G01 X-20.5138 Y0.5669
G01 X-20.5047 Y0.5659
G01 X-20.4955 Y0.5656
G01 X-20.0642 Y0.5656
G01 X-20.0450 Y0.5641
G01 X-19.9993 Y0.5509
G01 X-19.9496 Y0.5411
G01 X-19.9348 Y0.5391
G01 X-19.9199 Y0.5390
G01 X-19.8141 Y0.5489
G01 X-19.8050 Y0.5503
G01 X-19.7931 Y0.5532
G01 X-19.7844 Y0.5562
G01 X-19.7732 Y0.5611
G01 X-19.6792 Y0.6110
G01 X-19.6715 Y0.6160
G01 X-19.6642 Y0.6216
G01 X-19.6573 Y0.6276
G01 X-19.6488 Y0.6365
G01 X-19.5830 Y0.7161
G01 X-19.5742 Y0.7287
G01 X-19.5684 Y0.7395
G01 X-19.5648 Y0.7479
G01 X-19.5617 Y0.7566
G01 X-19.5332 Y0.8495
G01 X-19.5308 Y0.8584
G01 X-19.5283 Y0.8735
G01 X-19.5219 Y0.9364
G01 X-19.4775 Y1.0704
G01 X-19.4039 Y1.1898
G01 X-19.3047 Y1.2889
G01 X-19.1853 Y1.3626
G01 X-19.1051 Y1.3891
G01 X-19.1052 Y1.1178
G01 X-19.1244 Y1.1061
G01 X-19.1472 Y1.0894
G01 X-19.1544 Y1.0837
G01 X-19.1753 Y1.0647
G01 X-19.1817 Y1.0581
G01 X-19.2006 Y1.0371
G01 X-19.2175 Y1.0146
G01 X-19.2227 Y1.0070
G01 X-19.2372 Y0.9828
G01 X-19.2414 Y0.9746
G01 X-19.2534 Y0.9490
G01 X-19.2630 Y0.9225
G01 X-19.2666 Y0.9108
G01 X-19.2733 Y0.8834
G01 X-19.2783 Y0.8494
G01 X-19.2800 Y0.8151
G01 X-19.2800 Y0.3651
G01 X-19.2786 Y0.3338
G01 X-19.2776 Y0.3247
G01 X-19.2733 Y0.2968
G01 X-19.2666 Y0.2694
G01 X-19.2630 Y0.2577
G01 X-19.2534 Y0.2312
G01 X-19.2414 Y0.2056
G01 X-19.2372 Y0.1974
G01 X-19.2227 Y0.1732
G01 X-19.2175 Y0.1656
G01 X-19.2006 Y0.1431
G01 X-19.1775 Y0.1176
G01 X-19.1520 Y0.0945
G01 X-19.1295 Y0.0776
G01 X-19.1193 Y0.0708
G01 X-19.0950 Y0.0564
G01 X-19.0695 Y0.0442
G01 X-19.0611 Y0.0406
G01 X-19.0374 Y0.0321
G01 X-19.0287 Y0.0293
G01 X-19.0013 Y0.0225
G01 X-18.9922 Y0.0208
G01 X-18.9674 Y0.0171
G01 X-18.9582 Y0.0163
G01 X-18.9300 Y0.0151
G01 X-18.4300 Y0.0151
G01 X-18.4018 Y0.0163
G01 X-18.3896 Y0.0175
G01 X-18.3617 Y0.0218
G01 X-18.3284 Y0.0302
G01 X-18.2961 Y0.0417
G01 X-18.2705 Y0.0537
G01 X-18.2623 Y0.0579
G01 X-18.2381 Y0.0724
G01 X-18.2305 Y0.0776
G01 X-18.2080 Y0.0945
G01 X-18.1847 Y0.1155
G01 X-18.1783 Y0.1220
G01 X-18.1594 Y0.1431
G01 X-18.1425 Y0.1656
G01 X-18.1357 Y0.1758
G01 X-18.1213 Y0.2001
G01 X-18.1091 Y0.2255
G01 X-18.1044 Y0.2369
G01 X-18.0951 Y0.2635
G01 X-18.0881 Y0.2908
G01 X-18.0857 Y0.3029
G01 X-18.0817 Y0.3308
G01 X-18.0802 Y0.3590
G01 X-18.0800 Y0.8182
G01 X-18.0817 Y0.8494
G01 X-18.0857 Y0.8773
G01 X-18.0874 Y0.8864
G01 X-18.0951 Y0.9167
G01 X-18.1044 Y0.9433
G01 X-18.1079 Y0.9519
G01 X-18.1186 Y0.9746
G01 X-18.1228 Y0.9828
G01 X-18.1373 Y1.0070
G01 X-18.1425 Y1.0146
G01 X-18.1614 Y1.0395
G01 X-18.1804 Y1.0604
G01 X-18.1870 Y1.0668
G01 X-18.2056 Y1.0837
G01 X-18.2128 Y1.0894
G01 X-18.2356 Y1.1061
G01 X-18.2549 Y1.1178
G01 X-18.2549 Y1.5362
G01 X-18.2495 Y1.5436
G01 X-18.1938 Y1.6269
G01 X-18.1878 Y1.6376
G01 X-18.1840 Y1.6460
G01 X-18.1798 Y1.6575
G01 X-18.1769 Y1.6694
G01 X-18.1579 Y1.7647
G01 X-18.1558 Y1.7799
G01 X-18.1555 Y1.7891
G01 X-18.1555 Y1.9920
G01 X-18.1579 Y2.0300
G01 X-18.1588 Y2.0389
G01 X-18.1610 Y2.0505
G01 X-18.1650 Y2.0641
G01 X-18.1650 Y2.5500
G01 X-18.0804 Y2.5901
G01 X-18.0035 Y2.6360
G01 X-17.9933 Y2.6428
G01 X-17.9215 Y2.6963
G01 X-17.8550 Y2.7563
G01 X-17.8463 Y2.7650
G01 X-17.7863 Y2.8315
G01 X-17.7328 Y2.9033
G01 X-17.7260 Y2.9135
G01 X-17.6801 Y2.9904
G01 X-17.6417 Y3.0713
G01 X-17.6370 Y3.0826
G01 X-17.6070 Y3.1670
G01 X-17.5851 Y3.2538
G01 X-17.5827 Y3.2658
G01 X-17.5697 Y3.3544
G01 X-17.5650 Y3.4500
G01 X-17.5697 Y3.5456
G01 X-17.5837 Y3.6402
G01 X-17.6053 Y3.7271
G01 X-17.6079 Y3.7360
G01 X-17.6392 Y3.8231
G01 X-17.6774 Y3.9041
G01 X-17.6816 Y3.9123
G01 X-17.7260 Y3.9865
G01 X-17.7311 Y3.9942
G01 X-17.7844 Y4.0661
G01 X-17.7903 Y4.0732
G01 X-17.8213 Y4.1074
G01 X-17.6432 Y4.2856
G01 X-17.5980 Y4.2404
G01 X-17.4751 Y4.0648
G01 X-17.4595 Y4.0315
G01 X-17.4534 Y4.0206
G01 X-17.4003 Y3.9446
G01 X-17.3947 Y3.9372
G01 X-17.3842 Y3.9259
G01 X-17.3724 Y3.9159
G01 X-17.2866 Y3.8584
G01 X-17.2788 Y3.8535
G01 X-17.2678 Y3.8480
G01 X-17.2593 Y3.8446
G01 X-17.2475 Y3.8411
G01 X-17.1463 Y3.8208
G01 X-17.1372 Y3.8193
G01 X-17.1280 Y3.8185
G01 X-17.1127 Y3.8187
G01 X-17.0975 Y3.8208
G01 X-16.9992 Y3.8403
G01 X-16.9874 Y3.8436
G01 X-16.9787 Y3.8468
G01 X-16.9677 Y3.8521
G01 X-16.9571 Y3.8584
G01 X-16.8738 Y3.9141
G01 X-16.8665 Y3.9197
G01 X-16.8596 Y3.9258
G01 X-15.8106 Y4.9747
G01 X-15.7000 Y5.0486
G01 X-15.5771 Y5.0995
G01 X-15.4408 Y5.1265
G01 X-15.4061 Y5.1293
G01 X-15.3910 Y5.1322
G01 X-15.3792 Y5.1358
G01 X-15.2878 Y5.1689
G01 X-15.2740 Y5.1749
G01 X-14.1408 Y5.1749
G01 X-14.1354 Y5.1701
G01 X-14.1280 Y5.1645
G01 X-14.0447 Y5.1088
G01 X-14.0342 Y5.1025
G01 X-14.0231 Y5.0973
G01 X-14.0116 Y5.0931
G01 X-14.0027 Y5.0908
G01 X-13.9044 Y5.0712
G01 X-13.8923 Y5.0694
G01 X-13.8800 Y5.0688
G01 X-13.8678 Y5.0694
G01 X-13.8556 Y5.0712
G01 X-13.7573 Y5.0908
G01 X-13.7484 Y5.0931
G01 X-13.7369 Y5.0973
G01 X-13.7258 Y5.1025
G01 X-13.7153 Y5.1088
G01 X-13.6320 Y5.1645
G01 X-13.6246 Y5.1701
G01 X-13.6192 Y5.1749
G01 X-12.4735 Y5.1749
G01 X-12.4316 Y5.1577
G01 X-12.4228 Y5.1549
G01 X-12.4107 Y5.1522
G01 X-12.3953 Y5.1505
G01 X-12.2921 Y5.1460
G01 X-12.2829 Y5.1463
G01 X-12.2737 Y5.1474
G01 X-12.2587 Y5.1506
G01 X-12.2500 Y5.1534
G01 X-12.1909 Y5.1749
G01 X-11.0408 Y5.1749
G01 X-11.0350 Y5.1697
G01 X-11.0277 Y5.1642
G01 X-10.9444 Y5.1085
G01 X-10.9339 Y5.1022
G01 X-10.9228 Y5.0969
G01 X-10.9112 Y5.0928
G01 X-10.9023 Y5.0904
G01 X-10.8040 Y5.0708
G01 X-10.7919 Y5.0690
G01 X-10.7796 Y5.0684
G01 X-10.7674 Y5.0690
G01 X-10.7553 Y5.0708
G01 X-10.6570 Y5.0904
G01 X-10.6481 Y5.0928
G01 X-10.6365 Y5.0969
G01 X-10.6254 Y5.1022
G01 X-10.6149 Y5.1085
G01 X-10.5316 Y5.1642
G01 X-10.5243 Y5.1697
G01 X-10.5185 Y5.1749
G01 X-10.3801 Y5.1748
G01 X-10.3802 Y4.9592
G01 X-10.3890 Y4.9504
G01 X-10.4043 Y4.9335
G01 X-10.4100 Y4.9263
G01 X-10.4269 Y4.9030
G01 X-10.4401 Y4.8809
G01 X-10.4444 Y4.8727
G01 X-10.4553 Y4.8494
G01 X-10.4660 Y4.8193
G01 X-10.4738 Y4.7884
G01 X-10.4784 Y4.7569
G01 X-10.4800 Y4.7250
G01 X-10.4800 Y4.1750
G01 X-10.4789 Y4.1493
G01 X-10.4777 Y4.1371
G01 X-10.4738 Y4.1116
G01 X-10.4676 Y4.0866
G01 X-10.4651 Y4.0777
G01 X-10.4553 Y4.0506
G01 X-10.4444 Y4.0273
G01 X-10.4401 Y4.0191
G01 X-10.4269 Y3.9970
G01 X-10.4217 Y3.9894
G01 X-10.4062 Y3.9688
G01 X-10.3890 Y3.9496
G01 X-10.3804 Y3.9410
G01 X-10.3612 Y3.9238
G01 X-10.3406 Y3.9083
G01 X-10.3330 Y3.9031
G01 X-10.3109 Y3.8899
G01 X-10.3027 Y3.8856
G01 X-10.2794 Y3.8747
G01 X-10.2493 Y3.8640
G01 X-10.2184 Y3.8562
G01 X-10.1929 Y3.8523
G01 X-10.1838 Y3.8513
G01 X-10.1550 Y3.8500
G01 X-9.7550 Y3.8500
G01 X-9.7293 Y3.8511
G01 X-9.7201 Y3.8519
G01 X-9.6946 Y3.8557
G01 X-9.6856 Y3.8576
G01 X-9.6607 Y3.8640
G01 X-9.6364 Y3.8725
G01 X-9.6250 Y3.8772
G01 X-9.6018 Y3.8884
G01 X-9.5744 Y3.9048
G01 X-9.5537 Y3.9200
G01 X-9.5442 Y3.9278
G01 X-9.5252 Y3.9452
G01 X-9.5078 Y3.9642
G01 X-9.5000 Y3.9737
G01 X-9.4848 Y3.9944
G01 X-9.4714 Y4.0165
G01 X-9.4668 Y4.0249
G01 X-9.1334 Y4.0248
G01 X-9.0843 Y3.9515
G01 X-9.0767 Y3.9418
G01 X-9.0683 Y3.9329
G01 X-9.0614 Y3.9268
G01 X-9.0540 Y3.9212
G01 X-8.9682 Y3.8638
G01 X-8.9575 Y3.8578
G01 X-8.9491 Y3.8540
G01 X-8.9405 Y3.8508
G01 X-8.9317 Y3.8482
G01 X-8.8304 Y3.8279
G01 X-8.8213 Y3.8264
G01 X-8.8060 Y3.8255
G01 X-7.5135 Y3.8255
G01 X-7.3830 Y3.7995
G01 X-7.2600 Y3.7486
G01 X-7.1494 Y3.6747
G01 X-6.4553 Y2.9806
G01 X-6.3814 Y2.8700
G01 X-6.3305 Y2.7470
G01 X-6.3272 Y2.7314
G01 X-6.3234 Y2.7192
G01 X-6.2888 Y2.6311
G01 X-6.2848 Y2.6226
G01 X-6.2802 Y2.6144
G01 X-6.2750 Y2.6066
G01 X-6.2693 Y2.5993
G01 X-6.1968 Y2.5213
G01 X-6.1854 Y2.5110
G01 X-6.1729 Y2.5022
G01 X-6.1621 Y2.4963
G01 X-6.1075 Y2.4713
G01 X-6.0975 Y2.4651
G01 X-6.0865 Y2.4597
G01 X-5.9482 Y2.4080
G01 X-5.8618 Y2.3432
G01 X-5.7970 Y2.2568
G01 X-5.7585 Y2.1535
G01 X-5.7545 Y2.1162
G01 X-5.7545 Y0.3338
G01 X-5.7585 Y0.2965
G01 X-5.7970 Y0.1932
G01 X-5.8618 Y0.1068
G01 X-5.9482 Y0.0420
G01 X-6.0515 Y0.0035
G01 X-6.0888 Y-0.0005
G01 X-7.8712 Y-0.0005
G01 X-7.9085 Y0.0035
G01 X-8.0118 Y0.0420
G01 X-8.0982 Y0.1068
G01 X-8.1729 Y0.2064
G01 X-8.2020 Y0.2401
G01 X-8.2106 Y0.2487
G01 X-8.2176 Y0.2546
G01 X-8.2250 Y0.2599
G01 X-8.3109 Y0.3172
G01 X-8.3218 Y0.3230
G01 X-8.3302 Y0.3266
G01 X-8.3389 Y0.3296
G01 X-8.3478 Y0.3319
G01 X-8.4491 Y0.3521
G01 X-8.4644 Y0.3538
G01 X-8.4766 Y0.3538
G01 X-8.4858 Y0.3530
G01 X-8.4949 Y0.3515
G01 X-8.5902 Y0.3326
G01 X-8.6021 Y0.3296
G01 X-8.6136 Y0.3255
G01 X-8.6247 Y0.3202
G01 X-8.6327 Y0.3156
G01 X-8.7160 Y0.2599
G01 X-8.7259 Y0.2526
G01 X-8.7350 Y0.2444
G01 X-8.7432 Y0.2353
G01 X-8.7505 Y0.2255
G01 X-8.8062 Y0.1421
G01 X-8.8108 Y0.1341
G01 X-8.8148 Y0.1259
G01 X-8.8192 Y0.1144
G01 X-8.8225 Y0.1026
G01 X-8.8421 Y0.0043
G01 X-8.8436 Y-0.0048
G01 X-8.8445 Y-0.0201
G01 X-8.8445 Y-11.3893
G01 X-8.8439 Y-11.3985
G01 X-8.8427 Y-11.4077
G01 X-8.8231 Y-11.5060
G01 X-8.8202 Y-11.5179
G01 X-8.8160 Y-11.5294
G01 X-8.8122 Y-11.5378
G01 X-8.8062 Y-11.5484
G01 X-8.7505 Y-11.6318
G01 X-8.7432 Y-11.6416
G01 X-8.7328 Y-11.6529
G01 X-8.7259 Y-11.6590
G01 X-8.7185 Y-11.6645
G01 X-8.6352 Y-11.7203
G01 X-8.6247 Y-11.7266
G01 X-8.6108 Y-11.7330
G01 X-8.6021 Y-11.7359
G01 X-8.5932 Y-11.7383
G01 X-8.4919 Y-11.7584
G01 X-8.4828 Y-11.7597
G01 X-8.4705 Y-11.7603
G01 X-8.4613 Y-11.7599
G01 X-8.4522 Y-11.7589
G01 X-8.3478 Y-11.7383
G01 X-8.3360 Y-11.7350
G01 X-8.3246 Y-11.7306
G01 X-8.3163 Y-11.7266
G01 X-8.3083 Y-11.7219
G01 X-8.2250 Y-11.6663
G01 X-8.2151 Y-11.6590
G01 X-8.2082 Y-11.6529
G01 X-2.7306 Y-6.1753
G01 X-2.6200 Y-6.1014
G01 X-2.4970 Y-6.0505
G01 X-2.3665 Y-6.0245
G01 X2.7653 Y-6.0245
G01 X2.7775 Y-6.0239
G01 X2.7897 Y-6.0221
G01 X2.8880 Y-6.0025
G01 X2.8969 Y-6.0002
G01 X2.9084 Y-5.9960
G01 X2.9195 Y-5.9908
G01 X2.9274 Y-5.9862
G01 X3.0108 Y-5.9305
G01 X3.0207 Y-5.9232
G01 X3.0297 Y-5.9150
G01 X6.5171 Y-2.4275
G01 X6.5232 Y-2.4207
G01 X6.5288 Y-2.4133
G01 X6.5845 Y-2.3300
G01 X6.5908 Y-2.3195
G01 X6.5960 Y-2.3084
G01 X6.6002 Y-2.2969
G01 X6.6031 Y-2.2850
G01 X6.6227 Y-2.1867
G01 X6.6239 Y-2.1775
G01 X6.6245 Y-2.1683
G01 X6.6245 Y1.8790
G01 X6.6505 Y2.0095
G01 X6.7014 Y2.1325
G01 X6.7753 Y2.2431
G01 X6.8421 Y2.3100
G01 X6.8520 Y2.3217
G01 X6.9112 Y2.4101
G01 X6.9158 Y2.4180
G01 X6.9198 Y2.4263
G01 X6.9242 Y2.4377
G01 X6.9275 Y2.4495
G01 X6.9477 Y2.5508
G01 X6.9489 Y2.5600
G01 X6.9495 Y2.5728
G01 X6.9575 Y2.6514
G01 X7.0015 Y2.7841
G01 X7.0753 Y2.9037
G01 X7.0808 Y2.9136
G01 X7.0844 Y2.9214
G01 X7.1169 Y3.0003
G01 X7.1196 Y3.0088
G01 X7.1217 Y3.0174
G01 X7.1231 Y3.0262
G01 X7.1240 Y3.0351
G01 X7.1277 Y3.1413
G01 X7.1273 Y3.1504
G01 X7.1262 Y3.1596
G01 X7.1228 Y3.1745
G01 X7.1199 Y3.1833
G01 X7.0860 Y3.2743
G01 X7.0812 Y3.2856
G01 X7.0753 Y3.2963
G01 X7.0015 Y3.4159
G01 X6.9575 Y3.5486
G01 X6.9495 Y3.6272
G01 X6.9495 Y4.1478
G01 X6.9575 Y4.2264
G01 X7.0015 Y4.3591
G01 X7.0791 Y4.4850
G01 X7.0854 Y4.4941
G01 X7.0943 Y4.5101
G01 X7.1005 Y4.5243
G01 X7.1337 Y4.5951
G01 X7.1373 Y4.6036
G01 X7.1403 Y4.6123
G01 X7.1432 Y4.6242
G01 X7.1446 Y4.6333
G01 X7.1454 Y4.6425
G01 X7.1499 Y4.7457
G01 X7.1495 Y4.7549
G01 X7.1485 Y4.7640
G01 X7.1453 Y4.7790
G01 X7.1425 Y4.7878
G01 X7.1094 Y4.8791
G01 X7.1046 Y4.8904
G01 X7.0988 Y4.9012
G01 X7.0468 Y4.9873
G01 X7.0195 Y5.0749
G01 X7.2868 Y5.0748
G01 X7.2914 Y5.0665
G01 X7.3048 Y5.0444
G01 X7.3200 Y5.0237
G01 X7.3278 Y5.0142
G01 X7.3452 Y4.9952
G01 X7.3642 Y4.9778
G01 X7.3737 Y4.9700
G01 X7.3944 Y4.9548
G01 X7.4218 Y4.9384
G01 X7.4450 Y4.9272
G01 X7.4564 Y4.9225
G01 X7.4807 Y4.9140
G01 X7.5056 Y4.9076
G01 X7.5146 Y4.9057
G01 X7.5401 Y4.9019
G01 X7.5493 Y4.9011
G01 X7.5750 Y4.9000
G01 X7.9750 Y4.9000
G01 X8.0038 Y4.9013
G01 X8.0129 Y4.9023
G01 X8.0384 Y4.9062
G01 X8.0693 Y4.9140
G01 X8.0994 Y4.9247
G01 X8.1227 Y4.9356
G01 X8.1309 Y4.9399
G01 X8.1504 Y4.9515
G01 X8.1581 Y4.9565
G01 X8.1788 Y4.9719
G01 X8.1858 Y4.9778
G01 X8.2026 Y4.9930
G01 X8.2090 Y4.9996
G01 X8.2262 Y5.0188
G01 X8.2417 Y5.0394
G01 X8.2485 Y5.0496
G01 X8.2616 Y5.0718
G01 X8.2753 Y5.1006
G01 X8.2860 Y5.1307
G01 X8.2938 Y5.1616
G01 X8.2984 Y5.1931
G01 X8.3000 Y5.2250
G01 X8.3000 Y5.7750
G01 X8.2989 Y5.8007
G01 X8.2977 Y5.8129
G01 X8.2938 Y5.8384
G01 X8.2869 Y5.8664
G01 X8.2775 Y5.8936
G01 X8.2728 Y5.9050
G01 X8.2616 Y5.9282
G01 X8.2452 Y5.9556
G01 X8.2262 Y5.9812
G01 X8.2090 Y6.0004
G01 X8.2026 Y6.0070
G01 X8.1858 Y6.0222
G01 X8.1763 Y6.0300
G01 X8.1556 Y6.0452
G01 X8.1282 Y6.0616
G01 X8.1050 Y6.0728
G01 X8.0936 Y6.0775
G01 X8.0693 Y6.0860
G01 X8.0384 Y6.0938
G01 X8.0069 Y6.0984
G01 X7.9750 Y6.1000
G01 X7.5750 Y6.1000
G01 X7.5431 Y6.0984
G01 X7.5176 Y6.0948
G01 X7.5056 Y6.0924
G01 X7.4807 Y6.0860
G01 X7.4506 Y6.0753
G01 X7.4218 Y6.0616
G01 X7.3996 Y6.0485
G01 X7.3894 Y6.0417
G01 X7.3688 Y6.0262
G01 X7.3496 Y6.0090
G01 X7.3430 Y6.0026
G01 X7.3257 Y5.9835
G01 X7.3200 Y5.9763
G01 X7.3048 Y5.9556
G01 X7.2914 Y5.9335
G01 X7.2868 Y5.9251
G01 X6.9534 Y5.9252
G01 X6.9043 Y5.9985
G01 X6.8967 Y6.0082
G01 X6.8883 Y6.0171
G01 X6.8814 Y6.0232
G01 X6.8740 Y6.0288
G01 X6.7856 Y6.0878
G01 X6.7775 Y6.0922
G01 X6.7691 Y6.0960
G01 X6.7576 Y6.1002
G01 X6.7487 Y6.1025
G01 X6.6474 Y6.1227
G01 X6.6383 Y6.1239
G01 X6.6260 Y6.1245
G01 X-20.6663 Y6.1245
G01 X-20.6755 Y6.1242
G01 X-20.6846 Y6.1231
G01 X-20.7890 Y6.1025
G01 X-20.8037 Y6.0982
G01 X-20.8150 Y6.0935
G01 X-20.8232 Y6.0893
G01 X-20.8310 Y6.0845
G01 X-20.9168 Y6.0270
G01 X-20.9263 Y6.0192
G01 X-20.9329 Y6.0128
G01 X-20.9409 Y6.0035
G01 X-20.9463 Y5.9960
G01 X-21.0019 Y5.9127
G01 X-21.0066 Y5.9047
G01 X-21.0118 Y5.8936
G01 X-21.0159 Y5.8821
G01 X-21.0183 Y5.8732
G01 X-21.0379 Y5.7749
G01 X-21.0397 Y5.7628
G01 X-21.0402 Y5.7536
G01 X-21.0401 Y5.7444
G01 X-21.0393 Y5.7352
G01 X-21.0379 Y5.7261
G01 X-21.0176 Y5.6248
G01 X-21.0150 Y5.6160
G01 X-21.0118 Y5.6074
G01 X-21.0080 Y5.5990
G01 X-21.0035 Y5.5910
G01 X-20.9463 Y5.5050
G01 X-20.9409 Y5.4975
G01 X-20.9350 Y5.4905
G01 X-20.5553 Y5.1106
G01 X-20.4814 Y5.0000
G01 X-20.4393 Y4.8983
G01 X-20.4342 Y4.8875
G01 X-20.3919 Y4.8163
G01 X-20.3866 Y4.8089
G01 X-20.3808 Y4.8019
G01 X-20.3745 Y4.7954
G01 X-20.3678 Y4.7893
G01 X-20.2909 Y4.7250
G01 X-20.2783 Y4.7163
G01 X-20.2675 Y4.7104
G01 X-20.2533 Y4.7046
G01 X-20.1932 Y4.6857
G01 X-20.1868 Y4.6827
G01 X-20.1782 Y4.6794
G01 X-20.1694 Y4.6768
G01 X-20.1589 Y4.6742
G01 X-20.0482 Y4.6330
G01 X-19.9618 Y4.5682
G01 X-19.8756 Y4.4532
G01 X-19.8637 Y4.4375
G01 X-19.8577 Y4.4305
G01 X-19.8512 Y4.4240
G01 X-19.8442 Y4.4179
G01 X-19.7660 Y4.3552
G01 X-19.7559 Y4.3483
G01 X-19.7479 Y4.3437
G01 X-19.7396 Y4.3398
G01 X-19.7310 Y4.3364
G01 X-19.6289 Y4.3066
G01 X-19.6200 Y4.3045
G01 X-19.6109 Y4.3032
G01 X-19.5986 Y4.3024
G01 X-19.5864 Y4.3028
G01 X-19.4837 Y4.3141
G01 X-19.4747 Y4.3156
G01 X-19.4658 Y4.3178
G01 X-19.4571 Y4.3207
G01 X-19.4486 Y4.3242
G01 X-19.4404 Y4.3283
G01 X-19.3600 Y4.3722
G01 X-19.3471 Y4.3798
G01 X-19.3349 Y4.3888
G01 X-19.1548 Y4.5149
G01 X-18.9606 Y4.6055
G01 X-18.9150 Y4.6177
G01 X-18.9150 Y4.3500
G01 X-18.9996 Y4.3099
G01 X-19.0765 Y4.2640
G01 X-19.0867 Y4.2572
G01 X-19.1585 Y4.2037
G01 X-19.2250 Y4.1437
G01 X-19.2337 Y4.1350
G01 X-19.2937 Y4.0685
G01 X-19.3472 Y3.9967
G01 X-19.3540 Y3.9865
G01 X-19.3999 Y3.9096
G01 X-19.4383 Y3.8287
G01 X-19.4430 Y3.8174
G01 X-19.4730 Y3.7330
G01 X-19.4949 Y3.6462
G01 X-19.4973 Y3.6342
G01 X-19.5096 Y3.5517
G01 X-19.5106 Y3.5425
G01 X-19.5148 Y3.4561
G01 X-19.5148 Y3.4439
G01 X-19.5103 Y3.3544
G01 X-19.4973 Y3.2658
G01 X-19.4949 Y3.2538
G01 X-19.4730 Y3.1670
G01 X-19.4430 Y3.0826
G01 X-19.4396 Y3.0741
G01 X-19.3999 Y2.9904
G01 X-19.3540 Y2.9135
G01 X-19.3472 Y2.9033
G01 X-19.2937 Y2.8315
G01 X-19.2337 Y2.7650
G01 X-19.2250 Y2.7563
G01 X-19.1585 Y2.6963
G01 X-19.1051 Y2.6565
G01 X-19.1052 Y2.3619
G01 X-19.1548 Y2.3851
G01 X-19.3349 Y2.5112
G01 X-19.3447 Y2.5185
G01 X-19.3880 Y2.5481
G01 X-19.3987 Y2.5542
G01 X-19.4070 Y2.5582
G01 X-19.4156 Y2.5615
G01 X-19.5172 Y2.5931
G01 X-19.5292 Y2.5956
G01 X-19.5383 Y2.5967
G01 X-19.5475 Y2.5971
G01 X-19.5598 Y2.5966
G01 X-19.6596 Y2.5876
G01 X-19.6687 Y2.5863
G01 X-19.6806 Y2.5834
G01 X-19.6922 Y2.5793
G01 X-19.7006 Y2.5756
G01 X-19.7894 Y2.5292
G01 X-19.7974 Y2.5246
G01 X-19.8099 Y2.5157
G01 X-19.8191 Y2.5076
G01 X-19.8254 Y2.5009
G01 X-19.8482 Y2.4736
G01 X-19.8591 Y2.4649
G01 X-19.8698 Y2.4540
G01 X-19.8756 Y2.4468
G01 X-19.9618 Y2.3318
G01 X-20.0482 Y2.2670
G01 X-20.1515 Y2.2285
G01 X-20.1888 Y2.2245
G01 X-20.9694 Y2.2245
G01 X-20.9785 Y2.2239
G01 X-20.9907 Y2.2221
G01 X-21.0860 Y2.2031
G01 X-21.0979 Y2.2002
G01 X-21.1066 Y2.1972
G01 X-21.1150 Y2.1935
G01 X-21.1284 Y2.1862
G01 X-21.2143 Y2.1288
G01 X-21.2217 Y2.1232
G01 X-21.2285 Y2.1171
G01 X-21.2390 Y2.1059
G01 X-21.2463 Y2.0960
G01 X-21.3019 Y2.0127
G01 X-21.3066 Y2.0047
G01 X-21.3118 Y1.9936
G01 X-21.3150 Y1.9850
G01 X-21.3183 Y1.9732
G01 X-21.3379 Y1.8749
G01 X-21.3397 Y1.8628
G01 X-21.3402 Y1.8474
G01 X-21.3397 Y1.8382
G01 X-21.3384 Y1.8291
G01 X-21.3183 Y1.7278
G01 X-21.3159 Y1.7189
G01 X-21.3130 Y1.7102
G01 X-21.3066 Y1.6963
G00 Z2.0000
G00 X-21.5218 Y1.7895
G01 F250.00
G01 Z-0.0933
G01 F200.00
G01 X-21.5254 Y1.8122
G01 X-21.5274 Y1.8352
G01 X-21.5278 Y1.8505
G01 X-21.5274 Y1.8658
G01 X-21.5254 Y1.8888
G01 X-21.5218 Y1.9115
G01 X-21.5012 Y2.0143
G01 X-21.4954 Y2.0365
G01 X-21.4906 Y2.0511
G01 X-21.4850 Y2.0654
G01 X-21.4755 Y2.0863
G01 X-21.4682 Y2.0998
G01 X-21.4603 Y2.1130
G01 X-21.4022 Y2.2002
G01 X-21.3887 Y2.2188
G01 X-21.3790 Y2.2307
G01 X-21.3687 Y2.2421
G01 X-21.3522 Y2.2581
G01 X-21.3346 Y2.2729
G01 X-21.3143 Y2.2875
G01 X-21.9377 Y2.2876
G01 X-21.9530 Y2.2883
G01 X-21.9683 Y2.2899
G01 X-21.9910 Y2.2935
G01 X-22.0133 Y2.2988
G01 X-22.0280 Y2.3033
G01 X-22.0418 Y2.3082
G01 X-21.5214 Y1.7879
G01 X-21.5218 Y1.7895
G00 Z2.0000
G00 X-22.6175 Y3.0310
G01 F250.00
G01 Z-0.0933
G01 F200.00
G01 X-22.6304 Y3.0069
G01 X-22.6477 Y2.9777
G01 X-22.6175 Y2.9777
G01 X-22.6175 Y3.0310
G00 Z2.0000
G00 X-23.0750 Y2.8074
G01 F250.00
G01 Z-0.0933
G01 F200.00
G01 X-23.0452 Y2.7902
G01 X-22.5778 Y2.7901
G01 X-22.5361 Y2.7882
G01 X-22.5117 Y2.7864
G01 X-22.4873 Y2.7834
G01 X-22.4582 Y2.7791
G01 X-22.4300 Y2.7740
G01 X-22.4300 Y4.2999
G01 X-22.8774 Y4.2999
G01 X-22.8639 Y4.2842
G01 X-22.8562 Y4.2746
G01 X-22.8371 Y4.2491
G01 X-22.8230 Y4.2290
G01 X-22.8098 Y4.2083
G01 X-22.7936 Y4.1808
G01 X-22.7820 Y4.1592
G01 X-22.7766 Y4.1481
G01 X-22.7631 Y4.1192
G01 X-22.7583 Y4.1080
G01 X-22.7495 Y4.0851
G01 X-22.7388 Y4.0550
G01 X-22.7317 Y4.0315
G01 X-22.7238 Y4.0006
G01 X-22.7210 Y3.9887
G01 X-22.7162 Y3.9646
G01 X-22.7114 Y3.9331
G01 X-22.7084 Y3.9087
G01 X-22.7073 Y3.8965
G01 X-22.7056 Y3.8646
G01 X-22.7050 Y3.8401
G01 X-22.7050 Y3.4401
G01 X-22.7052 Y3.4278
G01 X-22.7066 Y3.3960
G01 X-22.7073 Y3.3837
G01 X-22.7097 Y3.3593
G01 X-22.7162 Y3.3156
G01 X-22.7210 Y3.2915
G01 X-22.7238 Y3.2796
G01 X-22.7317 Y3.2487
G01 X-22.7351 Y3.2369
G01 X-22.7388 Y3.2252
G01 X-22.7495 Y3.1951
G01 X-22.7583 Y3.1722
G01 X-22.7631 Y3.1609
G01 X-22.7820 Y3.1210
G01 X-22.7877 Y3.1101
G01 X-22.7998 Y3.0888
G01 X-22.8163 Y3.0615
G01 X-22.8230 Y3.0512
G01 X-22.8371 Y3.0311
G01 X-22.8562 Y3.0056
G01 X-22.8718 Y2.9866
G01 X-22.8799 Y2.9774
G01 X-22.9015 Y2.9539
G01 X-22.9100 Y2.9451
G01 X-22.9278 Y2.9282
G01 X-22.9515 Y2.9069
G01 X-22.9705 Y2.8913
G01 X-22.9803 Y2.8839
G01 X-23.0060 Y2.8650
G01 X-23.0161 Y2.8581
G01 X-23.0368 Y2.8449
G01 X-23.0643 Y2.8287
G01 X-23.0900 Y2.8151
G01 X-23.0750 Y2.8074
G00 Z2.0000
G00 X-24.2798 Y1.7840
G01 F250.00
G01 Z-0.0933
G01 F200.00
G01 X-24.2784 Y1.7582
G01 X-24.2738 Y1.7267
G01 X-24.2660 Y1.6957
G01 X-24.2553 Y1.6657
G01 X-24.2416 Y1.6369
G01 X-24.2252 Y1.6095
G01 X-24.2062 Y1.5839
G01 X-24.1890 Y1.5647
G01 X-24.1826 Y1.5581
G01 X-24.1658 Y1.5429
G01 X-24.1563 Y1.5351
G01 X-24.1330 Y1.5182
G01 X-24.1135 Y1.5065
G01 X-24.1055 Y1.5021
G01 X-24.0794 Y1.4898
G01 X-24.0493 Y1.4791
G01 X-24.0184 Y1.4713
G01 X-23.9929 Y1.4674
G01 X-23.9807 Y1.4662
G01 X-23.9550 Y1.4651
G01 X-23.4050 Y1.4651
G01 X-23.3762 Y1.4664
G01 X-23.3671 Y1.4674
G01 X-23.3416 Y1.4713
G01 X-23.3136 Y1.4782
G01 X-23.3048 Y1.4810
G01 X-23.2835 Y1.4887
G01 X-23.2573 Y1.5007
G01 X-23.2491 Y1.5049
G01 X-23.2270 Y1.5182
G01 X-23.2037 Y1.5351
G01 X-23.1965 Y1.5408
G01 X-23.1796 Y1.5561
G01 X-23.1708 Y1.5649
G01 X-22.7662 Y1.5649
G01 X-21.9701 Y0.7689
G01 X-21.9702 Y-2.6738
G01 X-23.1156 Y-3.8193
G01 X-23.1396 Y-3.8456
G01 X-23.1456 Y-3.8526
G01 X-23.1650 Y-3.8787
G01 X-23.1718 Y-3.8889
G01 X-23.1899 Y-3.9195
G01 X-23.2078 Y-3.9572
G01 X-23.2218 Y-3.9965
G01 X-23.2306 Y-4.0310
G01 X-23.2330 Y-4.0430
G01 X-23.2378 Y-4.0752
G01 X-23.2386 Y-4.0844
G01 X-23.2401 Y-4.1199
G01 X-23.2411 Y-7.3560
G01 X-23.2544 Y-7.3663
G01 X-23.2753 Y-7.3853
G01 X-23.2817 Y-7.3919
G01 X-23.3025 Y-7.4153
G01 X-23.3193 Y-7.4379
G01 X-23.3243 Y-7.4456
G01 X-23.3387 Y-7.4699
G01 X-23.3509 Y-7.4954
G01 X-23.3545 Y-7.5038
G01 X-23.3630 Y-7.5275
G01 X-23.3658 Y-7.5363
G01 X-23.3726 Y-7.5636
G01 X-23.3743 Y-7.5727
G01 X-23.3783 Y-7.6006
G01 X-23.3800 Y-7.6349
G01 X-23.3800 Y-8.1349
G01 X-23.3783 Y-8.1692
G01 X-23.3738 Y-8.2002
G01 X-23.3666 Y-8.2306
G01 X-23.3640 Y-8.2394
G01 X-23.3534 Y-8.2688
G01 X-23.3414 Y-8.2944
G01 X-23.3356 Y-8.3052
G01 X-23.3210 Y-8.3294
G01 X-23.3043 Y-8.3521
G01 X-23.2965 Y-8.3616
G01 X-23.2775 Y-8.3824
G01 X-23.2567 Y-8.4015
G01 X-23.2472 Y-8.4092
G01 X-23.2244 Y-8.4259
G01 X-23.2003 Y-8.4406
G01 X-23.1895 Y-8.4463
G01 X-23.1639 Y-8.4583
G01 X-23.1345 Y-8.4689
G01 X-23.1043 Y-8.4768
G01 X-23.0922 Y-8.4792
G01 X-23.0643 Y-8.4832
G01 X-23.0331 Y-8.4849
G01 X-22.5800 Y-8.4849
G01 X-22.5457 Y-8.4832
G01 X-22.5147 Y-8.4787
G01 X-22.5057 Y-8.4768
G01 X-22.4784 Y-8.4698
G01 X-22.4518 Y-8.4605
G01 X-22.4405 Y-8.4558
G01 X-22.4177 Y-8.4450
G01 X-22.4097 Y-8.4406
G01 X-22.3856 Y-8.4259
G01 X-22.3580 Y-8.4055
G01 X-22.3325 Y-8.3824
G01 X-22.3094 Y-8.3569
G01 X-22.2890 Y-8.3294
G01 X-22.2744 Y-8.3052
G01 X-22.2699 Y-8.2972
G01 X-22.2591 Y-8.2745
G01 X-22.2544 Y-8.2631
G01 X-22.2451 Y-8.2365
G01 X-22.2367 Y-8.2032
G01 X-22.2317 Y-8.1692
G01 X-22.2300 Y-8.1380
G01 X-22.2300 Y-7.6349
G01 X-22.2317 Y-7.6006
G01 X-22.2367 Y-7.5666
G01 X-22.2451 Y-7.5333
G01 X-22.2566 Y-7.5010
G01 X-22.2713 Y-7.4699
G01 X-22.2890 Y-7.4405
G01 X-22.3094 Y-7.4129
G01 X-22.3325 Y-7.3874
G01 X-22.3580 Y-7.3644
G01 X-22.3805 Y-7.3474
G01 X-22.3899 Y-7.3412
G01 X-22.3898 Y-4.2960
G01 X-21.2444 Y-3.1505
G01 X-21.2204 Y-3.1243
G01 X-21.2144 Y-3.1172
G01 X-21.1950 Y-3.0911
G01 X-21.1882 Y-3.0809
G01 X-21.1701 Y-3.0503
G01 X-21.1534 Y-3.0154
G01 X-21.1500 Y-3.0069
G01 X-21.1401 Y-2.9791
G01 X-21.1365 Y-2.9674
G01 X-21.1280 Y-2.9329
G01 X-21.1226 Y-2.8977
G01 X-21.1214 Y-2.8855
G01 X-21.1199 Y-2.8499
G01 X-21.1199 Y0.9450
G01 X-21.1219 Y0.9867
G01 X-21.1275 Y1.0249
G01 X-21.1294 Y1.0339
G01 X-21.1365 Y1.0625
G01 X-21.1401 Y1.0742
G01 X-21.1522 Y1.1077
G01 X-21.1701 Y1.1454
G01 X-21.1915 Y1.1812
G01 X-21.2126 Y1.2099
G01 X-21.2204 Y1.2194
G01 X-21.2444 Y1.2456
G01 X-22.2939 Y2.2949
G01 X-22.3204 Y2.3187
G01 X-22.3489 Y2.3401
G01 X-22.3591 Y2.3469
G01 X-22.3897 Y2.3650
G01 X-22.4218 Y2.3804
G01 X-22.4331 Y2.3851
G01 X-22.4667 Y2.3969
G01 X-22.5012 Y2.4057
G01 X-22.5132 Y2.4081
G01 X-22.5484 Y2.4132
G01 X-22.5870 Y2.4152
G01 X-23.1708 Y2.4152
G01 X-23.1796 Y2.4241
G01 X-23.1965 Y2.4393
G01 X-23.2037 Y2.4451
G01 X-23.2270 Y2.4620
G01 X-23.2491 Y2.4752
G01 X-23.2573 Y2.4795
G01 X-23.2835 Y2.4915
G01 X-23.3048 Y2.4992
G01 X-23.3136 Y2.5020
G01 X-23.3356 Y2.5075
G01 X-23.3446 Y2.5094
G01 X-23.3701 Y2.5132
G01 X-23.3793 Y2.5140
G01 X-23.4050 Y2.5151
G01 X-23.9581 Y2.5151
G01 X-23.9869 Y2.5135
G01 X-24.0154 Y2.5094
G01 X-24.0434 Y2.5027
G01 X-24.0552 Y2.4992
G01 X-24.0794 Y2.4904
G01 X-24.1027 Y2.4795
G01 X-24.1109 Y2.4752
G01 X-24.1304 Y2.4636
G01 X-24.1406 Y2.4568
G01 X-24.1612 Y2.4413
G01 X-24.1848 Y2.4199
G01 X-24.2062 Y2.3963
G01 X-24.2217 Y2.3757
G01 X-24.2285 Y2.3655
G01 X-24.2416 Y2.3433
G01 X-24.2528 Y2.3201
G01 X-24.2575 Y2.3087
G01 X-24.2660 Y2.2844
G01 X-24.2724 Y2.2595
G01 X-24.2748 Y2.2475
G01 X-24.2784 Y2.2219
G01 X-24.2800 Y2.1932
G01 X-24.2798 Y1.7840
G00 Z2.0000
G00 X-26.2106 Y2.5494
G01 F250.00
G01 Z-0.0933
G01 F200.00
G01 X-26.1896 Y2.5539
G01 X-26.1685 Y2.5578
G01 X-26.1254 Y2.5644
G01 X-26.1042 Y2.5673
G01 X-26.0828 Y2.5697
G01 X-26.0614 Y2.5715
G01 X-26.0179 Y2.5739
G01 X-25.9965 Y2.5747
G01 X-25.9750 Y2.5750
G01 X-25.2250 Y2.5750
G01 X-25.2035 Y2.5747
G01 X-25.1600 Y2.5729
G01 X-25.1386 Y2.5715
G01 X-25.1172 Y2.5697
G01 X-25.0958 Y2.5673
G01 X-25.0527 Y2.5612
G01 X-25.0315 Y2.5578
G01 X-25.0104 Y2.5539
G01 X-24.9894 Y2.5494
G01 X-24.9696 Y2.5447
G01 X-24.9561 Y2.5815
G01 X-24.9482 Y2.6015
G01 X-24.9397 Y2.6212
G01 X-24.9308 Y2.6407
G01 X-24.9130 Y2.6778
G01 X-24.9031 Y2.6968
G01 X-24.8927 Y2.7157
G01 X-24.8718 Y2.7510
G01 X-24.8605 Y2.7693
G01 X-24.8488 Y2.7873
G01 X-24.8294 Y2.8151
G01 X-24.8488 Y2.8429
G01 X-24.8605 Y2.8609
G01 X-24.8718 Y2.8791
G01 X-24.8927 Y2.9145
G01 X-24.9031 Y2.9333
G01 X-24.9130 Y2.9524
G01 X-24.9224 Y2.9717
G01 X-24.9397 Y3.0090
G01 X-24.9482 Y3.0287
G01 X-24.9561 Y3.0486
G01 X-24.9702 Y3.0873
G01 X-24.9772 Y3.1076
G01 X-24.9837 Y3.1280
G01 X-24.9897 Y3.1487
G01 X-24.9999 Y3.1885
G01 X-25.0049 Y3.2094
G01 X-25.0122 Y3.2458
G01 X-25.0315 Y3.2422
G01 X-25.0746 Y3.2356
G01 X-25.0958 Y3.2327
G01 X-25.1172 Y3.2303
G01 X-25.1386 Y3.2285
G01 X-25.1600 Y3.2271
G01 X-25.2035 Y3.2253
G01 X-25.2250 Y3.2250
G01 X-25.9750 Y3.2250
G01 X-25.9965 Y3.2253
G01 X-26.0400 Y3.2271
G01 X-26.0614 Y3.2285
G01 X-26.0828 Y3.2303
G01 X-26.1042 Y3.2327
G01 X-26.1473 Y3.2388
G01 X-26.1685 Y3.2422
G01 X-26.1896 Y3.2461
G01 X-26.2249 Y3.2540
G01 X-26.2249 Y2.5460
G01 X-26.2106 Y2.5494
G00 Z2.0000
G00 X-26.4051 Y2.2798
G01 F250.00
G01 Z-0.0933
G01 F200.00
G01 X-26.3902 Y2.2875
G01 X-26.3550 Y2.3044
G01 X-26.3397 Y2.3114
G01 X-26.3085 Y2.3243
G01 X-26.2560 Y2.3431
G01 X-26.2399 Y2.3482
G01 X-26.2074 Y2.3572
G01 X-26.1695 Y2.3665
G01 X-26.1530 Y2.3700
G01 X-26.1364 Y2.3731
G01 X-26.0979 Y2.3790
G01 X-26.0812 Y2.3812
G01 X-26.0476 Y2.3846
G01 X-25.9919 Y2.3873
G01 X-25.2250 Y2.3875
G01 X-25.1913 Y2.3867
G01 X-25.1524 Y2.3846
G01 X-25.1188 Y2.3812
G01 X-25.0636 Y2.3731
G01 X-25.0305 Y2.3665
G01 X-24.9763 Y2.3529
G01 X-24.9440 Y2.3431
G01 X-24.8915 Y2.3243
G01 X-24.8603 Y2.3114
G01 X-24.8355 Y2.2999
G01 X-24.8312 Y2.3300
G01 X-24.8254 Y2.3632
G01 X-24.8181 Y2.3962
G01 X-24.8090 Y2.4315
G01 X-24.8043 Y2.4477
G01 X-24.7937 Y2.4798
G01 X-24.7812 Y2.5141
G01 X-24.7683 Y2.5452
G01 X-24.7529 Y2.5783
G01 X-24.7377 Y2.6085
G01 X-24.7211 Y2.6378
G01 X-24.7021 Y2.6690
G01 X-24.6834 Y2.6971
G01 X-24.6618 Y2.7265
G01 X-24.6410 Y2.7531
G01 X-24.6190 Y2.7787
G01 X-24.5943 Y2.8056
G01 X-24.5851 Y2.8151
G01 X-24.5943 Y2.8246
G01 X-24.6190 Y2.8515
G01 X-24.6410 Y2.8771
G01 X-24.6516 Y2.8902
G01 X-24.6735 Y2.9194
G01 X-24.6929 Y2.9470
G01 X-24.7110 Y2.9755
G01 X-24.7296 Y3.0069
G01 X-24.7377 Y3.0217
G01 X-24.7455 Y3.0367
G01 X-24.7613 Y3.0696
G01 X-24.7749 Y3.1005
G01 X-24.7812 Y3.1161
G01 X-24.7992 Y3.1664
G01 X-24.8090 Y3.1987
G01 X-24.8220 Y3.2504
G01 X-24.8285 Y3.2835
G01 X-24.8364 Y3.3363
G01 X-24.8397 Y3.3699
G01 X-24.8423 Y3.4232
G01 X-24.8425 Y3.4968
G01 X-24.8758 Y3.4820
G01 X-24.9073 Y3.4698
G01 X-24.9440 Y3.4569
G01 X-24.9601 Y3.4518
G01 X-24.9926 Y3.4428
G01 X-25.0305 Y3.4335
G01 X-25.0636 Y3.4269
G01 X-25.1188 Y3.4188
G01 X-25.1524 Y3.4154
G01 X-25.1913 Y3.4133
G01 X-25.2250 Y3.4125
G01 X-25.9919 Y3.4127
G01 X-26.0308 Y3.4144
G01 X-26.0644 Y3.4169
G01 X-26.0812 Y3.4188
G01 X-26.1198 Y3.4243
G01 X-26.1530 Y3.4300
G01 X-26.1695 Y3.4335
G01 X-26.2237 Y3.4471
G01 X-26.2560 Y3.4569
G01 X-26.2719 Y3.4624
G01 X-26.3085 Y3.4757
G01 X-26.3242 Y3.4820
G01 X-26.3397 Y3.4886
G01 X-26.3750 Y3.5051
G01 X-26.3902 Y3.5125
G01 X-26.4124 Y3.5242
G01 X-26.4124 Y2.2758
G01 X-26.4051 Y2.2798
G00 Z2.0000
G00 X-26.5909 Y1.8571
G01 F250.00
G01 Z-0.0933
G01 F200.00
G01 X-26.5778 Y1.8778
G01 X-26.5709 Y1.8879
G01 X-26.5505 Y1.9156
G01 X-26.5354 Y1.9349
G01 X-26.5275 Y1.9443
G01 X-26.5046 Y1.9699
G01 X-26.4962 Y1.9789
G01 X-26.4789 Y1.9962
G01 X-26.4535 Y2.0194
G01 X-26.4349 Y2.0354
G01 X-26.4254 Y2.0431
G01 X-26.3979 Y2.0637
G01 X-26.3879 Y2.0709
G01 X-26.3675 Y2.0845
G01 X-26.3275 Y2.1085
G01 X-26.3168 Y2.1144
G01 X-26.2948 Y2.1254
G01 X-26.2637 Y2.1400
G01 X-26.2524 Y2.1448
G01 X-26.2411 Y2.1494
G01 X-26.2088 Y2.1611
G01 X-26.1855 Y2.1688
G01 X-26.1737 Y2.1722
G01 X-26.1404 Y2.1807
G01 X-26.1164 Y2.1861
G01 X-26.1044 Y2.1883
G01 X-26.0704 Y2.1935
G01 X-26.0583 Y2.1952
G01 X-26.0338 Y2.1976
G01 X-25.9873 Y2.1998
G01 X-25.2127 Y2.1998
G01 X-25.1784 Y2.1983
G01 X-25.1539 Y2.1965
G01 X-25.1417 Y2.1952
G01 X-25.1077 Y2.1903
G01 X-25.0836 Y2.1861
G01 X-25.0716 Y2.1835
G01 X-25.0382 Y2.1753
G01 X-25.0145 Y2.1688
G01 X-24.9912 Y2.1611
G01 X-24.9589 Y2.1494
G01 X-24.9363 Y2.1400
G01 X-24.8941 Y2.1200
G01 X-24.8725 Y2.1085
G01 X-24.8429 Y2.0909
G01 X-24.8222 Y2.0778
G01 X-24.8021 Y2.0637
G01 X-24.7746 Y2.0431
G01 X-24.7557 Y2.0275
G01 X-24.7465 Y2.0194
G01 X-24.7211 Y1.9962
G01 X-24.7038 Y1.9789
G01 X-24.6725 Y1.9443
G01 X-24.6550 Y1.9229
G01 X-24.6550 Y2.1901
G01 X-24.6544 Y2.2146
G01 X-24.6527 Y2.2465
G01 X-24.6516 Y2.2587
G01 X-24.6486 Y2.2831
G01 X-24.6438 Y2.3146
G01 X-24.6390 Y2.3387
G01 X-24.6314 Y2.3696
G01 X-24.6249 Y2.3933
G01 X-24.6172 Y2.4166
G01 X-24.6063 Y2.4466
G01 X-24.5969 Y2.4692
G01 X-24.5834 Y2.4981
G01 X-24.5723 Y2.5201
G01 X-24.5602 Y2.5414
G01 X-24.5437 Y2.5687
G01 X-24.5370 Y2.5790
G01 X-24.5301 Y2.5891
G01 X-24.5112 Y2.6148
G01 X-24.4961 Y2.6342
G01 X-24.4801 Y2.6528
G01 X-24.4585 Y2.6763
G01 X-24.4412 Y2.6936
G01 X-24.4085 Y2.7233
G01 X-24.3895 Y2.7389
G01 X-24.3640 Y2.7580
G01 X-24.3439 Y2.7721
G01 X-24.3232 Y2.7853
G01 X-24.2957 Y2.8015
G01 X-24.2700 Y2.8151
G01 X-24.2957 Y2.8287
G01 X-24.3336 Y2.8514
G01 X-24.3540 Y2.8650
G01 X-24.3895 Y2.8913
G01 X-24.4085 Y2.9069
G01 X-24.4412 Y2.9365
G01 X-24.4585 Y2.9539
G01 X-24.4801 Y2.9774
G01 X-24.4882 Y2.9866
G01 X-24.5038 Y3.0056
G01 X-24.5229 Y3.0311
G01 X-24.5370 Y3.0512
G01 X-24.5502 Y3.0719
G01 X-24.5664 Y3.0994
G01 X-24.5780 Y3.1210
G01 X-24.5969 Y3.1609
G01 X-24.6063 Y3.1836
G01 X-24.6105 Y3.1951
G01 X-24.6212 Y3.2252
G01 X-24.6249 Y3.2369
G01 X-24.6314 Y3.2605
G01 X-24.6390 Y3.2915
G01 X-24.6415 Y3.3035
G01 X-24.6457 Y3.3277
G01 X-24.6503 Y3.3593
G01 X-24.6527 Y3.3837
G01 X-24.6544 Y3.4156
G01 X-24.6550 Y3.4401
G01 X-24.6550 Y3.8401
G01 X-24.6548 Y3.8524
G01 X-24.6537 Y3.8789
G01 X-24.6725 Y3.8557
G01 X-24.6954 Y3.8301
G01 X-24.7123 Y3.8123
G01 X-24.7301 Y3.7954
G01 X-24.7557 Y3.7725
G01 X-24.7746 Y3.7569
G01 X-24.8121 Y3.7291
G01 X-24.8325 Y3.7155
G01 X-24.8619 Y3.6977
G01 X-24.8832 Y3.6856
G01 X-24.8941 Y3.6800
G01 X-24.9251 Y3.6651
G01 X-24.9476 Y3.6552
G01 X-24.9705 Y3.6464
G01 X-25.0028 Y3.6349
G01 X-25.0145 Y3.6312
G01 X-25.0382 Y3.6247
G01 X-25.0716 Y3.6165
G01 X-25.0836 Y3.6139
G01 X-25.0956 Y3.6117
G01 X-25.1296 Y3.6065
G01 X-25.1539 Y3.6035
G01 X-25.1784 Y3.6017
G01 X-25.2127 Y3.6002
G01 X-25.9750 Y3.6000
G01 X-25.9995 Y3.6006
G01 X-26.0338 Y3.6024
G01 X-26.0461 Y3.6035
G01 X-26.0583 Y3.6048
G01 X-26.0923 Y3.6097
G01 X-26.1164 Y3.6139
G01 X-26.1284 Y3.6165
G01 X-26.1737 Y3.6278
G01 X-26.1855 Y3.6312
G01 X-26.2088 Y3.6389
G01 X-26.2411 Y3.6506
G01 X-26.2524 Y3.6552
G01 X-26.2749 Y3.6651
G01 X-26.3059 Y3.6800
G01 X-26.3168 Y3.6856
G01 X-26.3381 Y3.6977
G01 X-26.3675 Y3.7155
G01 X-26.3778 Y3.7222
G01 X-26.3979 Y3.7363
G01 X-26.4254 Y3.7569
G01 X-26.4443 Y3.7725
G01 X-26.4535 Y3.7806
G01 X-26.4789 Y3.8038
G01 X-26.4877 Y3.8123
G01 X-26.4962 Y3.8211
G01 X-26.5194 Y3.8465
G01 X-26.5354 Y3.8651
G01 X-26.5431 Y3.8746
G01 X-26.5637 Y3.9021
G01 X-26.5778 Y3.9222
G01 X-26.5845 Y3.9325
G01 X-26.5999 Y3.9578
G01 X-26.5999 Y1.8422
G01 X-26.5909 Y1.8571
G00 Z2.0000
G00 X-26.3998 Y-0.4811
G01 F250.00
G01 Z-0.0933
G01 F200.00
G01 X-26.3984 Y-0.5069
G01 X-26.3943 Y-0.5354
G01 X-26.3876 Y-0.5634
G01 X-26.3841 Y-0.5752
G01 X-26.3753 Y-0.5994
G01 X-26.3616 Y-0.6282
G01 X-26.3452 Y-0.6556
G01 X-26.3300 Y-0.6763
G01 X-26.3243 Y-0.6835
G01 X-26.3090 Y-0.7004
G01 X-26.3004 Y-0.7090
G01 X-26.2812 Y-0.7262
G01 X-26.2556 Y-0.7452
G01 X-26.2335 Y-0.7586
G01 X-26.2227 Y-0.7644
G01 X-26.1994 Y-0.7753
G01 X-26.1693 Y-0.7860
G01 X-26.1444 Y-0.7924
G01 X-26.1324 Y-0.7948
G01 X-26.1069 Y-0.7984
G01 X-26.0781 Y-0.8000
G01 X-25.5250 Y-0.8000
G01 X-25.4931 Y-0.7984
G01 X-25.4676 Y-0.7948
G01 X-25.4556 Y-0.7924
G01 X-25.4336 Y-0.7869
G01 X-25.4248 Y-0.7841
G01 X-25.4006 Y-0.7753
G01 X-25.3718 Y-0.7616
G01 X-25.3444 Y-0.7452
G01 X-25.3237 Y-0.7300
G01 X-25.3142 Y-0.7222
G01 X-25.2930 Y-0.7026
G01 X-25.2738 Y-0.6812
G01 X-25.2583 Y-0.6606
G01 X-25.2515 Y-0.6504
G01 X-25.2370 Y-0.6255
G01 X-25.2247 Y-0.5994
G01 X-25.2149 Y-0.5723
G01 X-25.2076 Y-0.5444
G01 X-25.2057 Y-0.5354
G01 X-25.2016 Y-0.5069
G01 X-25.2002 Y-0.4811
G01 X-25.2000 Y-0.0750
G01 X-25.2016 Y-0.0431
G01 X-25.2057 Y-0.0146
G01 X-25.2076 Y-0.0056
G01 X-25.2140 Y0.0193
G01 X-25.2225 Y0.0436
G01 X-25.2259 Y0.0522
G01 X-25.2370 Y0.0755
G01 X-25.2414 Y0.0835
G01 X-25.2548 Y0.1056
G01 X-25.2700 Y0.1263
G01 X-25.2778 Y0.1358
G01 X-25.2952 Y0.1548
G01 X-25.3188 Y0.1762
G01 X-25.3444 Y0.1952
G01 X-25.3665 Y0.2086
G01 X-25.3749 Y0.2132
G01 X-25.3748 Y0.4936
G01 X-25.3389 Y0.4844
G01 X-25.3269 Y0.4820
G01 X-25.2917 Y0.4769
G01 X-25.2500 Y0.4749
G01 X-23.7010 Y0.4749
G01 X-23.2401 Y0.0140
G01 X-23.2400 Y-1.6130
G01 X-23.2387 Y-1.6369
G01 X-23.2358 Y-1.6575
G01 X-23.2341 Y-1.6666
G01 X-23.2282 Y-1.6897
G01 X-23.2202 Y-1.7123
G01 X-23.2166 Y-1.7208
G01 X-23.2075 Y-1.7395
G01 X-23.1969 Y-1.7575
G01 X-23.1919 Y-1.7652
G01 X-23.1795 Y-1.7820
G01 X-23.1616 Y-1.8022
G01 X-23.1550 Y-1.8086
G01 X-23.1395 Y-1.8225
G01 X-23.1203 Y-1.8368
G01 X-23.1126 Y-1.8418
G01 X-23.0946 Y-1.8524
G01 X-23.0702 Y-1.8640
G01 X-23.0448 Y-1.8731
G01 X-23.0217 Y-1.8790
G01 X-23.0126 Y-1.8807
G01 X-22.9920 Y-1.8836
G01 X-22.9681 Y-1.8849
G01 X-22.6650 Y-1.8849
G01 X-22.6411 Y-1.8838
G01 X-22.6174 Y-1.8807
G01 X-22.6054 Y-1.8783
G01 X-22.5852 Y-1.8731
G01 X-22.5598 Y-1.8640
G01 X-22.5354 Y-1.8524
G01 X-22.5174 Y-1.8418
G01 X-22.5097 Y-1.8368
G01 X-22.4905 Y-1.8225
G01 X-22.4727 Y-1.8065
G01 X-22.4663 Y-1.7999
G01 X-22.4524 Y-1.7844
G01 X-22.4363 Y-1.7627
G01 X-22.4240 Y-1.7422
G01 X-22.4197 Y-1.7341
G01 X-22.4109 Y-1.7151
G01 X-22.4018 Y-1.6897
G01 X-22.3959 Y-1.6666
G01 X-22.3942 Y-1.6575
G01 X-22.3913 Y-1.6369
G01 X-22.3900 Y-1.6099
G01 X-22.3899 Y0.1901
G01 X-22.3919 Y0.2318
G01 X-22.3970 Y0.2670
G01 X-22.3994 Y0.2790
G01 X-22.4065 Y0.3076
G01 X-22.4091 Y0.3164
G01 X-22.4222 Y0.3528
G01 X-22.4373 Y0.3850
G01 X-22.4431 Y0.3958
G01 X-22.4615 Y0.4263
G01 X-22.4826 Y0.4550
G01 X-22.4883 Y0.4622
G01 X-22.5101 Y0.4863
G01 X-23.2243 Y1.2006
G01 X-23.2552 Y1.2286
G01 X-23.2837 Y1.2500
G01 X-23.2939 Y1.2568
G01 X-23.3245 Y1.2749
G01 X-23.3566 Y1.2903
G01 X-23.3679 Y1.2950
G01 X-23.4015 Y1.3068
G01 X-23.4360 Y1.3156
G01 X-23.4480 Y1.3180
G01 X-23.4832 Y1.3231
G01 X-23.5218 Y1.3251
G01 X-24.8750 Y1.3252
G01 X-24.8750 Y1.4750
G01 X-24.8767 Y1.5093
G01 X-24.8817 Y1.5433
G01 X-24.8884 Y1.5707
G01 X-24.8910 Y1.5795
G01 X-24.8994 Y1.6032
G01 X-24.9041 Y1.6145
G01 X-24.9163 Y1.6400
G01 X-24.9307 Y1.6643
G01 X-24.9357 Y1.6720
G01 X-24.9544 Y1.6970
G01 X-24.9733 Y1.7180
G01 X-24.9797 Y1.7246
G01 X-25.0030 Y1.7456
G01 X-25.0255 Y1.7625
G01 X-25.0331 Y1.7677
G01 X-25.0547 Y1.7806
G01 X-25.0627 Y1.7851
G01 X-25.0882 Y1.7971
G01 X-25.0968 Y1.8006
G01 X-25.1234 Y1.8099
G01 X-25.1567 Y1.8183
G01 X-25.1907 Y1.8233
G01 X-25.2219 Y1.8250
G01 X-25.9781 Y1.8250
G01 X-26.0062 Y1.8236
G01 X-26.0154 Y1.8226
G01 X-26.0433 Y1.8183
G01 X-26.0737 Y1.8108
G01 X-26.0824 Y1.8080
G01 X-26.1089 Y1.7984
G01 X-26.1345 Y1.7864
G01 X-26.1453 Y1.7806
G01 X-26.1669 Y1.7677
G01 X-26.1745 Y1.7625
G01 X-26.1970 Y1.7456
G01 X-26.2180 Y1.7267
G01 X-26.2267 Y1.7180
G01 X-26.2456 Y1.6970
G01 X-26.2660 Y1.6694
G01 X-26.2837 Y1.6400
G01 X-26.2959 Y1.6145
G01 X-26.3006 Y1.6032
G01 X-26.3099 Y1.5766
G01 X-26.3169 Y1.5493
G01 X-26.3188 Y1.5403
G01 X-26.3230 Y1.5124
G01 X-26.3238 Y1.5032
G01 X-26.3250 Y1.4750
G01 X-26.3250 Y1.0250
G01 X-26.3238 Y0.9968
G01 X-26.3230 Y0.9876
G01 X-26.3183 Y0.9567
G01 X-26.3108 Y0.9263
G01 X-26.3006 Y0.8968
G01 X-26.2959 Y0.8855
G01 X-26.2837 Y0.8600
G01 X-26.2660 Y0.8306
G01 X-26.2456 Y0.8030
G01 X-26.2251 Y0.7803
G01 X-26.2252 Y0.2132
G01 X-26.2335 Y0.2086
G01 X-26.2556 Y0.1952
G01 X-26.2812 Y0.1762
G01 X-26.3048 Y0.1548
G01 X-26.3262 Y0.1312
G01 X-26.3452 Y0.1056
G01 X-26.3616 Y0.0782
G01 X-26.3753 Y0.0494
G01 X-26.3841 Y0.0252
G01 X-26.3876 Y0.0134
G01 X-26.3938 Y-0.0116
G01 X-26.3977 Y-0.0371
G01 X-26.3987 Y-0.0462
G01 X-26.4000 Y-0.0719
G01 X-26.3998 Y-0.4811
G00 Z2.0000
G00 X-26.5869 Y-1.2478
G01 F250.00
G01 Z-0.0933
G01 F200.00
G01 X-26.5700 Y-1.2300
G01 X-26.5522 Y-1.2131
G01 X-26.5285 Y-1.1918
G01 X-26.5191 Y-1.1839
G01 X-26.4997 Y-1.1688
G01 X-26.4740 Y-1.1499
G01 X-26.4536 Y-1.1363
G01 X-26.4157 Y-1.1136
G01 X-26.3900 Y-1.1000
G01 X-26.4157 Y-1.0864
G01 X-26.4536 Y-1.0637
G01 X-26.4740 Y-1.0501
G01 X-26.5095 Y-1.0238
G01 X-26.5285 Y-1.0082
G01 X-26.5612 Y-0.9785
G01 X-26.5785 Y-0.9612
G01 X-26.5999 Y-0.9379
G01 X-26.5999 Y-1.2621
G01 X-26.5869 Y-1.2478
G00 Z2.0000
G00 X-25.1950 Y-1.1077
G01 F250.00
G01 Z-0.0933
G01 F200.00
G01 X-25.1737 Y-1.1198
G01 X-25.1464 Y-1.1363
G01 X-25.1361 Y-1.1430
G01 X-25.1160 Y-1.1571
G01 X-25.0905 Y-1.1762
G01 X-25.0715 Y-1.1918
G01 X-25.0478 Y-1.2131
G01 X-25.0300 Y-1.2300
G01 X-25.0131 Y-1.2478
G01 X-24.9918 Y-1.2715
G01 X-24.9762 Y-1.2905
G01 X-24.9571 Y-1.3160
G01 X-24.9430 Y-1.3361
G01 X-24.9298 Y-1.3568
G01 X-24.9136 Y-1.3843
G01 X-24.9077 Y-1.3950
G01 X-24.8966 Y-1.4169
G01 X-24.8851 Y-1.4414
G01 X-24.8851 Y-0.7586
G01 X-24.8966 Y-0.7831
G01 X-24.9077 Y-0.8050
G01 X-24.9198 Y-0.8263
G01 X-24.9363 Y-0.8536
G01 X-24.9499 Y-0.8740
G01 X-24.9688 Y-0.8997
G01 X-24.9839 Y-0.9191
G01 X-24.9999 Y-0.9377
G01 X-25.0215 Y-0.9612
G01 X-25.0388 Y-0.9785
G01 X-25.0715 Y-1.0082
G01 X-25.0905 Y-1.0238
G01 X-25.1260 Y-1.0501
G01 X-25.1464 Y-1.0637
G01 X-25.1843 Y-1.0864
G01 X-25.2100 Y-1.1000
G01 X-25.1950 Y-1.1077
G00 Z2.0000
G00 X-23.4724 Y-0.7772
G01 F250.00
G01 Z-0.0933
G01 F200.00
G01 X-23.4724 Y-2.5850
G01 X-23.4742 Y-2.6298
G01 X-23.4753 Y-2.6451
G01 X-23.4772 Y-2.6603
G01 X-23.4827 Y-2.6970
G01 X-23.4875 Y-2.7195
G01 X-23.4987 Y-2.7628
G01 X-23.5035 Y-2.7774
G01 X-23.5190 Y-2.8195
G01 X-23.5378 Y-2.8601
G01 X-23.5484 Y-2.8805
G01 X-23.5714 Y-2.9189
G01 X-23.5844 Y-2.9379
G01 X-23.6114 Y-2.9737
G01 X-23.6214 Y-2.9853
G01 X-23.6464 Y-3.0127
G01 X-23.8826 Y-3.2491
G01 X-23.8583 Y-3.2451
G01 X-23.8353 Y-3.2431
G01 X-23.8123 Y-3.2428
G01 X-23.7894 Y-3.2442
G01 X-23.7742 Y-3.2461
G01 X-23.7590 Y-3.2487
G01 X-23.6638 Y-3.2677
G01 X-23.6488 Y-3.2710
G01 X-23.6340 Y-3.2751
G01 X-23.6194 Y-3.2799
G01 X-23.6051 Y-3.2855
G01 X-23.5911 Y-3.2917
G01 X-23.5707 Y-3.3023
G01 X-23.5511 Y-3.3143
G01 X-23.4703 Y-3.3683
G01 X-23.4578 Y-3.3772
G01 X-23.4398 Y-3.3915
G01 X-23.4285 Y-3.4018
G01 X-23.4124 Y-3.4183
G01 X-23.3976 Y-3.4359
G01 X-23.3841 Y-3.4545
G01 X-23.3301 Y-3.5353
G01 X-23.3181 Y-3.5549
G01 X-23.3108 Y-3.5684
G01 X-23.3043 Y-3.5823
G01 X-23.2957 Y-3.6037
G01 X-23.2909 Y-3.6182
G01 X-23.2851 Y-3.6405
G01 X-23.2709 Y-3.7112
G01 X-23.2482 Y-3.6867
G01 X-22.1576 Y-2.5961
G01 X-22.1576 Y0.6912
G01 X-22.8439 Y1.3774
G01 X-23.1015 Y1.3774
G01 X-23.1231 Y1.3621
G01 X-23.0917 Y1.3332
G01 X-22.3818 Y0.6233
G01 X-22.3712 Y0.6122
G01 X-22.3464 Y0.5846
G01 X-22.3366 Y0.5728
G01 X-22.3144 Y0.5430
G01 X-22.3014 Y0.5240
G01 X-22.2823 Y0.4922
G01 X-22.2747 Y0.4789
G01 X-22.2552 Y0.4386
G01 X-22.2461 Y0.4174
G01 X-22.2335 Y0.3825
G01 X-22.2287 Y0.3679
G01 X-22.2246 Y0.3532
G01 X-22.2157 Y0.3171
G01 X-22.2115 Y0.2945
G01 X-22.2053 Y0.2501
G01 X-22.2042 Y0.2348
G01 X-22.2024 Y0.1901
G01 X-22.2025 Y-1.6100
G01 X-22.2036 Y-1.6399
G01 X-22.2056 Y-1.6629
G01 X-22.2088 Y-1.6850
G01 X-22.2114 Y-1.7001
G01 X-22.2147 Y-1.7151
G01 X-22.2203 Y-1.7368
G01 X-22.2247 Y-1.7515
G01 X-22.2349 Y-1.7798
G01 X-22.2439 Y-1.8009
G01 X-22.2536 Y-1.8211
G01 X-22.2608 Y-1.8346
G01 X-22.2763 Y-1.8604
G01 X-22.2848 Y-1.8732
G01 X-22.3027 Y-1.8973
G01 X-22.3124 Y-1.9092
G01 X-22.3326 Y-1.9315
G01 X-22.3435 Y-1.9423
G01 X-22.3600 Y-1.9574
G01 X-22.3716 Y-1.9674
G01 X-22.3955 Y-1.9856
G01 X-22.4145 Y-1.9986
G01 X-22.4336 Y-2.0102
G01 X-22.4470 Y-2.0178
G01 X-22.4607 Y-2.0247
G01 X-22.4810 Y-2.0342
G01 X-22.4951 Y-2.0401
G01 X-22.5162 Y-2.0477
G01 X-22.5381 Y-2.0546
G01 X-22.5598 Y-2.0602
G01 X-22.5748 Y-2.0635
G01 X-22.5899 Y-2.0661
G01 X-22.6197 Y-2.0702
G01 X-22.6350 Y-2.0713
G01 X-22.6573 Y-2.0723
G01 X-22.9650 Y-2.0724
G01 X-22.9803 Y-2.0720
G01 X-23.0103 Y-2.0702
G01 X-23.0401 Y-2.0661
G01 X-23.0627 Y-2.0619
G01 X-23.0919 Y-2.0546
G01 X-23.1138 Y-2.0477
G01 X-23.1420 Y-2.0372
G01 X-23.1693 Y-2.0247
G01 X-23.1897 Y-2.0141
G01 X-23.2155 Y-1.9986
G01 X-23.2345 Y-1.9856
G01 X-23.2584 Y-1.9674
G01 X-23.2809 Y-1.9475
G01 X-23.2974 Y-1.9315
G01 X-23.3176 Y-1.9092
G01 X-23.3320 Y-1.8912
G01 X-23.3496 Y-1.8669
G01 X-23.3653 Y-1.8413
G01 X-23.3764 Y-1.8211
G01 X-23.3893 Y-1.7939
G01 X-23.3978 Y-1.7726
G01 X-23.4076 Y-1.7442
G01 X-23.4153 Y-1.7151
G01 X-23.4200 Y-1.6926
G01 X-23.4244 Y-1.6629
G01 X-23.4264 Y-1.6399
G01 X-23.4275 Y-1.6099
G01 X-23.4276 Y-0.0637
G01 X-23.4725 Y-0.0188
G01 X-23.4724 Y-0.7772
G00 Z2.0000
G00 X-23.2850 Y-2.5973
G01 F250.00
G01 Z-0.0933
G01 F200.00
G01 X-23.2869 Y-2.6390
G01 X-23.2887 Y-2.6634
G01 X-23.2917 Y-2.6878
G01 X-23.2960 Y-2.7169
G01 X-23.3002 Y-2.7411
G01 X-23.3056 Y-2.7650
G01 X-23.3128 Y-2.7936
G01 X-23.3193 Y-2.8173
G01 X-23.3270 Y-2.8406
G01 X-23.3369 Y-2.8683
G01 X-23.3458 Y-2.8912
G01 X-23.3557 Y-2.9136
G01 X-23.3683 Y-2.9403
G01 X-23.3793 Y-2.9622
G01 X-23.3914 Y-2.9835
G01 X-23.4130 Y-3.0193
G01 X-23.4266 Y-3.0397
G01 X-23.4588 Y-3.0830
G01 X-23.4744 Y-3.1020
G01 X-23.4982 Y-3.1285
G01 X-23.4783 Y-3.1391
G01 X-23.4572 Y-3.1518
G01 X-23.3662 Y-3.2124
G01 X-23.3560 Y-3.2194
G01 X-23.3363 Y-3.2340
G01 X-23.3174 Y-3.2496
G01 X-23.2992 Y-3.2660
G01 X-23.2904 Y-3.2746
G01 X-23.2735 Y-3.2924
G01 X-23.2574 Y-3.3110
G01 X-23.2498 Y-3.3205
G01 X-23.2351 Y-3.3403
G01 X-23.2077 Y-3.3810
G01 X-22.3451 Y-2.5185
G01 X-22.3451 Y-2.1757
G01 X-22.3695 Y-2.1888
G01 X-22.4050 Y-2.2056
G01 X-22.4277 Y-2.2150
G01 X-22.4646 Y-2.2282
G01 X-22.4881 Y-2.2353
G01 X-22.5262 Y-2.2449
G01 X-22.5503 Y-2.2497
G01 X-22.5769 Y-2.2538
G01 X-22.6013 Y-2.2568
G01 X-22.6135 Y-2.2578
G01 X-22.6527 Y-2.2598
G01 X-22.9650 Y-2.2599
G01 X-22.9773 Y-2.2598
G01 X-23.0042 Y-2.2586
G01 X-23.0287 Y-2.2568
G01 X-23.0409 Y-2.2554
G01 X-23.0676 Y-2.2516
G01 X-23.0918 Y-2.2474
G01 X-23.1038 Y-2.2449
G01 X-23.1300 Y-2.2385
G01 X-23.1419 Y-2.2353
G01 X-23.1654 Y-2.2282
G01 X-23.1908 Y-2.2193
G01 X-23.2137 Y-2.2104
G01 X-23.2362 Y-2.2005
G01 X-23.2605 Y-2.1888
G01 X-23.2849 Y-2.1757
G01 X-23.2850 Y-2.5973
G00 Z2.0000
G00 X-23.0976 Y-2.6019
G01 F250.00
G01 Z-0.0933
G01 F200.00
G01 X-23.0996 Y-2.6482
G01 X-23.1021 Y-2.6818
G01 X-23.1040 Y-2.6986
G01 X-23.1106 Y-2.7444
G01 X-23.1163 Y-2.7777
G01 X-23.1198 Y-2.7942
G01 X-23.1352 Y-2.8555
G01 X-23.1450 Y-2.8878
G01 X-23.1505 Y-2.9037
G01 X-23.1663 Y-2.9473
G01 X-23.1725 Y-2.9630
G01 X-23.1862 Y-2.9938
G01 X-23.2062 Y-3.0356
G01 X-23.2140 Y-3.0506
G01 X-23.2302 Y-3.0792
G01 X-23.2078 Y-3.0967
G01 X-23.1973 Y-3.1055
G01 X-22.5326 Y-2.4408
G01 X-22.5326 Y-2.4367
G01 X-22.5661 Y-2.4415
G01 X-22.5829 Y-2.4434
G01 X-22.6166 Y-2.4459
G01 X-22.6481 Y-2.4472
G01 X-22.9650 Y-2.4474
G01 X-22.9987 Y-2.4466
G01 X-23.0303 Y-2.4448
G01 X-23.0639 Y-2.4415
G01 X-23.0974 Y-2.4367
G01 X-23.0976 Y-2.6019
G00 Z2.0000
G00 X-23.4785 Y-4.4186
G01 F250.00
G01 Z-0.0933
G01 F200.00
G01 X-23.4893 Y-4.4295
G01 X-23.5007 Y-4.4398
G01 X-23.5125 Y-4.4495
G01 X-23.5225 Y-4.4570
G01 X-23.5225 Y-4.7009
G01 X-23.5107 Y-4.7259
G01 X-23.5022 Y-4.7472
G01 X-23.4924 Y-4.7757
G01 X-23.4847 Y-4.8047
G01 X-23.4800 Y-4.8272
G01 X-23.4756 Y-4.8570
G01 X-23.4741 Y-4.8722
G01 X-23.4726 Y-4.9022
G01 X-23.4724 Y-7.3297
G01 X-23.4503 Y-7.2999
G01 X-23.4406 Y-7.2881
G01 X-23.4286 Y-7.2747
G01 X-23.4277 Y-4.3582
G01 X-23.4632 Y-4.4014
G01 X-23.4785 Y-4.4186
G00 Z2.0000
G00 X-21.9681 Y-4.4733
G01 F250.00
G01 Z-0.0933
G01 F200.00
G01 X-21.9701 Y-4.5150
G01 X-21.9700 Y-6.5599
G01 X-21.9689 Y-6.5838
G01 X-21.9679 Y-6.5930
G01 X-21.9647 Y-6.6136
G01 X-21.9590 Y-6.6368
G01 X-21.9562 Y-6.6456
G01 X-21.9491 Y-6.6651
G01 X-21.9389 Y-6.6868
G01 X-21.9345 Y-6.6949
G01 X-21.9237 Y-6.7127
G01 X-21.9114 Y-6.7295
G01 X-21.9056 Y-6.7367
G01 X-21.8895 Y-6.7544
G01 X-21.8741 Y-6.7685
G01 X-21.8671 Y-6.7744
G01 X-21.8503 Y-6.7868
G01 X-21.8426 Y-6.7918
G01 X-21.8246 Y-6.8024
G01 X-21.8058 Y-6.8115
G01 X-21.7974 Y-6.8151
G01 X-21.7748 Y-6.8231
G01 X-21.7517 Y-6.8290
G01 X-21.7426 Y-6.8307
G01 X-21.7220 Y-6.8336
G01 X-21.6950 Y-6.8349
G01 X-21.3919 Y-6.8349
G01 X-21.3711 Y-6.8338
G01 X-21.3620 Y-6.8328
G01 X-21.3414 Y-6.8296
G01 X-21.3181 Y-6.8239
G01 X-21.2955 Y-6.8162
G01 X-21.2842 Y-6.8115
G01 X-21.2654 Y-6.8024
G01 X-21.2422 Y-6.7886
G01 X-21.2205 Y-6.7725
G01 X-21.2050 Y-6.7586
G01 X-21.1984 Y-6.7522
G01 X-21.1824 Y-6.7344
G01 X-21.1681 Y-6.7152
G01 X-21.1631 Y-6.7075
G01 X-21.1525 Y-6.6895
G01 X-21.1409 Y-6.6651
G01 X-21.1318 Y-6.6397
G01 X-21.1266 Y-6.6195
G01 X-21.1247 Y-6.6105
G01 X-21.1213 Y-6.5869
G01 X-21.1200 Y-6.5599
G01 X-21.1199 Y-4.6911
G01 X-20.7039 Y-4.2751
G01 X-18.9469 Y-4.2751
G01 X-18.9083 Y-4.2731
G01 X-18.8731 Y-4.2680
G01 X-18.8611 Y-4.2656
G01 X-18.8266 Y-4.2568
G01 X-18.7930 Y-4.2450
G01 X-18.7845 Y-4.2416
G01 X-18.7523 Y-4.2264
G01 X-18.7442 Y-4.2219
G01 X-18.7190 Y-4.2068
G01 X-18.7088 Y-4.2000
G01 X-18.6803 Y-4.1786
G01 X-18.6494 Y-4.1506
G01 X-17.1794 Y-2.6806
G01 X-17.1514 Y-2.6497
G01 X-17.1265 Y-2.6162
G01 X-17.1081 Y-2.5858
G01 X-17.1036 Y-2.5777
G01 X-17.0897 Y-2.5483
G01 X-17.0850 Y-2.5370
G01 X-17.0732 Y-2.5034
G01 X-17.0630 Y-2.4629
G01 X-17.0569 Y-2.4217
G01 X-17.0549 Y-2.3831
G01 X-17.0548 Y2.1739
G01 X-15.2039 Y4.0248
G01 X-15.1932 Y4.0248
G01 X-15.1886 Y4.0165
G01 X-15.1752 Y3.9944
G01 X-15.1600 Y3.9737
G01 X-15.1522 Y3.9642
G01 X-15.1348 Y3.9452
G01 X-15.1135 Y3.9257
G01 X-15.1063 Y3.9200
G01 X-15.0830 Y3.9031
G01 X-15.0609 Y3.8899
G01 X-15.0527 Y3.8856
G01 X-15.0294 Y3.8747
G01 X-15.0052 Y3.8659
G01 X-14.9934 Y3.8624
G01 X-14.9684 Y3.8562
G01 X-14.9429 Y3.8523
G01 X-14.9338 Y3.8513
G01 X-14.9050 Y3.8500
G01 X-14.5050 Y3.8500
G01 X-14.4793 Y3.8511
G01 X-14.4671 Y3.8523
G01 X-14.4416 Y3.8562
G01 X-14.4107 Y3.8640
G01 X-14.3806 Y3.8747
G01 X-14.3573 Y3.8856
G01 X-14.3491 Y3.8899
G01 X-14.3296 Y3.9015
G01 X-14.3194 Y3.9083
G01 X-14.2988 Y3.9238
G01 X-14.2752 Y3.9452
G01 X-14.2538 Y3.9688
G01 X-14.2383 Y3.9894
G01 X-14.2331 Y3.9970
G01 X-14.2214 Y4.0165
G01 X-14.2156 Y4.0273
G01 X-14.2047 Y4.0506
G01 X-14.1940 Y4.0807
G01 X-14.1862 Y4.1116
G01 X-14.1819 Y4.1401
G01 X-14.1811 Y4.1493
G01 X-14.1800 Y4.1750
G01 X-14.1800 Y4.7281
G01 X-14.1811 Y4.7507
G01 X-14.1819 Y4.7599
G01 X-14.1857 Y4.7854
G01 X-14.1876 Y4.7944
G01 X-14.1931 Y4.8164
G01 X-14.1959 Y4.8252
G01 X-14.2047 Y4.8494
G01 X-14.2156 Y4.8727
G01 X-14.2214 Y4.8835
G01 X-14.2348 Y4.9056
G01 X-14.2538 Y4.9312
G01 X-14.2752 Y4.9548
G01 X-14.2988 Y4.9762
G01 X-14.3244 Y4.9952
G01 X-14.3465 Y5.0086
G01 X-14.3573 Y5.0144
G01 X-14.3806 Y5.0253
G01 X-14.4048 Y5.0341
G01 X-14.4166 Y5.0376
G01 X-14.4416 Y5.0438
G01 X-14.4701 Y5.0481
G01 X-14.4793 Y5.0489
G01 X-14.5050 Y5.0500
G01 X-14.9050 Y5.0500
G01 X-14.9307 Y5.0489
G01 X-14.9399 Y5.0481
G01 X-14.9654 Y5.0443
G01 X-14.9744 Y5.0424
G01 X-14.9993 Y5.0360
G01 X-15.0236 Y5.0275
G01 X-15.0350 Y5.0228
G01 X-15.0582 Y5.0116
G01 X-15.0856 Y4.9952
G01 X-15.1063 Y4.9800
G01 X-15.1158 Y4.9722
G01 X-15.1348 Y4.9548
G01 X-15.1522 Y4.9358
G01 X-15.1600 Y4.9263
G01 X-15.1752 Y4.9056
G01 X-15.1886 Y4.8835
G01 X-15.1932 Y4.8751
G01 X-15.3831 Y4.8751
G01 X-15.4217 Y4.8731
G01 X-15.4599 Y4.8675
G01 X-15.4689 Y4.8656
G01 X-15.5034 Y4.8568
G01 X-15.5427 Y4.8428
G01 X-15.5804 Y4.8249
G01 X-15.6162 Y4.8035
G01 X-15.6497 Y4.7786
G01 X-15.6806 Y4.7506
G01 X-17.7806 Y2.6506
G01 X-17.8086 Y2.6197
G01 X-17.8300 Y2.5912
G01 X-17.8368 Y2.5810
G01 X-17.8519 Y2.5558
G01 X-17.8564 Y2.5477
G01 X-17.8716 Y2.5155
G01 X-17.8750 Y2.5070
G01 X-17.8868 Y2.4734
G01 X-17.8956 Y2.4389
G01 X-17.8980 Y2.4269
G01 X-17.9031 Y2.3917
G01 X-17.9051 Y2.3500
G01 X-17.9052 Y-2.2039
G01 X-19.1261 Y-3.4249
G01 X-20.8831 Y-3.4249
G01 X-20.9217 Y-3.4269
G01 X-20.9629 Y-3.4330
G01 X-21.0034 Y-3.4432
G01 X-21.0370 Y-3.4550
G01 X-21.0483 Y-3.4597
G01 X-21.0804 Y-3.4751
G01 X-21.1162 Y-3.4965
G01 X-21.1497 Y-3.5214
G01 X-21.1784 Y-3.5472
G01 X-21.8499 Y-4.2188
G01 X-21.8736 Y-4.2453
G01 X-21.8985 Y-4.2788
G01 X-21.9199 Y-4.3146
G01 X-21.9353 Y-4.3467
G01 X-21.9389 Y-4.3552
G01 X-21.9499 Y-4.3858
G01 X-21.9535 Y-4.3975
G01 X-21.9620 Y-4.4321
G01 X-21.9681 Y-4.4733
G00 Z2.0000
G00 X-20.6945 Y-4.5342
G01 F250.00
G01 Z-0.0933
G01 F200.00
G01 X-20.6755 Y-4.5212
G01 X-20.6497 Y-4.5057
G01 X-20.6362 Y-4.4985
G01 X-20.6160 Y-4.4888
G01 X-20.5949 Y-4.4798
G01 X-20.5738 Y-4.4721
G01 X-20.5593 Y-4.4673
G01 X-20.5421 Y-4.4626
G01 X-20.6262 Y-4.4626
G01 X-20.7072 Y-4.5437
G01 X-20.6945 Y-4.5342
G00 Z2.0000
G00 X-19.9981 Y-4.4652
G01 F250.00
G01 Z-0.0933
G01 F200.00
G01 X-19.9762 Y-4.4721
G01 X-19.9551 Y-4.4798
G01 X-19.9410 Y-4.4856
G01 X-19.9207 Y-4.4951
G01 X-19.9070 Y-4.5020
G01 X-19.8810 Y-4.5171
G01 X-19.8617 Y-4.5297
G01 X-19.8437 Y-4.5430
G01 X-19.8316 Y-4.5524
G01 X-19.8200 Y-4.5624
G01 X-19.8035 Y-4.5775
G01 X-19.7874 Y-4.5940
G01 X-19.7675 Y-4.6165
G01 X-19.7580 Y-4.6286
G01 X-19.7448 Y-4.6466
G01 X-19.7322 Y-4.6659
G01 X-19.7208 Y-4.6852
G01 X-19.7136 Y-4.6987
G01 X-19.7039 Y-4.7189
G01 X-19.6977 Y-4.7329
G01 X-19.6922 Y-4.7472
G01 X-19.6847 Y-4.7683
G01 X-19.6803 Y-4.7830
G01 X-19.6747 Y-4.8047
G01 X-19.6700 Y-4.8272
G01 X-19.6666 Y-4.8494
G01 X-19.6647 Y-4.8646
G01 X-19.6629 Y-4.8946
G01 X-19.6625 Y-4.9099
G01 X-19.6624 Y-6.8873
G01 X-19.5538 Y-6.8874
G01 X-17.1926 Y-4.5262
G01 X-17.1926 Y-2.9591
G01 X-18.5223 Y-4.2886
G01 X-18.5497 Y-4.3136
G01 X-18.5613 Y-4.3236
G01 X-18.5971 Y-4.3506
G01 X-18.6161 Y-4.3636
G01 X-18.6479 Y-4.3827
G01 X-18.6612 Y-4.3903
G01 X-18.7015 Y-4.4098
G01 X-18.7155 Y-4.4160
G01 X-18.7576 Y-4.4315
G01 X-18.7795 Y-4.4384
G01 X-18.8230 Y-4.4493
G01 X-18.8380 Y-4.4523
G01 X-18.8823 Y-4.4589
G01 X-18.9052 Y-4.4608
G01 X-18.9500 Y-4.4626
G01 X-20.0079 Y-4.4626
G01 X-19.9981 Y-4.4652
G00 Z2.0000
G00 X-19.5199 Y-4.6726
G01 F250.00
G01 Z-0.0933
G01 F200.00
G01 X-19.5107 Y-4.6979
G01 X-19.5030 Y-4.7212
G01 X-19.4996 Y-4.7330
G01 X-19.4929 Y-4.7592
G01 X-19.4875 Y-4.7831
G01 X-19.4833 Y-4.8073
G01 X-19.4795 Y-4.8340
G01 X-19.4781 Y-4.8462
G01 X-19.4763 Y-4.8707
G01 X-19.4752 Y-4.8976
G01 X-19.4749 Y-6.5433
G01 X-17.3801 Y-4.4486
G01 X-17.3801 Y-3.4117
G01 X-18.3930 Y-4.4244
G01 X-18.4330 Y-4.4606
G01 X-18.4424 Y-4.4685
G01 X-18.4617 Y-4.4836
G01 X-18.4854 Y-4.5012
G01 X-18.5055 Y-4.5153
G01 X-18.5262 Y-4.5284
G01 X-18.5515 Y-4.5436
G01 X-18.5728 Y-4.5557
G01 X-18.5837 Y-4.5613
G01 X-18.6325 Y-4.5844
G01 X-18.6552 Y-4.5938
G01 X-18.7060 Y-4.6120
G01 X-18.7295 Y-4.6191
G01 X-18.7819 Y-4.6322
G01 X-18.8060 Y-4.6370
G01 X-18.8594 Y-4.6449
G01 X-18.8838 Y-4.6473
G01 X-18.8960 Y-4.6481
G01 X-18.9255 Y-4.6495
G01 X-18.9500 Y-4.6501
G01 X-19.5292 Y-4.6501
G01 X-19.5199 Y-4.6726
G00 Z2.0000
G00 X-19.2891 Y-4.8615
G01 F250.00
G01 Z-0.0933
G01 F200.00
G01 X-19.2877 Y-4.8930
G01 X-19.2875 Y-4.9099
G01 X-19.2874 Y-6.0906
G01 X-17.5676 Y-4.3709
G01 X-17.5676 Y-3.8644
G01 X-18.2637 Y-4.5602
G01 X-18.2979 Y-4.5914
G01 X-18.3234 Y-4.6135
G01 X-18.3366 Y-4.6240
G01 X-18.3737 Y-4.6518
G01 X-18.3874 Y-4.6617
G01 X-18.4154 Y-4.6804
G01 X-18.4696 Y-4.7129
G01 X-18.4994 Y-4.7288
G01 X-18.5565 Y-4.7558
G01 X-18.5877 Y-4.7687
G01 X-18.6313 Y-4.7845
G01 X-18.6633 Y-4.7951
G01 X-18.6958 Y-4.8041
G01 X-18.7408 Y-4.8152
G01 X-18.7739 Y-4.8218
G01 X-18.8197 Y-4.8288
G01 X-18.8532 Y-4.8329
G01 X-18.8868 Y-4.8354
G01 X-18.9331 Y-4.8374
G01 X-19.2907 Y-4.8376
G01 X-19.2891 Y-4.8615
G00 Z2.0000
G00 X-18.2702 Y-4.8083
G01 F250.00
G01 Z-0.0933
G01 F200.00
G01 X-18.2971 Y-4.8271
G01 X-18.3151 Y-4.8388
G01 X-18.3334 Y-4.8501
G01 X-18.3772 Y-4.8760
G01 X-18.3960 Y-4.8864
G01 X-18.4151 Y-4.8963
G01 X-18.4610 Y-4.9183
G01 X-18.4806 Y-4.9272
G01 X-18.5003 Y-4.9357
G01 X-18.5202 Y-4.9437
G01 X-18.5404 Y-4.9512
G01 X-18.5884 Y-4.9681
G01 X-18.6089 Y-4.9745
G01 X-18.6295 Y-4.9805
G01 X-18.6503 Y-4.9860
G01 X-18.6997 Y-4.9981
G01 X-18.7207 Y-5.0026
G01 X-18.7419 Y-5.0065
G01 X-18.7922 Y-5.0142
G01 X-18.8135 Y-5.0171
G01 X-18.8348 Y-5.0195
G01 X-18.8562 Y-5.0213
G01 X-18.8776 Y-5.0227
G01 X-18.9285 Y-5.0249
G01 X-19.1000 Y-5.0251
G01 X-19.1000 Y-5.6381
G01 X-18.2702 Y-4.8083
G00 Z2.0000
G00 X-19.4368 Y-2.6749
G01 F250.00
G01 Z-0.0933
G01 F200.00
G01 X-19.0412 Y-2.2792
G01 X-19.0592 Y-2.2772
G01 X-19.1023 Y-2.2711
G01 X-19.1235 Y-2.2677
G01 X-19.1446 Y-2.2638
G01 X-19.1656 Y-2.2593
G01 X-19.2079 Y-2.2490
G01 X-19.2287 Y-2.2435
G01 X-19.2493 Y-2.2375
G01 X-19.2698 Y-2.2311
G01 X-19.3015 Y-2.2200
G01 X-19.3192 Y-2.2434
G01 X-19.3327 Y-2.2602
G01 X-19.3465 Y-2.2766
G01 X-19.3706 Y-2.3036
G01 X-19.3852 Y-2.3193
G01 X-19.4002 Y-2.3347
G01 X-19.4156 Y-2.3497
G01 X-19.4313 Y-2.3643
G01 X-19.4583 Y-2.3884
G01 X-19.4747 Y-2.4022
G01 X-19.4915 Y-2.4157
G01 X-19.5204 Y-2.4374
G01 X-19.5378 Y-2.4500
G01 X-19.5555 Y-2.4622
G01 X-19.5735 Y-2.4739
G01 X-19.5918 Y-2.4851
G01 X-19.6230 Y-2.5035
G01 X-19.6418 Y-2.5139
G01 X-19.6609 Y-2.5238
G01 X-19.6802 Y-2.5332
G01 X-19.7130 Y-2.5484
G01 X-19.7327 Y-2.5569
G01 X-19.7527 Y-2.5649
G01 X-19.7867 Y-2.5773
G01 X-19.8070 Y-2.5843
G01 X-19.8275 Y-2.5908
G01 X-19.8481 Y-2.5968
G01 X-19.8831 Y-2.6058
G01 X-19.9040 Y-2.6108
G01 X-19.9250 Y-2.6152
G01 X-19.9461 Y-2.6191
G01 X-19.9673 Y-2.6226
G01 X-20.0032 Y-2.6276
G01 X-20.0245 Y-2.6300
G01 X-20.0459 Y-2.6318
G01 X-20.0821 Y-2.6339
G01 X-20.1035 Y-2.6346
G01 X-20.3699 Y-2.6349
G01 X-20.3699 Y-2.6749
G01 X-19.4368 Y-2.6749
G00 Z2.0000
G00 X-20.5575 Y-2.8624
G01 F250.00
G01 Z-0.0933
G01 F200.00
G01 X-19.3591 Y-2.8624
G01 X-18.5942 Y-2.0974
G01 X-18.9469 Y-2.0972
G01 X-19.0026 Y-2.0945
G01 X-19.0194 Y-2.0930
G01 X-19.0529 Y-2.0889
G01 X-19.0914 Y-2.0830
G01 X-19.1245 Y-2.0764
G01 X-19.1787 Y-2.0628
G01 X-19.2110 Y-2.0530
G01 X-19.2635 Y-2.0342
G01 X-19.2947 Y-2.0213
G01 X-19.3452 Y-1.9974
G01 X-19.3747 Y-1.9817
G01 X-19.3864 Y-2.0047
G01 X-19.3945 Y-2.0195
G01 X-19.4194 Y-2.0611
G01 X-19.4382 Y-2.0891
G01 X-19.4568 Y-2.1146
G01 X-19.4776 Y-2.1412
G01 X-19.4885 Y-2.1541
G01 X-19.5095 Y-2.1777
G01 X-19.5328 Y-2.2021
G01 X-19.5572 Y-2.2254
G01 X-19.5808 Y-2.2464
G01 X-19.6069 Y-2.2678
G01 X-19.6458 Y-2.2967
G01 X-19.6739 Y-2.3155
G01 X-19.7154 Y-2.3404
G01 X-19.7452 Y-2.3563
G01 X-19.7890 Y-2.3770
G01 X-19.8202 Y-2.3899
G01 X-19.8498 Y-2.4008
G01 X-19.8819 Y-2.4113
G01 X-19.9144 Y-2.4203
G01 X-19.9451 Y-2.4278
G01 X-19.9616 Y-2.4313
G01 X-19.9949 Y-2.4371
G01 X-20.0261 Y-2.4415
G01 X-20.0597 Y-2.4448
G01 X-20.0913 Y-2.4466
G01 X-20.1250 Y-2.4474
G01 X-20.4419 Y-2.4472
G01 X-20.4734 Y-2.4459
G01 X-20.5071 Y-2.4434
G01 X-20.5239 Y-2.4415
G01 X-20.5574 Y-2.4367
G01 X-20.5575 Y-2.8624
G00 Z2.0000
G00 X-20.7450 Y-2.8622
G01 F250.00
G01 Z-0.0933
G01 F200.00
G01 X-20.7477 Y-2.9161
G01 X-20.7487 Y-2.9283
G01 X-20.7517 Y-2.9527
G01 X-20.7560 Y-2.9818
G01 X-20.7602 Y-3.0060
G01 X-20.7628 Y-3.0180
G01 X-20.7706 Y-3.0499
G01 X-19.2814 Y-3.0499
G01 X-18.2801 Y-2.0486
G01 X-18.2801 Y-1.8942
G01 X-18.3006 Y-1.8982
G01 X-18.3467 Y-1.9051
G01 X-18.3712 Y-1.9075
G01 X-18.4177 Y-1.9098
G01 X-18.9300 Y-1.9099
G01 X-18.9545 Y-1.9093
G01 X-18.9888 Y-1.9075
G01 X-19.0011 Y-1.9064
G01 X-19.0254 Y-1.9034
G01 X-19.0594 Y-1.8982
G01 X-19.0834 Y-1.8934
G01 X-19.0954 Y-1.8906
G01 X-19.1287 Y-1.8821
G01 X-19.1405 Y-1.8787
G01 X-19.1638 Y-1.8710
G01 X-19.1961 Y-1.8593
G01 X-19.2074 Y-1.8547
G01 X-19.2299 Y-1.8448
G01 X-19.2609 Y-1.8300
G01 X-19.2825 Y-1.8184
G01 X-19.3121 Y-1.8009
G01 X-19.3328 Y-1.7877
G01 X-19.3429 Y-1.7808
G01 X-19.3711 Y-1.7601
G01 X-19.4927 Y-1.7601
G01 X-19.4996 Y-1.7868
G01 X-19.5030 Y-1.7986
G01 X-19.5107 Y-1.8219
G01 X-19.5199 Y-1.8473
G01 X-19.5245 Y-1.8587
G01 X-19.5344 Y-1.8811
G01 X-19.5461 Y-1.9054
G01 X-19.5518 Y-1.9163
G01 X-19.5577 Y-1.9271
G01 X-19.5714 Y-1.9503
G01 X-19.5845 Y-1.9710
G01 X-19.5915 Y-1.9811
G01 X-19.6074 Y-2.0029
G01 X-19.6225 Y-2.0223
G01 X-19.6304 Y-2.0317
G01 X-19.6485 Y-2.0518
G01 X-19.6654 Y-2.0695
G01 X-19.6742 Y-2.0781
G01 X-19.6941 Y-2.0963
G01 X-19.7126 Y-2.1124
G01 X-19.7222 Y-2.1200
G01 X-19.7438 Y-2.1362
G01 X-19.7639 Y-2.1504
G01 X-19.7742 Y-2.1571
G01 X-19.8078 Y-2.1772
G01 X-19.8186 Y-2.1832
G01 X-19.8405 Y-2.1942
G01 X-19.8650 Y-2.2056
G01 X-19.8763 Y-2.2104
G01 X-19.8992 Y-2.2193
G01 X-19.9246 Y-2.2282
G01 X-19.9363 Y-2.2319
G01 X-19.9600 Y-2.2385
G01 X-19.9862 Y-2.2449
G01 X-19.9982 Y-2.2474
G01 X-20.0224 Y-2.2516
G01 X-20.0491 Y-2.2554
G01 X-20.0613 Y-2.2568
G01 X-20.0858 Y-2.2586
G01 X-20.1127 Y-2.2598
G01 X-20.1250 Y-2.2599
G01 X-20.4250 Y-2.2599
G01 X-20.4495 Y-2.2593
G01 X-20.4765 Y-2.2578
G01 X-20.4887 Y-2.2568
G01 X-20.5131 Y-2.2538
G01 X-20.5397 Y-2.2497
G01 X-20.5518 Y-2.2474
G01 X-20.5758 Y-2.2420
G01 X-20.6019 Y-2.2353
G01 X-20.6137 Y-2.2319
G01 X-20.6254 Y-2.2282
G01 X-20.6508 Y-2.2193
G01 X-20.6623 Y-2.2150
G01 X-20.6850 Y-2.2056
G01 X-20.7205 Y-2.1888
G01 X-20.7449 Y-2.1757
G01 X-20.7450 Y-2.8622
G00 Z2.0000
G00 X-20.9324 Y-2.8576
G01 F250.00
G01 Z-0.0933
G01 F200.00
G01 X-20.9342 Y-2.8947
G01 X-20.9353 Y-2.9100
G01 X-20.9415 Y-2.9543
G01 X-20.9441 Y-2.9694
G01 X-20.9475 Y-2.9844
G01 X-20.9587 Y-3.0278
G01 X-20.9635 Y-3.0423
G01 X-20.9790 Y-3.0844
G01 X-20.9852 Y-3.0984
G01 X-21.0047 Y-3.1387
G01 X-21.0274 Y-3.1773
G01 X-21.0356 Y-3.1903
G01 X-21.0444 Y-3.2028
G01 X-21.0714 Y-3.2386
G01 X-21.0814 Y-3.2502
G01 X-21.1115 Y-3.2828
G01 X-21.0724 Y-3.2685
G01 X-21.0578 Y-3.2637
G01 X-21.0145 Y-3.2525
G01 X-20.9995 Y-3.2491
G01 X-20.9553 Y-3.2422
G01 X-20.9401 Y-3.2403
G01 X-20.9248 Y-3.2392
G01 X-20.8877 Y-3.2374
G01 X-19.2038 Y-3.2374
G01 X-18.0926 Y-2.1262
G01 X-18.0926 Y-1.6033
G01 X-18.1188 Y-1.6230
G01 X-18.1314 Y-1.6318
G01 X-18.1633 Y-1.6514
G01 X-18.1834 Y-1.6625
G01 X-18.2103 Y-1.6753
G01 X-18.2243 Y-1.6815
G01 X-18.2594 Y-1.6945
G01 X-18.2813 Y-1.7014
G01 X-18.3102 Y-1.7087
G01 X-18.3251 Y-1.7121
G01 X-18.3621 Y-1.7179
G01 X-18.3850 Y-1.7205
G01 X-18.4147 Y-1.7220
G01 X-18.4300 Y-1.7224
G01 X-18.9377 Y-1.7223
G01 X-18.9674 Y-1.7209
G01 X-18.9827 Y-1.7198
G01 X-19.0197 Y-1.7147
G01 X-19.0349 Y-1.7121
G01 X-19.0712 Y-1.7034
G01 X-19.0860 Y-1.6993
G01 X-19.1214 Y-1.6870
G01 X-19.1357 Y-1.6815
G01 X-19.1497 Y-1.6753
G01 X-19.1834 Y-1.6589
G01 X-19.2157 Y-1.6400
G01 X-19.2286 Y-1.6318
G01 X-19.2412 Y-1.6230
G01 X-19.2710 Y-1.6004
G01 X-19.2826 Y-1.5904
G01 X-19.3022 Y-1.5726
G01 X-19.6625 Y-1.5726
G01 X-19.6626 Y-1.6176
G01 X-19.6636 Y-1.6399
G01 X-19.6647 Y-1.6552
G01 X-19.6688 Y-1.6850
G01 X-19.6714 Y-1.7001
G01 X-19.6747 Y-1.7151
G01 X-19.6803 Y-1.7368
G01 X-19.6847 Y-1.7515
G01 X-19.6922 Y-1.7726
G01 X-19.6977 Y-1.7869
G01 X-19.7039 Y-1.8009
G01 X-19.7136 Y-1.8211
G01 X-19.7208 Y-1.8346
G01 X-19.7322 Y-1.8539
G01 X-19.7404 Y-1.8669
G01 X-19.7493 Y-1.8794
G01 X-19.7675 Y-1.9033
G01 X-19.7775 Y-1.9149
G01 X-19.7926 Y-1.9315
G01 X-19.8035 Y-1.9423
G01 X-19.8200 Y-1.9574
G01 X-19.8316 Y-1.9674
G01 X-19.8437 Y-1.9769
G01 X-19.8617 Y-1.9901
G01 X-19.8745 Y-1.9986
G01 X-19.8936 Y-2.0102
G01 X-19.9070 Y-2.0178
G01 X-19.9207 Y-2.0247
G01 X-19.9480 Y-2.0372
G01 X-19.9623 Y-2.0427
G01 X-19.9834 Y-2.0502
G01 X-19.9981 Y-2.0546
G01 X-20.0198 Y-2.0602
G01 X-20.0423 Y-2.0649
G01 X-20.0644 Y-2.0683
G01 X-20.0797 Y-2.0702
G01 X-20.0950 Y-2.0713
G01 X-20.1173 Y-2.0723
G01 X-20.4250 Y-2.0724
G01 X-20.4403 Y-2.0720
G01 X-20.4627 Y-2.0708
G01 X-20.4856 Y-2.0683
G01 X-20.5077 Y-2.0649
G01 X-20.5227 Y-2.0619
G01 X-20.5445 Y-2.0566
G01 X-20.5593 Y-2.0525
G01 X-20.5738 Y-2.0477
G01 X-20.5949 Y-2.0401
G01 X-20.6090 Y-2.0342
G01 X-20.6293 Y-2.0247
G01 X-20.6430 Y-2.0178
G01 X-20.6564 Y-2.0102
G01 X-20.6755 Y-1.9986
G01 X-20.6883 Y-1.9901
G01 X-20.7063 Y-1.9769
G01 X-20.7184 Y-1.9674
G01 X-20.7300 Y-1.9574
G01 X-20.7465 Y-1.9423
G01 X-20.7574 Y-1.9315
G01 X-20.7776 Y-1.9092
G01 X-20.7873 Y-1.8973
G01 X-20.8007 Y-1.8794
G01 X-20.8096 Y-1.8669
G01 X-20.8178 Y-1.8539
G01 X-20.8292 Y-1.8346
G01 X-20.8398 Y-1.8142
G01 X-20.8493 Y-1.7939
G01 X-20.8551 Y-1.7798
G01 X-20.8653 Y-1.7515
G01 X-20.8697 Y-1.7368
G01 X-20.8770 Y-1.7076
G01 X-20.8800 Y-1.6926
G01 X-20.8844 Y-1.6629
G01 X-20.8859 Y-1.6476
G01 X-20.8871 Y-1.6252
G01 X-20.8875 Y-1.6099
G01 X-20.8874 Y0.0478
G01 X-20.8859 Y0.0778
G01 X-20.8834 Y0.1006
G01 X-20.8786 Y0.1303
G01 X-20.8717 Y0.1596
G01 X-20.8653 Y0.1817
G01 X-20.8551 Y0.2100
G01 X-20.8461 Y0.2311
G01 X-20.8329 Y0.2581
G01 X-20.8178 Y0.2841
G01 X-20.8096 Y0.2970
G01 X-20.7920 Y0.3214
G01 X-20.7776 Y0.3394
G01 X-20.7574 Y0.3616
G01 X-20.7409 Y0.3777
G01 X-20.7184 Y0.3976
G01 X-20.6955 Y0.4151
G01 X-20.7104 Y0.4208
G01 X-20.7244 Y0.4270
G01 X-20.7381 Y0.4339
G01 X-20.7514 Y0.4415
G01 X-20.7644 Y0.4497
G01 X-20.8452 Y0.5037
G01 X-20.8577 Y0.5125
G01 X-20.8698 Y0.5220
G01 X-20.8814 Y0.5320
G01 X-20.8979 Y0.5480
G01 X-20.9082 Y0.5594
G01 X-20.9179 Y0.5713
G01 X-20.9324 Y0.5913
G01 X-20.9324 Y-2.8576
G00 Z2.0000
G00 X-20.6989 Y0.0640
G01 F250.00
G01 Z-0.0933
G01 F200.00
G01 X-20.7000 Y0.0401
G01 X-20.7001 Y-0.7849
G01 X-20.7000 Y-1.6099
G01 X-20.6989 Y-1.6338
G01 X-20.6979 Y-1.6430
G01 X-20.6947 Y-1.6636
G01 X-20.6890 Y-1.6868
G01 X-20.6862 Y-1.6956
G01 X-20.6791 Y-1.7151
G01 X-20.6703 Y-1.7341
G01 X-20.6660 Y-1.7422
G01 X-20.6537 Y-1.7627
G01 X-20.6414 Y-1.7795
G01 X-20.6356 Y-1.7867
G01 X-20.6216 Y-1.8022
G01 X-20.6150 Y-1.8086
G01 X-20.5995 Y-1.8225
G01 X-20.5828 Y-1.8350
G01 X-20.5752 Y-1.8402
G01 X-20.5546 Y-1.8524
G01 X-20.5302 Y-1.8640
G01 X-20.5048 Y-1.8731
G01 X-20.4786 Y-1.8796
G01 X-20.4580 Y-1.8828
G01 X-20.4489 Y-1.8838
G01 X-20.4250 Y-1.8849
G01 X-20.1219 Y-1.8849
G01 X-20.0980 Y-1.8836
G01 X-20.0774 Y-1.8807
G01 X-20.0683 Y-1.8790
G01 X-20.0452 Y-1.8731
G01 X-20.0198 Y-1.8640
G01 X-20.0008 Y-1.8552
G01 X-19.9927 Y-1.8510
G01 X-19.9722 Y-1.8386
G01 X-19.9505 Y-1.8225
G01 X-19.9305 Y-1.8044
G01 X-19.9124 Y-1.7844
G01 X-19.8999 Y-1.7677
G01 X-19.8931 Y-1.7575
G01 X-19.8840 Y-1.7422
G01 X-19.8797 Y-1.7341
G01 X-19.8698 Y-1.7123
G01 X-19.8610 Y-1.6868
G01 X-19.8559 Y-1.6666
G01 X-19.8542 Y-1.6575
G01 X-19.8513 Y-1.6369
G01 X-19.8500 Y-1.6130
G01 X-19.8500 Y-1.3851
G01 X-19.2170 Y-1.3851
G01 X-19.2006 Y-1.4069
G01 X-19.1775 Y-1.4324
G01 X-19.1520 Y-1.4555
G01 X-19.1244 Y-1.4759
G01 X-19.0950 Y-1.4936
G01 X-19.0639 Y-1.5083
G01 X-19.0316 Y-1.5198
G01 X-18.9983 Y-1.5282
G01 X-18.9643 Y-1.5332
G01 X-18.9300 Y-1.5349
G01 X-18.4269 Y-1.5349
G01 X-18.3957 Y-1.5332
G01 X-18.3678 Y-1.5292
G01 X-18.3557 Y-1.5268
G01 X-18.3284 Y-1.5198
G01 X-18.3018 Y-1.5105
G01 X-18.2905 Y-1.5058
G01 X-18.2650 Y-1.4936
G01 X-18.2407 Y-1.4792
G01 X-18.2305 Y-1.4724
G01 X-18.2080 Y-1.4555
G01 X-18.1870 Y-1.4366
G01 X-18.1783 Y-1.4280
G01 X-18.1594 Y-1.4069
G01 X-18.1425 Y-1.3844
G01 X-18.1357 Y-1.3742
G01 X-18.1213 Y-1.3499
G01 X-18.1066 Y-1.3188
G01 X-18.0951 Y-1.2865
G01 X-18.0867 Y-1.2532
G01 X-18.0824 Y-1.2253
G01 X-18.0812 Y-1.2131
G01 X-18.0800 Y-1.1849
G01 X-18.0800 Y-0.7349
G01 X-18.0817 Y-0.7006
G01 X-18.0857 Y-0.6727
G01 X-18.0881 Y-0.6606
G01 X-18.0951 Y-0.6333
G01 X-18.1066 Y-0.6010
G01 X-18.1213 Y-0.5699
G01 X-18.1357 Y-0.5456
G01 X-18.1425 Y-0.5354
G01 X-18.1594 Y-0.5129
G01 X-18.1783 Y-0.4919
G01 X-18.1847 Y-0.4853
G01 X-18.2033 Y-0.4684
G01 X-18.2128 Y-0.4606
G01 X-18.2356 Y-0.4439
G01 X-18.2650 Y-0.4262
G01 X-18.2961 Y-0.4116
G01 X-18.3284 Y-0.4000
G01 X-18.3617 Y-0.3916
G01 X-18.3896 Y-0.3873
G01 X-18.4018 Y-0.3861
G01 X-18.4300 Y-0.3849
G01 X-18.9300 Y-0.3849
G01 X-18.9612 Y-0.3863
G01 X-18.9704 Y-0.3873
G01 X-18.9983 Y-0.3916
G01 X-19.0316 Y-0.4000
G01 X-19.0639 Y-0.4116
G01 X-19.0895 Y-0.4235
G01 X-19.0977 Y-0.4277
G01 X-19.1193 Y-0.4406
G01 X-19.1270 Y-0.4456
G01 X-19.1496 Y-0.4624
G01 X-19.1567 Y-0.4684
G01 X-19.1753 Y-0.4853
G01 X-19.1817 Y-0.4919
G01 X-19.2006 Y-0.5129
G01 X-19.2170 Y-0.5348
G01 X-19.8500 Y-0.5348
G01 X-19.8500 Y0.0401
G01 X-19.8513 Y0.0670
G01 X-19.8542 Y0.0877
G01 X-19.8559 Y0.0967
G01 X-19.8610 Y0.1170
G01 X-19.8698 Y0.1425
G01 X-19.8734 Y0.1509
G01 X-19.8825 Y0.1697
G01 X-19.8947 Y0.1903
G01 X-19.8999 Y0.1979
G01 X-19.9124 Y0.2146
G01 X-19.9305 Y0.2345
G01 X-19.9505 Y0.2527
G01 X-19.9697 Y0.2670
G01 X-19.9774 Y0.2720
G01 X-19.9981 Y0.2840
G01 X-20.0198 Y0.2942
G01 X-20.0393 Y0.3013
G01 X-20.0481 Y0.3041
G01 X-20.0714 Y0.3098
G01 X-20.0920 Y0.3130
G01 X-20.1011 Y0.3140
G01 X-20.1250 Y0.3151
G01 X-20.4281 Y0.3151
G01 X-20.4489 Y0.3140
G01 X-20.4580 Y0.3130
G01 X-20.4786 Y0.3098
G01 X-20.5019 Y0.3041
G01 X-20.5245 Y0.2964
G01 X-20.5358 Y0.2917
G01 X-20.5546 Y0.2826
G01 X-20.5778 Y0.2687
G01 X-20.5995 Y0.2527
G01 X-20.6150 Y0.2388
G01 X-20.6216 Y0.2324
G01 X-20.6376 Y0.2146
G01 X-20.6519 Y0.1954
G01 X-20.6569 Y0.1877
G01 X-20.6675 Y0.1697
G01 X-20.6791 Y0.1453
G01 X-20.6882 Y0.1199
G01 X-20.6934 Y0.0997
G01 X-20.6958 Y0.0877
G01 X-20.6989 Y0.0640
G00 Z2.0000
G00 X-19.4596 Y-0.1298
G01 F250.00
G01 Z-0.0933
G01 F200.00
G01 X-19.4750 Y-0.1128
G01 X-19.4750 Y-0.1598
G01 X-19.4300 Y-0.1598
G01 X-19.4427 Y-0.1476
G01 X-19.4596 Y-0.1298
G00 Z2.0000
G00 X-18.1251 Y-0.0775
G01 F250.00
G01 Z-0.0933
G01 F200.00
G01 X-18.1443 Y-0.0900
G01 X-18.1699 Y-0.1052
G01 X-18.1834 Y-0.1125
G01 X-18.2103 Y-0.1253
G01 X-18.2243 Y-0.1315
G01 X-18.2594 Y-0.1445
G01 X-18.2813 Y-0.1514
G01 X-18.3102 Y-0.1587
G01 X-18.3251 Y-0.1621
G01 X-18.3621 Y-0.1679
G01 X-18.3850 Y-0.1705
G01 X-18.4147 Y-0.1720
G01 X-18.4300 Y-0.1724
G01 X-18.9377 Y-0.1723
G01 X-18.9750 Y-0.1705
G01 X-18.9979 Y-0.1679
G01 X-19.0349 Y-0.1621
G01 X-19.0498 Y-0.1587
G01 X-19.0787 Y-0.1514
G01 X-19.1006 Y-0.1445
G01 X-19.1357 Y-0.1315
G01 X-19.1497 Y-0.1253
G01 X-19.1834 Y-0.1089
G01 X-19.2157 Y-0.0900
G01 X-19.2286 Y-0.0818
G01 X-19.2412 Y-0.0730
G01 X-19.2710 Y-0.0504
G01 X-19.2990 Y-0.0256
G01 X-19.3101 Y-0.0150
G01 X-19.3206 Y-0.0039
G01 X-19.3455 Y0.0241
G01 X-19.3681 Y0.0539
G01 X-19.3769 Y0.0665
G01 X-19.3851 Y0.0794
G01 X-19.4040 Y0.1117
G01 X-19.4204 Y0.1454
G01 X-19.4266 Y0.1594
G01 X-19.4321 Y0.1737
G01 X-19.4420 Y0.2018
G01 X-19.4465 Y0.2164
G01 X-19.4556 Y0.2527
G01 X-19.4586 Y0.2678
G01 X-19.4630 Y0.2972
G01 X-19.4656 Y0.3200
G01 X-19.4674 Y0.3574
G01 X-19.4675 Y0.5614
G01 X-19.5072 Y0.5135
G01 X-19.5176 Y0.5022
G01 X-19.5285 Y0.4914
G01 X-19.5399 Y0.4811
G01 X-19.5518 Y0.4714
G01 X-19.5641 Y0.4623
G01 X-19.5834 Y0.4498
G01 X-19.5968 Y0.4423
G01 X-19.6827 Y0.3969
G01 X-19.6964 Y0.3900
G01 X-19.7104 Y0.3838
G01 X-19.7320 Y0.3759
G01 X-19.7541 Y0.3696
G01 X-19.7767 Y0.3649
G01 X-19.7935 Y0.3625
G01 X-19.7775 Y0.3451
G01 X-19.7675 Y0.3335
G01 X-19.7580 Y0.3214
G01 X-19.7448 Y0.3034
G01 X-19.7322 Y0.2841
G01 X-19.7208 Y0.2648
G01 X-19.7136 Y0.2513
G01 X-19.7039 Y0.2311
G01 X-19.6977 Y0.2171
G01 X-19.6922 Y0.2028
G01 X-19.6847 Y0.1817
G01 X-19.6803 Y0.1670
G01 X-19.6747 Y0.1453
G01 X-19.6700 Y0.1228
G01 X-19.6666 Y0.1006
G01 X-19.6647 Y0.0854
G01 X-19.6636 Y0.0701
G01 X-19.6626 Y0.0478
G01 X-19.6625 Y-0.3473
G01 X-19.3022 Y-0.3473
G01 X-19.2826 Y-0.3294
G01 X-19.2710 Y-0.3194
G01 X-19.2412 Y-0.2968
G01 X-19.2286 Y-0.2880
G01 X-19.2157 Y-0.2798
G01 X-19.1834 Y-0.2609
G01 X-19.1497 Y-0.2445
G01 X-19.1357 Y-0.2383
G01 X-19.1214 Y-0.2328
G01 X-19.0860 Y-0.2206
G01 X-19.0712 Y-0.2165
G01 X-19.0349 Y-0.2077
G01 X-18.9979 Y-0.2019
G01 X-18.9827 Y-0.2000
G01 X-18.9674 Y-0.1989
G01 X-18.9377 Y-0.1975
G01 X-18.4300 Y-0.1974
G01 X-18.4147 Y-0.1978
G01 X-18.3850 Y-0.1993
G01 X-18.3621 Y-0.2019
G01 X-18.3251 Y-0.2077
G01 X-18.3102 Y-0.2111
G01 X-18.2813 Y-0.2184
G01 X-18.2594 Y-0.2254
G01 X-18.2243 Y-0.2383
G01 X-18.2103 Y-0.2445
G01 X-18.1834 Y-0.2573
G01 X-18.1633 Y-0.2684
G01 X-18.1314 Y-0.2880
G01 X-18.1188 Y-0.2968
G01 X-18.0926 Y-0.3165
G01 X-18.0926 Y-0.0533
G01 X-18.1251 Y-0.0775
G00 Z2.0000
G00 X-15.9576 Y0.2867
G01 F250.00
G01 Z-0.0933
G01 F200.00
G01 X-15.9481 Y0.2988
G01 X-15.9381 Y0.3105
G01 X-15.9275 Y0.3216
G01 X-15.9130 Y0.3352
G01 X-15.9130 Y1.2250
G01 X-15.9126 Y1.2403
G01 X-15.9078 Y1.3384
G01 X-15.9067 Y1.3537
G01 X-15.9048 Y1.3689
G01 X-15.8904 Y1.4660
G01 X-15.8878 Y1.4812
G01 X-15.8844 Y1.4961
G01 X-15.8586 Y1.5988
G01 X-15.8517 Y1.6207
G01 X-15.8159 Y1.7203
G01 X-15.8100 Y1.7345
G01 X-15.7931 Y1.7704
G01 X-15.9674 Y1.5962
G01 X-15.9674 Y0.2728
G01 X-15.9576 Y0.2867
G00 Z2.0000
G00 X-20.4486 Y4.6125
G01 F250.00
G01 Z-0.0933
G01 F200.00
G01 X-20.4674 Y4.6281
G01 X-20.4674 Y4.6125
G01 X-20.4486 Y4.6125
G00 Z2.0000
G00 X-24.5017 Y4.2784
G01 F250.00
G01 Z-0.0933
G01 F200.00
G01 X-24.5018 Y4.2771
G01 X-24.4826 Y4.2999
G01 X-24.5006 Y4.2999
G01 X-24.5017 Y4.2784
G00 Z2.0000
G00 X-26.3248 Y4.3189
G01 F250.00
G01 Z-0.0933
G01 F200.00
G01 X-26.3233 Y4.2907
G01 X-26.3188 Y4.2597
G01 X-26.3116 Y4.2293
G01 X-26.3080 Y4.2176
G01 X-26.2984 Y4.1911
G01 X-26.2837 Y4.1600
G01 X-26.2660 Y4.1306
G01 X-26.2493 Y4.1078
G01 X-26.2436 Y4.1006
G01 X-26.2267 Y4.0820
G01 X-26.2180 Y4.0733
G01 X-26.1970 Y4.0544
G01 X-26.1694 Y4.0340
G01 X-26.1453 Y4.0194
G01 X-26.1345 Y4.0136
G01 X-26.1089 Y4.0016
G01 X-26.0766 Y3.9901
G01 X-26.0433 Y3.9817
G01 X-26.0154 Y3.9774
G01 X-26.0032 Y3.9762
G01 X-25.9750 Y3.9750
G01 X-25.2250 Y3.9750
G01 X-25.1907 Y3.9767
G01 X-25.1628 Y3.9807
G01 X-25.1507 Y3.9831
G01 X-25.1234 Y3.9901
G01 X-25.0968 Y3.9994
G01 X-25.0855 Y4.0041
G01 X-25.0600 Y4.0163
G01 X-25.0357 Y4.0307
G01 X-25.0255 Y4.0375
