(G-CODE GENERATED BY FLATCAM v8.994 - www.flatcam.org - Version Date: 2020/11/7)

(Name: spindle_fan_control.drl_mill_cnc)
(Type: G-code from Geometry)
(Units: MM)

(Created on torstai, 07 marraskuu 2024 at 14:03)

(This preprocessor is the default preprocessor used by FlatCAM.)
(It is made to work with MACH3 compatible motion controllers.)

(TOOL DIAMETER: 0.8 mm)
(Feedrate_XY: 100.0 mm/min)
(Feedrate_Z: 100.0 mm/min)
(Feedrate rapids 1500.0 mm/min)

(Z_Cut: -2.4 mm)
(DepthPerCut: 1.0 mm <=>3 passes)
(Z_Move: 2.0 mm)
(Z Start: None mm)
(Z End: 15.0 mm)
(X,Y End: None mm)
(Steps per circle: 64)
(Preprocessor Geometry: default)

(X range:  -27.5500 ...   11.4500  mm)
(Y range:  -15.3500 ...   14.9500  mm)

(Spindle Speed: 24000.0 RPM)
G21
G90
G94

G01 F100.00

M5
G00 Z15.0000
G00 X0.0000 Y0.0000
T1
M6    
(MSG, Change to Tool Dia = 0.8000)
M0
G00 Z15.0000

M03 S24000.0
G01 F100.00
G00 X1.3500 Y0.0000
G01 F100.00
G01 Z-1.0000
G01 F100.00
G01 X1.3435 Y-0.1323
G01 X1.3241 Y-0.2634
G01 X1.2919 Y-0.3919
G01 X1.2472 Y-0.5166
G01 X1.1906 Y-0.6364
G01 X1.1225 Y-0.7500
G01 X1.0436 Y-0.8564
G01 X0.9546 Y-0.9546
G01 X0.8564 Y-1.0436
G01 X0.7500 Y-1.1225
G01 X0.6364 Y-1.1906
G01 X0.5166 Y-1.2472
G01 X0.3919 Y-1.2919
G01 X0.2634 Y-1.3241
G01 X0.1323 Y-1.3435
G01 X0.0000 Y-1.3500
G01 X-0.1323 Y-1.3435
G01 X-0.2634 Y-1.3241
G01 X-0.3919 Y-1.2919
G01 X-0.5166 Y-1.2472
G01 X-0.6364 Y-1.1906
G01 X-0.7500 Y-1.1225
G01 X-0.8564 Y-1.0436
G01 X-0.9546 Y-0.9546
G01 X-1.0436 Y-0.8564
G01 X-1.1225 Y-0.7500
G01 X-1.1906 Y-0.6364
G01 X-1.2472 Y-0.5166
G01 X-1.2919 Y-0.3919
G01 X-1.3241 Y-0.2634
G01 X-1.3435 Y-0.1323
G01 X-1.3500 Y-0.0000
G01 X-1.3435 Y0.1323
G01 X-1.3241 Y0.2634
G01 X-1.2919 Y0.3919
G01 X-1.2472 Y0.5166
G01 X-1.1906 Y0.6364
G01 X-1.1225 Y0.7500
G01 X-1.0436 Y0.8564
G01 X-0.9546 Y0.9546
G01 X-0.8564 Y1.0436
G01 X-0.7500 Y1.1225
G01 X-0.6364 Y1.1906
G01 X-0.5166 Y1.2472
G01 X-0.3919 Y1.2919
G01 X-0.2634 Y1.3241
G01 X-0.1323 Y1.3435
G01 X-0.0000 Y1.3500
G01 X0.1323 Y1.3435
G01 X0.2634 Y1.3241
G01 X0.3919 Y1.2919
G01 X0.5166 Y1.2472
G01 X0.6364 Y1.1906
G01 X0.7500 Y1.1225
G01 X0.8564 Y1.0436
G01 X0.9546 Y0.9546
G01 X1.0436 Y0.8564
G01 X1.1225 Y0.7500
G01 X1.1906 Y0.6364
G01 X1.2472 Y0.5166
G01 X1.2919 Y0.3919
G01 X1.3241 Y0.2634
G01 X1.3435 Y0.1323
G01 X1.3500 Y0.0000
G00 X1.3500 Y0.0000
G01 F100.00
G01 Z-2.0000
G01 F100.00
G01 X1.3435 Y-0.1323
G01 X1.3241 Y-0.2634
G01 X1.2919 Y-0.3919
G01 X1.2472 Y-0.5166
G01 X1.1906 Y-0.6364
G01 X1.1225 Y-0.7500
G01 X1.0436 Y-0.8564
G01 X0.9546 Y-0.9546
G01 X0.8564 Y-1.0436
G01 X0.7500 Y-1.1225
G01 X0.6364 Y-1.1906
G01 X0.5166 Y-1.2472
G01 X0.3919 Y-1.2919
G01 X0.2634 Y-1.3241
G01 X0.1323 Y-1.3435
G01 X0.0000 Y-1.3500
G01 X-0.1323 Y-1.3435
G01 X-0.2634 Y-1.3241
G01 X-0.3919 Y-1.2919
G01 X-0.5166 Y-1.2472
G01 X-0.6364 Y-1.1906
G01 X-0.7500 Y-1.1225
G01 X-0.8564 Y-1.0436
G01 X-0.9546 Y-0.9546
G01 X-1.0436 Y-0.8564
G01 X-1.1225 Y-0.7500
G01 X-1.1906 Y-0.6364
G01 X-1.2472 Y-0.5166
G01 X-1.2919 Y-0.3919
G01 X-1.3241 Y-0.2634
G01 X-1.3435 Y-0.1323
G01 X-1.3500 Y-0.0000
G01 X-1.3435 Y0.1323
G01 X-1.3241 Y0.2634
G01 X-1.2919 Y0.3919
G01 X-1.2472 Y0.5166
G01 X-1.1906 Y0.6364
G01 X-1.1225 Y0.7500
G01 X-1.0436 Y0.8564
G01 X-0.9546 Y0.9546
G01 X-0.8564 Y1.0436
G01 X-0.7500 Y1.1225
G01 X-0.6364 Y1.1906
G01 X-0.5166 Y1.2472
G01 X-0.3919 Y1.2919
G01 X-0.2634 Y1.3241
G01 X-0.1323 Y1.3435
G01 X-0.0000 Y1.3500
G01 X0.1323 Y1.3435
G01 X0.2634 Y1.3241
G01 X0.3919 Y1.2919
G01 X0.5166 Y1.2472
G01 X0.6364 Y1.1906
G01 X0.7500 Y1.1225
G01 X0.8564 Y1.0436
G01 X0.9546 Y0.9546
G01 X1.0436 Y0.8564
G01 X1.1225 Y0.7500
G01 X1.1906 Y0.6364
G01 X1.2472 Y0.5166
G01 X1.2919 Y0.3919
G01 X1.3241 Y0.2634
G01 X1.3435 Y0.1323
G01 X1.3500 Y0.0000
G00 X1.3500 Y0.0000
G01 F100.00
G01 Z-2.4000
G01 F100.00
G01 X1.3435 Y-0.1323
G01 X1.3241 Y-0.2634
G01 X1.2919 Y-0.3919
G01 X1.2472 Y-0.5166
G01 X1.1906 Y-0.6364
G01 X1.1225 Y-0.7500
G01 X1.0436 Y-0.8564
G01 X0.9546 Y-0.9546
G01 X0.8564 Y-1.0436
G01 X0.7500 Y-1.1225
G01 X0.6364 Y-1.1906
G01 X0.5166 Y-1.2472
G01 X0.3919 Y-1.2919
G01 X0.2634 Y-1.3241
G01 X0.1323 Y-1.3435
G01 X0.0000 Y-1.3500
G01 X-0.1323 Y-1.3435
G01 X-0.2634 Y-1.3241
G01 X-0.3919 Y-1.2919
G01 X-0.5166 Y-1.2472
G01 X-0.6364 Y-1.1906
G01 X-0.7500 Y-1.1225
G01 X-0.8564 Y-1.0436
G01 X-0.9546 Y-0.9546
G01 X-1.0436 Y-0.8564
G01 X-1.1225 Y-0.7500
G01 X-1.1906 Y-0.6364
G01 X-1.2472 Y-0.5166
G01 X-1.2919 Y-0.3919
G01 X-1.3241 Y-0.2634
G01 X-1.3435 Y-0.1323
G01 X-1.3500 Y-0.0000
G01 X-1.3435 Y0.1323
G01 X-1.3241 Y0.2634
G01 X-1.2919 Y0.3919
G01 X-1.2472 Y0.5166
G01 X-1.1906 Y0.6364
G01 X-1.1225 Y0.7500
G01 X-1.0436 Y0.8564
G01 X-0.9546 Y0.9546
G01 X-0.8564 Y1.0436
G01 X-0.7500 Y1.1225
G01 X-0.6364 Y1.1906
G01 X-0.5166 Y1.2472
G01 X-0.3919 Y1.2919
G01 X-0.2634 Y1.3241
G01 X-0.1323 Y1.3435
G01 X-0.0000 Y1.3500
G01 X0.1323 Y1.3435
G01 X0.2634 Y1.3241
G01 X0.3919 Y1.2919
G01 X0.5166 Y1.2472
G01 X0.6364 Y1.1906
G01 X0.7500 Y1.1225
G01 X0.8564 Y1.0436
G01 X0.9546 Y0.9546
G01 X1.0436 Y0.8564
G01 X1.1225 Y0.7500
G01 X1.1906 Y0.6364
G01 X1.2472 Y0.5166
G01 X1.2919 Y0.3919
G01 X1.3241 Y0.2634
G01 X1.3435 Y0.1323
G01 X1.3500 Y0.0000
G00 Z2.0000
G00 X8.9500 Y-0.1000
G01 F100.00
G01 Z-1.0000
G01 F100.00
G01 X8.9490 Y-0.1098
G01 X8.9462 Y-0.1191
G01 X8.9416 Y-0.1278
G01 X8.9354 Y-0.1354
G01 X8.9278 Y-0.1416
G01 X8.9191 Y-0.1462
G01 X8.9098 Y-0.1490
G01 X8.9000 Y-0.1500
G01 X8.8902 Y-0.1490
G01 X8.8809 Y-0.1462
G01 X8.8722 Y-0.1416
G01 X8.8646 Y-0.1354
G01 X8.8584 Y-0.1278
G01 X8.8538 Y-0.1191
G01 X8.8510 Y-0.1098
G01 X8.8500 Y-0.1000
G01 X8.8510 Y-0.0902
G01 X8.8538 Y-0.0809
G01 X8.8584 Y-0.0722
G01 X8.8646 Y-0.0646
G01 X8.8722 Y-0.0584
G01 X8.8809 Y-0.0538
G01 X8.8902 Y-0.0510
G01 X8.9000 Y-0.0500
G01 X8.9098 Y-0.0510
G01 X8.9191 Y-0.0538
G01 X8.9278 Y-0.0584
G01 X8.9354 Y-0.0646
G01 X8.9416 Y-0.0722
G01 X8.9462 Y-0.0809
G01 X8.9490 Y-0.0902
G01 X8.9500 Y-0.1000
G00 X8.9500 Y-0.1000
G01 F100.00
G01 Z-2.0000
G01 F100.00
G01 X8.9490 Y-0.1098
G01 X8.9462 Y-0.1191
G01 X8.9416 Y-0.1278
G01 X8.9354 Y-0.1354
G01 X8.9278 Y-0.1416
G01 X8.9191 Y-0.1462
G01 X8.9098 Y-0.1490
G01 X8.9000 Y-0.1500
G01 X8.8902 Y-0.1490
G01 X8.8809 Y-0.1462
G01 X8.8722 Y-0.1416
G01 X8.8646 Y-0.1354
G01 X8.8584 Y-0.1278
G01 X8.8538 Y-0.1191
G01 X8.8510 Y-0.1098
G01 X8.8500 Y-0.1000
G01 X8.8510 Y-0.0902
G01 X8.8538 Y-0.0809
G01 X8.8584 Y-0.0722
G01 X8.8646 Y-0.0646
G01 X8.8722 Y-0.0584
G01 X8.8809 Y-0.0538
G01 X8.8902 Y-0.0510
G01 X8.9000 Y-0.0500
G01 X8.9098 Y-0.0510
G01 X8.9191 Y-0.0538
G01 X8.9278 Y-0.0584
G01 X8.9354 Y-0.0646
G01 X8.9416 Y-0.0722
G01 X8.9462 Y-0.0809
G01 X8.9490 Y-0.0902
G01 X8.9500 Y-0.1000
G00 X8.9500 Y-0.1000
G01 F100.00
G01 Z-2.4000
G01 F100.00
G01 X8.9490 Y-0.1098
G01 X8.9462 Y-0.1191
G01 X8.9416 Y-0.1278
G01 X8.9354 Y-0.1354
G01 X8.9278 Y-0.1416
G01 X8.9191 Y-0.1462
G01 X8.9098 Y-0.1490
G01 X8.9000 Y-0.1500
G01 X8.8902 Y-0.1490
G01 X8.8809 Y-0.1462
G01 X8.8722 Y-0.1416
G01 X8.8646 Y-0.1354
G01 X8.8584 Y-0.1278
G01 X8.8538 Y-0.1191
G01 X8.8510 Y-0.1098
G01 X8.8500 Y-0.1000
G01 X8.8510 Y-0.0902
G01 X8.8538 Y-0.0809
G01 X8.8584 Y-0.0722
G01 X8.8646 Y-0.0646
G01 X8.8722 Y-0.0584
G01 X8.8809 Y-0.0538
G01 X8.8902 Y-0.0510
G01 X8.9000 Y-0.0500
G01 X8.9098 Y-0.0510
G01 X8.9191 Y-0.0538
G01 X8.9278 Y-0.0584
G01 X8.9354 Y-0.0646
G01 X8.9416 Y-0.0722
G01 X8.9462 Y-0.0809
G01 X8.9490 Y-0.0902
G01 X8.9500 Y-0.1000
G00 Z2.0000
G00 X11.4500 Y-0.1000
G01 F100.00
G01 Z-1.0000
G01 F100.00
G01 X11.4490 Y-0.1098
G01 X11.4462 Y-0.1191
G01 X11.4416 Y-0.1278
G01 X11.4354 Y-0.1354
G01 X11.4278 Y-0.1416
G01 X11.4191 Y-0.1462
G01 X11.4098 Y-0.1490
G01 X11.4000 Y-0.1500
G01 X11.3902 Y-0.1490
G01 X11.3809 Y-0.1462
G01 X11.3722 Y-0.1416
G01 X11.3646 Y-0.1354
G01 X11.3584 Y-0.1278
G01 X11.3538 Y-0.1191
G01 X11.3510 Y-0.1098
G01 X11.3500 Y-0.1000
G01 X11.3510 Y-0.0902
G01 X11.3538 Y-0.0809
G01 X11.3584 Y-0.0722
G01 X11.3646 Y-0.0646
G01 X11.3722 Y-0.0584
G01 X11.3809 Y-0.0538
G01 X11.3902 Y-0.0510
G01 X11.4000 Y-0.0500
G01 X11.4098 Y-0.0510
G01 X11.4191 Y-0.0538
G01 X11.4278 Y-0.0584
G01 X11.4354 Y-0.0646
G01 X11.4416 Y-0.0722
G01 X11.4462 Y-0.0809
G01 X11.4490 Y-0.0902
G01 X11.4500 Y-0.1000
G00 X11.4500 Y-0.1000
G01 F100.00
G01 Z-2.0000
G01 F100.00
G01 X11.4490 Y-0.1098
G01 X11.4462 Y-0.1191
G01 X11.4416 Y-0.1278
G01 X11.4354 Y-0.1354
G01 X11.4278 Y-0.1416
G01 X11.4191 Y-0.1462
G01 X11.4098 Y-0.1490
G01 X11.4000 Y-0.1500
G01 X11.3902 Y-0.1490
G01 X11.3809 Y-0.1462
G01 X11.3722 Y-0.1416
G01 X11.3646 Y-0.1354
G01 X11.3584 Y-0.1278
G01 X11.3538 Y-0.1191
G01 X11.3510 Y-0.1098
G01 X11.3500 Y-0.1000
G01 X11.3510 Y-0.0902
G01 X11.3538 Y-0.0809
G01 X11.3584 Y-0.0722
G01 X11.3646 Y-0.0646
G01 X11.3722 Y-0.0584
G01 X11.3809 Y-0.0538
G01 X11.3902 Y-0.0510
G01 X11.4000 Y-0.0500
G01 X11.4098 Y-0.0510
G01 X11.4191 Y-0.0538
G01 X11.4278 Y-0.0584
G01 X11.4354 Y-0.0646
G01 X11.4416 Y-0.0722
G01 X11.4462 Y-0.0809
G01 X11.4490 Y-0.0902
G01 X11.4500 Y-0.1000
G00 X11.4500 Y-0.1000
G01 F100.00
G01 Z-2.4000
G01 F100.00
G01 X11.4490 Y-0.1098
G01 X11.4462 Y-0.1191
G01 X11.4416 Y-0.1278
G01 X11.4354 Y-0.1354
G01 X11.4278 Y-0.1416
G01 X11.4191 Y-0.1462
G01 X11.4098 Y-0.1490
G01 X11.4000 Y-0.1500
G01 X11.3902 Y-0.1490
G01 X11.3809 Y-0.1462
G01 X11.3722 Y-0.1416
G01 X11.3646 Y-0.1354
G01 X11.3584 Y-0.1278
G01 X11.3538 Y-0.1191
G01 X11.3510 Y-0.1098
G01 X11.3500 Y-0.1000
G01 X11.3510 Y-0.0902
G01 X11.3538 Y-0.0809
G01 X11.3584 Y-0.0722
G01 X11.3646 Y-0.0646
G01 X11.3722 Y-0.0584
G01 X11.3809 Y-0.0538
G01 X11.3902 Y-0.0510
G01 X11.4000 Y-0.0500
G01 X11.4098 Y-0.0510
G01 X11.4191 Y-0.0538
G01 X11.4278 Y-0.0584
G01 X11.4354 Y-0.0646
G01 X11.4416 Y-0.0722
G01 X11.4462 Y-0.0809
G01 X11.4490 Y-0.0902
G01 X11.4500 Y-0.1000
G00 Z2.0000
G00 X10.3500 Y-2.6000
G01 F100.00
G01 Z-1.0000
G01 F100.00
G01 X10.3490 Y-2.6098
G01 X10.3462 Y-2.6191
G01 X10.3416 Y-2.6278
G01 X10.3354 Y-2.6354
G01 X10.3278 Y-2.6416
G01 X10.3191 Y-2.6462
G01 X10.3098 Y-2.6490
G01 X10.3000 Y-2.6500
G01 X10.2902 Y-2.6490
G01 X10.2809 Y-2.6462
G01 X10.2722 Y-2.6416
G01 X10.2646 Y-2.6354
G01 X10.2584 Y-2.6278
G01 X10.2538 Y-2.6191
G01 X10.2510 Y-2.6098
G01 X10.2500 Y-2.6000
G01 X10.2510 Y-2.5902
G01 X10.2538 Y-2.5809
G01 X10.2584 Y-2.5722
G01 X10.2646 Y-2.5646
G01 X10.2722 Y-2.5584
G01 X10.2809 Y-2.5538
G01 X10.2902 Y-2.5510
G01 X10.3000 Y-2.5500
G01 X10.3098 Y-2.5510
G01 X10.3191 Y-2.5538
G01 X10.3278 Y-2.5584
G01 X10.3354 Y-2.5646
G01 X10.3416 Y-2.5722
G01 X10.3462 Y-2.5809
G01 X10.3490 Y-2.5902
G01 X10.3500 Y-2.6000
G00 X10.3500 Y-2.6000
G01 F100.00
G01 Z-2.0000
G01 F100.00
G01 X10.3490 Y-2.6098
G01 X10.3462 Y-2.6191
G01 X10.3416 Y-2.6278
G01 X10.3354 Y-2.6354
G01 X10.3278 Y-2.6416
G01 X10.3191 Y-2.6462
G01 X10.3098 Y-2.6490
G01 X10.3000 Y-2.6500
G01 X10.2902 Y-2.6490
G01 X10.2809 Y-2.6462
G01 X10.2722 Y-2.6416
G01 X10.2646 Y-2.6354
G01 X10.2584 Y-2.6278
G01 X10.2538 Y-2.6191
G01 X10.2510 Y-2.6098
G01 X10.2500 Y-2.6000
G01 X10.2510 Y-2.5902
G01 X10.2538 Y-2.5809
G01 X10.2584 Y-2.5722
G01 X10.2646 Y-2.5646
G01 X10.2722 Y-2.5584
G01 X10.2809 Y-2.5538
G01 X10.2902 Y-2.5510
G01 X10.3000 Y-2.5500
G01 X10.3098 Y-2.5510
G01 X10.3191 Y-2.5538
G01 X10.3278 Y-2.5584
G01 X10.3354 Y-2.5646
G01 X10.3416 Y-2.5722
G01 X10.3462 Y-2.5809
G01 X10.3490 Y-2.5902
G01 X10.3500 Y-2.6000
G00 X10.3500 Y-2.6000
G01 F100.00
G01 Z-2.4000
G01 F100.00
G01 X10.3490 Y-2.6098
G01 X10.3462 Y-2.6191
G01 X10.3416 Y-2.6278
G01 X10.3354 Y-2.6354
G01 X10.3278 Y-2.6416
G01 X10.3191 Y-2.6462
G01 X10.3098 Y-2.6490
G01 X10.3000 Y-2.6500
G01 X10.2902 Y-2.6490
G01 X10.2809 Y-2.6462
G01 X10.2722 Y-2.6416
G01 X10.2646 Y-2.6354
G01 X10.2584 Y-2.6278
G01 X10.2538 Y-2.6191
G01 X10.2510 Y-2.6098
G01 X10.2500 Y-2.6000
G01 X10.2510 Y-2.5902
G01 X10.2538 Y-2.5809
G01 X10.2584 Y-2.5722
G01 X10.2646 Y-2.5646
G01 X10.2722 Y-2.5584
G01 X10.2809 Y-2.5538
G01 X10.2902 Y-2.5510
G01 X10.3000 Y-2.5500
G01 X10.3098 Y-2.5510
G01 X10.3191 Y-2.5538
G01 X10.3278 Y-2.5584
G01 X10.3354 Y-2.5646
G01 X10.3416 Y-2.5722
G01 X10.3462 Y-2.5809
G01 X10.3490 Y-2.5902
G01 X10.3500 Y-2.6000
G00 Z2.0000
G00 X10.0500 Y-7.9000
G01 F100.00
G01 Z-1.0000
G01 F100.00
G01 X10.0490 Y-7.9098
G01 X10.0462 Y-7.9191
G01 X10.0416 Y-7.9278
G01 X10.0354 Y-7.9354
G01 X10.0278 Y-7.9416
G01 X10.0191 Y-7.9462
G01 X10.0098 Y-7.9490
G01 X10.0000 Y-7.9500
G01 X9.9902 Y-7.9490
G01 X9.9809 Y-7.9462
G01 X9.9722 Y-7.9416
G01 X9.9646 Y-7.9354
G01 X9.9584 Y-7.9278
G01 X9.9538 Y-7.9191
G01 X9.9510 Y-7.9098
G01 X9.9500 Y-7.9000
G01 X9.9510 Y-7.8902
G01 X9.9538 Y-7.8809
G01 X9.9584 Y-7.8722
G01 X9.9646 Y-7.8646
G01 X9.9722 Y-7.8584
G01 X9.9809 Y-7.8538
G01 X9.9902 Y-7.8510
G01 X10.0000 Y-7.8500
G01 X10.0098 Y-7.8510
G01 X10.0191 Y-7.8538
G01 X10.0278 Y-7.8584
G01 X10.0354 Y-7.8646
G01 X10.0416 Y-7.8722
G01 X10.0462 Y-7.8809
G01 X10.0490 Y-7.8902
G01 X10.0500 Y-7.9000
G00 X10.0500 Y-7.9000
G01 F100.00
G01 Z-2.0000
G01 F100.00
G01 X10.0490 Y-7.9098
G01 X10.0462 Y-7.9191
G01 X10.0416 Y-7.9278
G01 X10.0354 Y-7.9354
G01 X10.0278 Y-7.9416
G01 X10.0191 Y-7.9462
G01 X10.0098 Y-7.9490
G01 X10.0000 Y-7.9500
G01 X9.9902 Y-7.9490
G01 X9.9809 Y-7.9462
G01 X9.9722 Y-7.9416
G01 X9.9646 Y-7.9354
G01 X9.9584 Y-7.9278
G01 X9.9538 Y-7.9191
G01 X9.9510 Y-7.9098
G01 X9.9500 Y-7.9000
G01 X9.9510 Y-7.8902
G01 X9.9538 Y-7.8809
G01 X9.9584 Y-7.8722
G01 X9.9646 Y-7.8646
G01 X9.9722 Y-7.8584
G01 X9.9809 Y-7.8538
G01 X9.9902 Y-7.8510
G01 X10.0000 Y-7.8500
G01 X10.0098 Y-7.8510
G01 X10.0191 Y-7.8538
G01 X10.0278 Y-7.8584
G01 X10.0354 Y-7.8646
G01 X10.0416 Y-7.8722
G01 X10.0462 Y-7.8809
G01 X10.0490 Y-7.8902
G01 X10.0500 Y-7.9000
G00 X10.0500 Y-7.9000
G01 F100.00
G01 Z-2.4000
G01 F100.00
G01 X10.0490 Y-7.9098
G01 X10.0462 Y-7.9191
G01 X10.0416 Y-7.9278
G01 X10.0354 Y-7.9354
G01 X10.0278 Y-7.9416
G01 X10.0191 Y-7.9462
G01 X10.0098 Y-7.9490
G01 X10.0000 Y-7.9500
G01 X9.9902 Y-7.9490
G01 X9.9809 Y-7.9462
G01 X9.9722 Y-7.9416
G01 X9.9646 Y-7.9354
G01 X9.9584 Y-7.9278
G01 X9.9538 Y-7.9191
G01 X9.9510 Y-7.9098
G01 X9.9500 Y-7.9000
G01 X9.9510 Y-7.8902
G01 X9.9538 Y-7.8809
G01 X9.9584 Y-7.8722
G01 X9.9646 Y-7.8646
G01 X9.9722 Y-7.8584
G01 X9.9809 Y-7.8538
G01 X9.9902 Y-7.8510
G01 X10.0000 Y-7.8500
G01 X10.0098 Y-7.8510
G01 X10.0191 Y-7.8538
G01 X10.0278 Y-7.8584
G01 X10.0354 Y-7.8646
G01 X10.0416 Y-7.8722
G01 X10.0462 Y-7.8809
G01 X10.0490 Y-7.8902
G01 X10.0500 Y-7.9000
G00 Z2.0000
G00 X-6.8800 Y1.2250
G01 F100.00
G01 Z-1.0000
G01 F100.00
G01 X-6.8805 Y1.2152
G01 X-6.8819 Y1.2055
G01 X-6.8843 Y1.1960
G01 X-6.8876 Y1.1867
G01 X-6.8918 Y1.1779
G01 X-6.8969 Y1.1694
G01 X-6.9027 Y1.1616
G01 X-6.9093 Y1.1543
G01 X-6.9166 Y1.1477
G01 X-6.9244 Y1.1419
G01 X-6.9329 Y1.1368
G01 X-6.9417 Y1.1326
G01 X-6.9510 Y1.1293
G01 X-6.9605 Y1.1269
G01 X-6.9702 Y1.1255
G01 X-6.9800 Y1.1250
G01 X-6.9898 Y1.1255
G01 X-6.9995 Y1.1269
G01 X-7.0090 Y1.1293
G01 X-7.0183 Y1.1326
G01 X-7.0271 Y1.1368
G01 X-7.0356 Y1.1419
G01 X-7.0434 Y1.1477
G01 X-7.0507 Y1.1543
G01 X-7.0573 Y1.1616
G01 X-7.0631 Y1.1694
G01 X-7.0682 Y1.1779
G01 X-7.0724 Y1.1867
G01 X-7.0757 Y1.1960
G01 X-7.0781 Y1.2055
G01 X-7.0795 Y1.2152
G01 X-7.0800 Y1.2250
G01 X-7.0795 Y1.2348
G01 X-7.0781 Y1.2445
G01 X-7.0757 Y1.2540
G01 X-7.0724 Y1.2633
G01 X-7.0682 Y1.2721
G01 X-7.0631 Y1.2806
G01 X-7.0573 Y1.2884
G01 X-7.0507 Y1.2957
G01 X-7.0434 Y1.3023
G01 X-7.0356 Y1.3081
G01 X-7.0271 Y1.3132
G01 X-7.0183 Y1.3174
G01 X-7.0090 Y1.3207
G01 X-6.9995 Y1.3231
G01 X-6.9898 Y1.3245
G01 X-6.9800 Y1.3250
G01 X-6.9702 Y1.3245
G01 X-6.9605 Y1.3231
G01 X-6.9510 Y1.3207
G01 X-6.9417 Y1.3174
G01 X-6.9329 Y1.3132
G01 X-6.9244 Y1.3081
G01 X-6.9166 Y1.3023
G01 X-6.9093 Y1.2957
G01 X-6.9027 Y1.2884
G01 X-6.8969 Y1.2806
G01 X-6.8918 Y1.2721
G01 X-6.8876 Y1.2633
G01 X-6.8843 Y1.2540
G01 X-6.8819 Y1.2445
G01 X-6.8805 Y1.2348
G01 X-6.8800 Y1.2250
G00 X-6.8800 Y1.2250
G01 F100.00
G01 Z-2.0000
G01 F100.00
G01 X-6.8805 Y1.2152
G01 X-6.8819 Y1.2055
G01 X-6.8843 Y1.1960
G01 X-6.8876 Y1.1867
G01 X-6.8918 Y1.1779
G01 X-6.8969 Y1.1694
G01 X-6.9027 Y1.1616
G01 X-6.9093 Y1.1543
G01 X-6.9166 Y1.1477
G01 X-6.9244 Y1.1419
G01 X-6.9329 Y1.1368
G01 X-6.9417 Y1.1326
G01 X-6.9510 Y1.1293
G01 X-6.9605 Y1.1269
G01 X-6.9702 Y1.1255
G01 X-6.9800 Y1.1250
G01 X-6.9898 Y1.1255
G01 X-6.9995 Y1.1269
G01 X-7.0090 Y1.1293
G01 X-7.0183 Y1.1326
G01 X-7.0271 Y1.1368
G01 X-7.0356 Y1.1419
G01 X-7.0434 Y1.1477
G01 X-7.0507 Y1.1543
G01 X-7.0573 Y1.1616
G01 X-7.0631 Y1.1694
G01 X-7.0682 Y1.1779
G01 X-7.0724 Y1.1867
G01 X-7.0757 Y1.1960
G01 X-7.0781 Y1.2055
G01 X-7.0795 Y1.2152
G01 X-7.0800 Y1.2250
G01 X-7.0795 Y1.2348
G01 X-7.0781 Y1.2445
G01 X-7.0757 Y1.2540
G01 X-7.0724 Y1.2633
G01 X-7.0682 Y1.2721
G01 X-7.0631 Y1.2806
G01 X-7.0573 Y1.2884
G01 X-7.0507 Y1.2957
G01 X-7.0434 Y1.3023
G01 X-7.0356 Y1.3081
G01 X-7.0271 Y1.3132
G01 X-7.0183 Y1.3174
G01 X-7.0090 Y1.3207
G01 X-6.9995 Y1.3231
G01 X-6.9898 Y1.3245
G01 X-6.9800 Y1.3250
G01 X-6.9702 Y1.3245
G01 X-6.9605 Y1.3231
G01 X-6.9510 Y1.3207
G01 X-6.9417 Y1.3174
G01 X-6.9329 Y1.3132
G01 X-6.9244 Y1.3081
G01 X-6.9166 Y1.3023
G01 X-6.9093 Y1.2957
G01 X-6.9027 Y1.2884
G01 X-6.8969 Y1.2806
G01 X-6.8918 Y1.2721
G01 X-6.8876 Y1.2633
G01 X-6.8843 Y1.2540
G01 X-6.8819 Y1.2445
G01 X-6.8805 Y1.2348
G01 X-6.8800 Y1.2250
G00 X-6.8800 Y1.2250
G01 F100.00
G01 Z-2.4000
G01 F100.00
G01 X-6.8805 Y1.2152
G01 X-6.8819 Y1.2055
G01 X-6.8843 Y1.1960
G01 X-6.8876 Y1.1867
G01 X-6.8918 Y1.1779
G01 X-6.8969 Y1.1694
G01 X-6.9027 Y1.1616
G01 X-6.9093 Y1.1543
G01 X-6.9166 Y1.1477
G01 X-6.9244 Y1.1419
G01 X-6.9329 Y1.1368
G01 X-6.9417 Y1.1326
G01 X-6.9510 Y1.1293
G01 X-6.9605 Y1.1269
G01 X-6.9702 Y1.1255
G01 X-6.9800 Y1.1250
G01 X-6.9898 Y1.1255
G01 X-6.9995 Y1.1269
G01 X-7.0090 Y1.1293
G01 X-7.0183 Y1.1326
G01 X-7.0271 Y1.1368
G01 X-7.0356 Y1.1419
G01 X-7.0434 Y1.1477
G01 X-7.0507 Y1.1543
G01 X-7.0573 Y1.1616
G01 X-7.0631 Y1.1694
G01 X-7.0682 Y1.1779
G01 X-7.0724 Y1.1867
G01 X-7.0757 Y1.1960
G01 X-7.0781 Y1.2055
G01 X-7.0795 Y1.2152
G01 X-7.0800 Y1.2250
G01 X-7.0795 Y1.2348
G01 X-7.0781 Y1.2445
G01 X-7.0757 Y1.2540
G01 X-7.0724 Y1.2633
G01 X-7.0682 Y1.2721
G01 X-7.0631 Y1.2806
G01 X-7.0573 Y1.2884
G01 X-7.0507 Y1.2957
G01 X-7.0434 Y1.3023
G01 X-7.0356 Y1.3081
G01 X-7.0271 Y1.3132
G01 X-7.0183 Y1.3174
G01 X-7.0090 Y1.3207
G01 X-6.9995 Y1.3231
G01 X-6.9898 Y1.3245
G01 X-6.9800 Y1.3250
G01 X-6.9702 Y1.3245
G01 X-6.9605 Y1.3231
G01 X-6.9510 Y1.3207
G01 X-6.9417 Y1.3174
G01 X-6.9329 Y1.3132
G01 X-6.9244 Y1.3081
G01 X-6.9166 Y1.3023
G01 X-6.9093 Y1.2957
G01 X-6.9027 Y1.2884
G01 X-6.8969 Y1.2806
G01 X-6.8918 Y1.2721
G01 X-6.8876 Y1.2633
G01 X-6.8843 Y1.2540
G01 X-6.8819 Y1.2445
G01 X-6.8805 Y1.2348
G01 X-6.8800 Y1.2250
G00 Z2.0000
G00 X-9.4200 Y1.2250
G01 F100.00
G01 Z-1.0000
G01 F100.00
G01 X-9.4205 Y1.2152
G01 X-9.4219 Y1.2055
G01 X-9.4243 Y1.1960
G01 X-9.4276 Y1.1867
G01 X-9.4318 Y1.1779
G01 X-9.4369 Y1.1694
G01 X-9.4427 Y1.1616
G01 X-9.4493 Y1.1543
G01 X-9.4566 Y1.1477
G01 X-9.4644 Y1.1419
G01 X-9.4729 Y1.1368
G01 X-9.4817 Y1.1326
G01 X-9.4910 Y1.1293
G01 X-9.5005 Y1.1269
G01 X-9.5102 Y1.1255
G01 X-9.5200 Y1.1250
G01 X-9.5298 Y1.1255
G01 X-9.5395 Y1.1269
G01 X-9.5490 Y1.1293
G01 X-9.5583 Y1.1326
G01 X-9.5671 Y1.1368
G01 X-9.5756 Y1.1419
G01 X-9.5834 Y1.1477
G01 X-9.5907 Y1.1543
G01 X-9.5973 Y1.1616
G01 X-9.6031 Y1.1694
G01 X-9.6082 Y1.1779
G01 X-9.6124 Y1.1867
G01 X-9.6157 Y1.1960
G01 X-9.6181 Y1.2055
G01 X-9.6195 Y1.2152
G01 X-9.6200 Y1.2250
G01 X-9.6195 Y1.2348
G01 X-9.6181 Y1.2445
G01 X-9.6157 Y1.2540
G01 X-9.6124 Y1.2633
G01 X-9.6082 Y1.2721
G01 X-9.6031 Y1.2806
G01 X-9.5973 Y1.2884
G01 X-9.5907 Y1.2957
G01 X-9.5834 Y1.3023
G01 X-9.5756 Y1.3081
G01 X-9.5671 Y1.3132
G01 X-9.5583 Y1.3174
G01 X-9.5490 Y1.3207
G01 X-9.5395 Y1.3231
G01 X-9.5298 Y1.3245
G01 X-9.5200 Y1.3250
G01 X-9.5102 Y1.3245
G01 X-9.5005 Y1.3231
G01 X-9.4910 Y1.3207
G01 X-9.4817 Y1.3174
G01 X-9.4729 Y1.3132
G01 X-9.4644 Y1.3081
G01 X-9.4566 Y1.3023
G01 X-9.4493 Y1.2957
G01 X-9.4427 Y1.2884
G01 X-9.4369 Y1.2806
G01 X-9.4318 Y1.2721
G01 X-9.4276 Y1.2633
G01 X-9.4243 Y1.2540
G01 X-9.4219 Y1.2445
G01 X-9.4205 Y1.2348
G01 X-9.4200 Y1.2250
G00 X-9.4200 Y1.2250
G01 F100.00
G01 Z-2.0000
G01 F100.00
G01 X-9.4205 Y1.2152
G01 X-9.4219 Y1.2055
G01 X-9.4243 Y1.1960
G01 X-9.4276 Y1.1867
G01 X-9.4318 Y1.1779
G01 X-9.4369 Y1.1694
G01 X-9.4427 Y1.1616
G01 X-9.4493 Y1.1543
G01 X-9.4566 Y1.1477
G01 X-9.4644 Y1.1419
G01 X-9.4729 Y1.1368
G01 X-9.4817 Y1.1326
G01 X-9.4910 Y1.1293
G01 X-9.5005 Y1.1269
G01 X-9.5102 Y1.1255
G01 X-9.5200 Y1.1250
G01 X-9.5298 Y1.1255
G01 X-9.5395 Y1.1269
G01 X-9.5490 Y1.1293
G01 X-9.5583 Y1.1326
G01 X-9.5671 Y1.1368
G01 X-9.5756 Y1.1419
G01 X-9.5834 Y1.1477
G01 X-9.5907 Y1.1543
G01 X-9.5973 Y1.1616
G01 X-9.6031 Y1.1694
G01 X-9.6082 Y1.1779
G01 X-9.6124 Y1.1867
G01 X-9.6157 Y1.1960
G01 X-9.6181 Y1.2055
G01 X-9.6195 Y1.2152
G01 X-9.6200 Y1.2250
G01 X-9.6195 Y1.2348
G01 X-9.6181 Y1.2445
G01 X-9.6157 Y1.2540
G01 X-9.6124 Y1.2633
G01 X-9.6082 Y1.2721
G01 X-9.6031 Y1.2806
G01 X-9.5973 Y1.2884
G01 X-9.5907 Y1.2957
G01 X-9.5834 Y1.3023
G01 X-9.5756 Y1.3081
G01 X-9.5671 Y1.3132
G01 X-9.5583 Y1.3174
G01 X-9.5490 Y1.3207
G01 X-9.5395 Y1.3231
G01 X-9.5298 Y1.3245
G01 X-9.5200 Y1.3250
G01 X-9.5102 Y1.3245
G01 X-9.5005 Y1.3231
G01 X-9.4910 Y1.3207
G01 X-9.4817 Y1.3174
G01 X-9.4729 Y1.3132
G01 X-9.4644 Y1.3081
G01 X-9.4566 Y1.3023
G01 X-9.4493 Y1.2957
G01 X-9.4427 Y1.2884
G01 X-9.4369 Y1.2806
G01 X-9.4318 Y1.2721
G01 X-9.4276 Y1.2633
G01 X-9.4243 Y1.2540
G01 X-9.4219 Y1.2445
G01 X-9.4205 Y1.2348
G01 X-9.4200 Y1.2250
G00 X-9.4200 Y1.2250
G01 F100.00
G01 Z-2.4000
G01 F100.00
G01 X-9.4205 Y1.2152
G01 X-9.4219 Y1.2055
G01 X-9.4243 Y1.1960
G01 X-9.4276 Y1.1867
G01 X-9.4318 Y1.1779
G01 X-9.4369 Y1.1694
G01 X-9.4427 Y1.1616
G01 X-9.4493 Y1.1543
G01 X-9.4566 Y1.1477
G01 X-9.4644 Y1.1419
G01 X-9.4729 Y1.1368
G01 X-9.4817 Y1.1326
G01 X-9.4910 Y1.1293
G01 X-9.5005 Y1.1269
G01 X-9.5102 Y1.1255
G01 X-9.5200 Y1.1250
G01 X-9.5298 Y1.1255
G01 X-9.5395 Y1.1269
G01 X-9.5490 Y1.1293
G01 X-9.5583 Y1.1326
G01 X-9.5671 Y1.1368
G01 X-9.5756 Y1.1419
G01 X-9.5834 Y1.1477
G01 X-9.5907 Y1.1543
G01 X-9.5973 Y1.1616
G01 X-9.6031 Y1.1694
G01 X-9.6082 Y1.1779
G01 X-9.6124 Y1.1867
G01 X-9.6157 Y1.1960
G01 X-9.6181 Y1.2055
G01 X-9.6195 Y1.2152
G01 X-9.6200 Y1.2250
G01 X-9.6195 Y1.2348
G01 X-9.6181 Y1.2445
G01 X-9.6157 Y1.2540
G01 X-9.6124 Y1.2633
G01 X-9.6082 Y1.2721
G01 X-9.6031 Y1.2806
G01 X-9.5973 Y1.2884
G01 X-9.5907 Y1.2957
G01 X-9.5834 Y1.3023
G01 X-9.5756 Y1.3081
G01 X-9.5671 Y1.3132
G01 X-9.5583 Y1.3174
G01 X-9.5490 Y1.3207
G01 X-9.5395 Y1.3231
G01 X-9.5298 Y1.3245
G01 X-9.5200 Y1.3250
G01 X-9.5102 Y1.3245
G01 X-9.5005 Y1.3231
G01 X-9.4910 Y1.3207
G01 X-9.4817 Y1.3174
G01 X-9.4729 Y1.3132
G01 X-9.4644 Y1.3081
G01 X-9.4566 Y1.3023
G01 X-9.4493 Y1.2957
G01 X-9.4427 Y1.2884
G01 X-9.4369 Y1.2806
G01 X-9.4318 Y1.2721
G01 X-9.4276 Y1.2633
G01 X-9.4243 Y1.2540
G01 X-9.4219 Y1.2445
G01 X-9.4205 Y1.2348
G01 X-9.4200 Y1.2250
G00 Z2.0000
G00 X-11.9600 Y1.2250
G01 F100.00
G01 Z-1.0000
G01 F100.00
G01 X-11.9605 Y1.2152
G01 X-11.9619 Y1.2055
G01 X-11.9643 Y1.1960
G01 X-11.9676 Y1.1867
G01 X-11.9718 Y1.1779
G01 X-11.9769 Y1.1694
G01 X-11.9827 Y1.1616
G01 X-11.9893 Y1.1543
G01 X-11.9966 Y1.1477
G01 X-12.0044 Y1.1419
G01 X-12.0129 Y1.1368
G01 X-12.0217 Y1.1326
G01 X-12.0310 Y1.1293
G01 X-12.0405 Y1.1269
G01 X-12.0502 Y1.1255
G01 X-12.0600 Y1.1250
G01 X-12.0698 Y1.1255
G01 X-12.0795 Y1.1269
G01 X-12.0890 Y1.1293
G01 X-12.0983 Y1.1326
G01 X-12.1071 Y1.1368
G01 X-12.1156 Y1.1419
G01 X-12.1234 Y1.1477
G01 X-12.1307 Y1.1543
G01 X-12.1373 Y1.1616
G01 X-12.1431 Y1.1694
G01 X-12.1482 Y1.1779
G01 X-12.1524 Y1.1867
G01 X-12.1557 Y1.1960
G01 X-12.1581 Y1.2055
G01 X-12.1595 Y1.2152
G01 X-12.1600 Y1.2250
G01 X-12.1595 Y1.2348
G01 X-12.1581 Y1.2445
G01 X-12.1557 Y1.2540
G01 X-12.1524 Y1.2633
G01 X-12.1482 Y1.2721
G01 X-12.1431 Y1.2806
G01 X-12.1373 Y1.2884
G01 X-12.1307 Y1.2957
G01 X-12.1234 Y1.3023
G01 X-12.1156 Y1.3081
G01 X-12.1071 Y1.3132
G01 X-12.0983 Y1.3174
G01 X-12.0890 Y1.3207
G01 X-12.0795 Y1.3231
G01 X-12.0698 Y1.3245
G01 X-12.0600 Y1.3250
G01 X-12.0502 Y1.3245
G01 X-12.0405 Y1.3231
G01 X-12.0310 Y1.3207
G01 X-12.0217 Y1.3174
G01 X-12.0129 Y1.3132
G01 X-12.0044 Y1.3081
G01 X-11.9966 Y1.3023
G01 X-11.9893 Y1.2957
G01 X-11.9827 Y1.2884
G01 X-11.9769 Y1.2806
G01 X-11.9718 Y1.2721
G01 X-11.9676 Y1.2633
G01 X-11.9643 Y1.2540
G01 X-11.9619 Y1.2445
G01 X-11.9605 Y1.2348
G01 X-11.9600 Y1.2250
G00 X-11.9600 Y1.2250
G01 F100.00
G01 Z-2.0000
G01 F100.00
G01 X-11.9605 Y1.2152
G01 X-11.9619 Y1.2055
G01 X-11.9643 Y1.1960
G01 X-11.9676 Y1.1867
G01 X-11.9718 Y1.1779
G01 X-11.9769 Y1.1694
G01 X-11.9827 Y1.1616
G01 X-11.9893 Y1.1543
G01 X-11.9966 Y1.1477
G01 X-12.0044 Y1.1419
G01 X-12.0129 Y1.1368
G01 X-12.0217 Y1.1326
G01 X-12.0310 Y1.1293
G01 X-12.0405 Y1.1269
G01 X-12.0502 Y1.1255
G01 X-12.0600 Y1.1250
G01 X-12.0698 Y1.1255
G01 X-12.0795 Y1.1269
G01 X-12.0890 Y1.1293
G01 X-12.0983 Y1.1326
G01 X-12.1071 Y1.1368
G01 X-12.1156 Y1.1419
G01 X-12.1234 Y1.1477
G01 X-12.1307 Y1.1543
G01 X-12.1373 Y1.1616
G01 X-12.1431 Y1.1694
G01 X-12.1482 Y1.1779
G01 X-12.1524 Y1.1867
G01 X-12.1557 Y1.1960
G01 X-12.1581 Y1.2055
G01 X-12.1595 Y1.2152
G01 X-12.1600 Y1.2250
G01 X-12.1595 Y1.2348
G01 X-12.1581 Y1.2445
G01 X-12.1557 Y1.2540
G01 X-12.1524 Y1.2633
G01 X-12.1482 Y1.2721
G01 X-12.1431 Y1.2806
G01 X-12.1373 Y1.2884
G01 X-12.1307 Y1.2957
G01 X-12.1234 Y1.3023
G01 X-12.1156 Y1.3081
G01 X-12.1071 Y1.3132
G01 X-12.0983 Y1.3174
G01 X-12.0890 Y1.3207
G01 X-12.0795 Y1.3231
G01 X-12.0698 Y1.3245
G01 X-12.0600 Y1.3250
G01 X-12.0502 Y1.3245
G01 X-12.0405 Y1.3231
G01 X-12.0310 Y1.3207
G01 X-12.0217 Y1.3174
G01 X-12.0129 Y1.3132
G01 X-12.0044 Y1.3081
G01 X-11.9966 Y1.3023
G01 X-11.9893 Y1.2957
G01 X-11.9827 Y1.2884
G01 X-11.9769 Y1.2806
G01 X-11.9718 Y1.2721
G01 X-11.9676 Y1.2633
G01 X-11.9643 Y1.2540
G01 X-11.9619 Y1.2445
G01 X-11.9605 Y1.2348
G01 X-11.9600 Y1.2250
G00 X-11.9600 Y1.2250
G01 F100.00
G01 Z-2.4000
G01 F100.00
G01 X-11.9605 Y1.2152
G01 X-11.9619 Y1.2055
G01 X-11.9643 Y1.1960
G01 X-11.9676 Y1.1867
G01 X-11.9718 Y1.1779
G01 X-11.9769 Y1.1694
G01 X-11.9827 Y1.1616
G01 X-11.9893 Y1.1543
G01 X-11.9966 Y1.1477
G01 X-12.0044 Y1.1419
G01 X-12.0129 Y1.1368
G01 X-12.0217 Y1.1326
G01 X-12.0310 Y1.1293
G01 X-12.0405 Y1.1269
G01 X-12.0502 Y1.1255
G01 X-12.0600 Y1.1250
G01 X-12.0698 Y1.1255
G01 X-12.0795 Y1.1269
G01 X-12.0890 Y1.1293
G01 X-12.0983 Y1.1326
G01 X-12.1071 Y1.1368
G01 X-12.1156 Y1.1419
G01 X-12.1234 Y1.1477
G01 X-12.1307 Y1.1543
G01 X-12.1373 Y1.1616
G01 X-12.1431 Y1.1694
G01 X-12.1482 Y1.1779
G01 X-12.1524 Y1.1867
G01 X-12.1557 Y1.1960
G01 X-12.1581 Y1.2055
G01 X-12.1595 Y1.2152
G01 X-12.1600 Y1.2250
G01 X-12.1595 Y1.2348
G01 X-12.1581 Y1.2445
G01 X-12.1557 Y1.2540
G01 X-12.1524 Y1.2633
G01 X-12.1482 Y1.2721
G01 X-12.1431 Y1.2806
G01 X-12.1373 Y1.2884
G01 X-12.1307 Y1.2957
G01 X-12.1234 Y1.3023
G01 X-12.1156 Y1.3081
G01 X-12.1071 Y1.3132
G01 X-12.0983 Y1.3174
G01 X-12.0890 Y1.3207
G01 X-12.0795 Y1.3231
G01 X-12.0698 Y1.3245
G01 X-12.0600 Y1.3250
G01 X-12.0502 Y1.3245
G01 X-12.0405 Y1.3231
G01 X-12.0310 Y1.3207
G01 X-12.0217 Y1.3174
G01 X-12.0129 Y1.3132
G01 X-12.0044 Y1.3081
G01 X-11.9966 Y1.3023
G01 X-11.9893 Y1.2957
G01 X-11.9827 Y1.2884
G01 X-11.9769 Y1.2806
G01 X-11.9718 Y1.2721
G01 X-11.9676 Y1.2633
G01 X-11.9643 Y1.2540
G01 X-11.9619 Y1.2445
G01 X-11.9605 Y1.2348
G01 X-11.9600 Y1.2250
G00 Z2.0000
G00 X-14.5000 Y1.2250
G01 F100.00
G01 Z-1.0000
G01 F100.00
G01 X-14.5005 Y1.2152
G01 X-14.5019 Y1.2055
G01 X-14.5043 Y1.1960
G01 X-14.5076 Y1.1867
G01 X-14.5118 Y1.1779
G01 X-14.5169 Y1.1694
G01 X-14.5227 Y1.1616
G01 X-14.5293 Y1.1543
G01 X-14.5366 Y1.1477
G01 X-14.5444 Y1.1419
G01 X-14.5529 Y1.1368
G01 X-14.5617 Y1.1326
G01 X-14.5710 Y1.1293
G01 X-14.5805 Y1.1269
G01 X-14.5902 Y1.1255
G01 X-14.6000 Y1.1250
G01 X-14.6098 Y1.1255
G01 X-14.6195 Y1.1269
G01 X-14.6290 Y1.1293
G01 X-14.6383 Y1.1326
G01 X-14.6471 Y1.1368
G01 X-14.6556 Y1.1419
G01 X-14.6634 Y1.1477
G01 X-14.6707 Y1.1543
G01 X-14.6773 Y1.1616
G01 X-14.6831 Y1.1694
G01 X-14.6882 Y1.1779
G01 X-14.6924 Y1.1867
G01 X-14.6957 Y1.1960
G01 X-14.6981 Y1.2055
G01 X-14.6995 Y1.2152
G01 X-14.7000 Y1.2250
G01 X-14.6995 Y1.2348
G01 X-14.6981 Y1.2445
G01 X-14.6957 Y1.2540
G01 X-14.6924 Y1.2633
G01 X-14.6882 Y1.2721
G01 X-14.6831 Y1.2806
G01 X-14.6773 Y1.2884
G01 X-14.6707 Y1.2957
G01 X-14.6634 Y1.3023
G01 X-14.6556 Y1.3081
G01 X-14.6471 Y1.3132
G01 X-14.6383 Y1.3174
G01 X-14.6290 Y1.3207
G01 X-14.6195 Y1.3231
G01 X-14.6098 Y1.3245
G01 X-14.6000 Y1.3250
G01 X-14.5902 Y1.3245
G01 X-14.5805 Y1.3231
G01 X-14.5710 Y1.3207
G01 X-14.5617 Y1.3174
G01 X-14.5529 Y1.3132
G01 X-14.5444 Y1.3081
G01 X-14.5366 Y1.3023
G01 X-14.5293 Y1.2957
G01 X-14.5227 Y1.2884
G01 X-14.5169 Y1.2806
G01 X-14.5118 Y1.2721
G01 X-14.5076 Y1.2633
G01 X-14.5043 Y1.2540
G01 X-14.5019 Y1.2445
G01 X-14.5005 Y1.2348
G01 X-14.5000 Y1.2250
G00 X-14.5000 Y1.2250
G01 F100.00
G01 Z-2.0000
G01 F100.00
G01 X-14.5005 Y1.2152
G01 X-14.5019 Y1.2055
G01 X-14.5043 Y1.1960
G01 X-14.5076 Y1.1867
G01 X-14.5118 Y1.1779
G01 X-14.5169 Y1.1694
G01 X-14.5227 Y1.1616
G01 X-14.5293 Y1.1543
G01 X-14.5366 Y1.1477
G01 X-14.5444 Y1.1419
G01 X-14.5529 Y1.1368
G01 X-14.5617 Y1.1326
G01 X-14.5710 Y1.1293
G01 X-14.5805 Y1.1269
G01 X-14.5902 Y1.1255
G01 X-14.6000 Y1.1250
G01 X-14.6098 Y1.1255
G01 X-14.6195 Y1.1269
G01 X-14.6290 Y1.1293
G01 X-14.6383 Y1.1326
G01 X-14.6471 Y1.1368
G01 X-14.6556 Y1.1419
G01 X-14.6634 Y1.1477
G01 X-14.6707 Y1.1543
G01 X-14.6773 Y1.1616
G01 X-14.6831 Y1.1694
G01 X-14.6882 Y1.1779
G01 X-14.6924 Y1.1867
G01 X-14.6957 Y1.1960
G01 X-14.6981 Y1.2055
G01 X-14.6995 Y1.2152
G01 X-14.7000 Y1.2250
G01 X-14.6995 Y1.2348
G01 X-14.6981 Y1.2445
G01 X-14.6957 Y1.2540
G01 X-14.6924 Y1.2633
G01 X-14.6882 Y1.2721
G01 X-14.6831 Y1.2806
G01 X-14.6773 Y1.2884
G01 X-14.6707 Y1.2957
G01 X-14.6634 Y1.3023
G01 X-14.6556 Y1.3081
G01 X-14.6471 Y1.3132
G01 X-14.6383 Y1.3174
G01 X-14.6290 Y1.3207
G01 X-14.6195 Y1.3231
G01 X-14.6098 Y1.3245
G01 X-14.6000 Y1.3250
G01 X-14.5902 Y1.3245
G01 X-14.5805 Y1.3231
G01 X-14.5710 Y1.3207
G01 X-14.5617 Y1.3174
G01 X-14.5529 Y1.3132
G01 X-14.5444 Y1.3081
G01 X-14.5366 Y1.3023
G01 X-14.5293 Y1.2957
G01 X-14.5227 Y1.2884
G01 X-14.5169 Y1.2806
G01 X-14.5118 Y1.2721
G01 X-14.5076 Y1.2633
G01 X-14.5043 Y1.2540
G01 X-14.5019 Y1.2445
G01 X-14.5005 Y1.2348
G01 X-14.5000 Y1.2250
G00 X-14.5000 Y1.2250
G01 F100.00
G01 Z-2.4000
G01 F100.00
G01 X-14.5005 Y1.2152
G01 X-14.5019 Y1.2055
G01 X-14.5043 Y1.1960
G01 X-14.5076 Y1.1867
G01 X-14.5118 Y1.1779
G01 X-14.5169 Y1.1694
G01 X-14.5227 Y1.1616
G01 X-14.5293 Y1.1543
G01 X-14.5366 Y1.1477
G01 X-14.5444 Y1.1419
G01 X-14.5529 Y1.1368
G01 X-14.5617 Y1.1326
G01 X-14.5710 Y1.1293
G01 X-14.5805 Y1.1269
G01 X-14.5902 Y1.1255
G01 X-14.6000 Y1.1250
G01 X-14.6098 Y1.1255
G01 X-14.6195 Y1.1269
G01 X-14.6290 Y1.1293
G01 X-14.6383 Y1.1326
G01 X-14.6471 Y1.1368
G01 X-14.6556 Y1.1419
G01 X-14.6634 Y1.1477
G01 X-14.6707 Y1.1543
G01 X-14.6773 Y1.1616
G01 X-14.6831 Y1.1694
G01 X-14.6882 Y1.1779
G01 X-14.6924 Y1.1867
G01 X-14.6957 Y1.1960
G01 X-14.6981 Y1.2055
G01 X-14.6995 Y1.2152
G01 X-14.7000 Y1.2250
G01 X-14.6995 Y1.2348
G01 X-14.6981 Y1.2445
G01 X-14.6957 Y1.2540
G01 X-14.6924 Y1.2633
G01 X-14.6882 Y1.2721
G01 X-14.6831 Y1.2806
G01 X-14.6773 Y1.2884
G01 X-14.6707 Y1.2957
G01 X-14.6634 Y1.3023
G01 X-14.6556 Y1.3081
G01 X-14.6471 Y1.3132
G01 X-14.6383 Y1.3174
G01 X-14.6290 Y1.3207
G01 X-14.6195 Y1.3231
G01 X-14.6098 Y1.3245
G01 X-14.6000 Y1.3250
G01 X-14.5902 Y1.3245
G01 X-14.5805 Y1.3231
G01 X-14.5710 Y1.3207
G01 X-14.5617 Y1.3174
G01 X-14.5529 Y1.3132
G01 X-14.5444 Y1.3081
G01 X-14.5366 Y1.3023
G01 X-14.5293 Y1.2957
G01 X-14.5227 Y1.2884
G01 X-14.5169 Y1.2806
G01 X-14.5118 Y1.2721
G01 X-14.5076 Y1.2633
G01 X-14.5043 Y1.2540
G01 X-14.5019 Y1.2445
G01 X-14.5005 Y1.2348
G01 X-14.5000 Y1.2250
G00 Z2.0000
G00 X-18.4400 Y3.4500
G01 F100.00
G01 Z-1.0000
G01 F100.00
G01 X-18.4405 Y3.4402
G01 X-18.4419 Y3.4305
G01 X-18.4443 Y3.4210
G01 X-18.4476 Y3.4117
G01 X-18.4518 Y3.4029
G01 X-18.4569 Y3.3944
G01 X-18.4627 Y3.3866
G01 X-18.4693 Y3.3793
G01 X-18.4766 Y3.3727
G01 X-18.4844 Y3.3669
G01 X-18.4929 Y3.3618
G01 X-18.5017 Y3.3576
G01 X-18.5110 Y3.3543
G01 X-18.5205 Y3.3519
G01 X-18.5302 Y3.3505
G01 X-18.5400 Y3.3500
G01 X-18.5498 Y3.3505
G01 X-18.5595 Y3.3519
G01 X-18.5690 Y3.3543
G01 X-18.5783 Y3.3576
G01 X-18.5871 Y3.3618
G01 X-18.5956 Y3.3669
G01 X-18.6034 Y3.3727
G01 X-18.6107 Y3.3793
G01 X-18.6173 Y3.3866
G01 X-18.6231 Y3.3944
G01 X-18.6282 Y3.4029
G01 X-18.6324 Y3.4117
G01 X-18.6357 Y3.4210
G01 X-18.6381 Y3.4305
G01 X-18.6395 Y3.4402
G01 X-18.6400 Y3.4500
G01 X-18.6395 Y3.4598
G01 X-18.6381 Y3.4695
G01 X-18.6357 Y3.4790
G01 X-18.6324 Y3.4883
G01 X-18.6282 Y3.4971
G01 X-18.6231 Y3.5056
G01 X-18.6173 Y3.5134
G01 X-18.6107 Y3.5207
G01 X-18.6034 Y3.5273
G01 X-18.5956 Y3.5331
G01 X-18.5871 Y3.5382
G01 X-18.5783 Y3.5424
G01 X-18.5690 Y3.5457
G01 X-18.5595 Y3.5481
G01 X-18.5498 Y3.5495
G01 X-18.5400 Y3.5500
G01 X-18.5302 Y3.5495
G01 X-18.5205 Y3.5481
G01 X-18.5110 Y3.5457
G01 X-18.5017 Y3.5424
G01 X-18.4929 Y3.5382
G01 X-18.4844 Y3.5331
G01 X-18.4766 Y3.5273
G01 X-18.4693 Y3.5207
G01 X-18.4627 Y3.5134
G01 X-18.4569 Y3.5056
G01 X-18.4518 Y3.4971
G01 X-18.4476 Y3.4883
G01 X-18.4443 Y3.4790
G01 X-18.4419 Y3.4695
G01 X-18.4405 Y3.4598
G01 X-18.4400 Y3.4500
G00 X-18.4400 Y3.4500
G01 F100.00
G01 Z-2.0000
G01 F100.00
G01 X-18.4405 Y3.4402
G01 X-18.4419 Y3.4305
G01 X-18.4443 Y3.4210
G01 X-18.4476 Y3.4117
G01 X-18.4518 Y3.4029
G01 X-18.4569 Y3.3944
G01 X-18.4627 Y3.3866
G01 X-18.4693 Y3.3793
G01 X-18.4766 Y3.3727
G01 X-18.4844 Y3.3669
G01 X-18.4929 Y3.3618
G01 X-18.5017 Y3.3576
G01 X-18.5110 Y3.3543
G01 X-18.5205 Y3.3519
G01 X-18.5302 Y3.3505
G01 X-18.5400 Y3.3500
G01 X-18.5498 Y3.3505
G01 X-18.5595 Y3.3519
G01 X-18.5690 Y3.3543
G01 X-18.5783 Y3.3576
G01 X-18.5871 Y3.3618
G01 X-18.5956 Y3.3669
G01 X-18.6034 Y3.3727
G01 X-18.6107 Y3.3793
G01 X-18.6173 Y3.3866
G01 X-18.6231 Y3.3944
G01 X-18.6282 Y3.4029
G01 X-18.6324 Y3.4117
G01 X-18.6357 Y3.4210
G01 X-18.6381 Y3.4305
G01 X-18.6395 Y3.4402
G01 X-18.6400 Y3.4500
G01 X-18.6395 Y3.4598
G01 X-18.6381 Y3.4695
G01 X-18.6357 Y3.4790
G01 X-18.6324 Y3.4883
G01 X-18.6282 Y3.4971
G01 X-18.6231 Y3.5056
G01 X-18.6173 Y3.5134
G01 X-18.6107 Y3.5207
G01 X-18.6034 Y3.5273
G01 X-18.5956 Y3.5331
G01 X-18.5871 Y3.5382
G01 X-18.5783 Y3.5424
G01 X-18.5690 Y3.5457
G01 X-18.5595 Y3.5481
G01 X-18.5498 Y3.5495
G01 X-18.5400 Y3.5500
G01 X-18.5302 Y3.5495
G01 X-18.5205 Y3.5481
G01 X-18.5110 Y3.5457
G01 X-18.5017 Y3.5424
G01 X-18.4929 Y3.5382
G01 X-18.4844 Y3.5331
G01 X-18.4766 Y3.5273
G01 X-18.4693 Y3.5207
G01 X-18.4627 Y3.5134
G01 X-18.4569 Y3.5056
G01 X-18.4518 Y3.4971
G01 X-18.4476 Y3.4883
G01 X-18.4443 Y3.4790
G01 X-18.4419 Y3.4695
G01 X-18.4405 Y3.4598
G01 X-18.4400 Y3.4500
G00 X-18.4400 Y3.4500
G01 F100.00
G01 Z-2.4000
G01 F100.00
G01 X-18.4405 Y3.4402
G01 X-18.4419 Y3.4305
G01 X-18.4443 Y3.4210
G01 X-18.4476 Y3.4117
G01 X-18.4518 Y3.4029
G01 X-18.4569 Y3.3944
G01 X-18.4627 Y3.3866
G01 X-18.4693 Y3.3793
G01 X-18.4766 Y3.3727
G01 X-18.4844 Y3.3669
G01 X-18.4929 Y3.3618
G01 X-18.5017 Y3.3576
G01 X-18.5110 Y3.3543
G01 X-18.5205 Y3.3519
G01 X-18.5302 Y3.3505
G01 X-18.5400 Y3.3500
G01 X-18.5498 Y3.3505
G01 X-18.5595 Y3.3519
G01 X-18.5690 Y3.3543
G01 X-18.5783 Y3.3576
G01 X-18.5871 Y3.3618
G01 X-18.5956 Y3.3669
G01 X-18.6034 Y3.3727
G01 X-18.6107 Y3.3793
G01 X-18.6173 Y3.3866
G01 X-18.6231 Y3.3944
G01 X-18.6282 Y3.4029
G01 X-18.6324 Y3.4117
G01 X-18.6357 Y3.4210
G01 X-18.6381 Y3.4305
G01 X-18.6395 Y3.4402
G01 X-18.6400 Y3.4500
G01 X-18.6395 Y3.4598
G01 X-18.6381 Y3.4695
G01 X-18.6357 Y3.4790
G01 X-18.6324 Y3.4883
G01 X-18.6282 Y3.4971
G01 X-18.6231 Y3.5056
G01 X-18.6173 Y3.5134
G01 X-18.6107 Y3.5207
G01 X-18.6034 Y3.5273
G01 X-18.5956 Y3.5331
G01 X-18.5871 Y3.5382
G01 X-18.5783 Y3.5424
G01 X-18.5690 Y3.5457
G01 X-18.5595 Y3.5481
G01 X-18.5498 Y3.5495
G01 X-18.5400 Y3.5500
G01 X-18.5302 Y3.5495
G01 X-18.5205 Y3.5481
G01 X-18.5110 Y3.5457
G01 X-18.5017 Y3.5424
G01 X-18.4929 Y3.5382
G01 X-18.4844 Y3.5331
G01 X-18.4766 Y3.5273
G01 X-18.4693 Y3.5207
G01 X-18.4627 Y3.5134
G01 X-18.4569 Y3.5056
G01 X-18.4518 Y3.4971
G01 X-18.4476 Y3.4883
G01 X-18.4443 Y3.4790
G01 X-18.4419 Y3.4695
G01 X-18.4405 Y3.4598
G01 X-18.4400 Y3.4500
G00 Z2.0000
G00 X-20.9800 Y3.4500
G01 F100.00
G01 Z-1.0000
G01 F100.00
G01 X-20.9805 Y3.4402
G01 X-20.9819 Y3.4305
G01 X-20.9843 Y3.4210
G01 X-20.9876 Y3.4117
G01 X-20.9918 Y3.4029
G01 X-20.9969 Y3.3944
G01 X-21.0027 Y3.3866
G01 X-21.0093 Y3.3793
G01 X-21.0166 Y3.3727
G01 X-21.0244 Y3.3669
G01 X-21.0329 Y3.3618
G01 X-21.0417 Y3.3576
G01 X-21.0510 Y3.3543
G01 X-21.0605 Y3.3519
G01 X-21.0702 Y3.3505
G01 X-21.0800 Y3.3500
G01 X-21.0898 Y3.3505
G01 X-21.0995 Y3.3519
G01 X-21.1090 Y3.3543
G01 X-21.1183 Y3.3576
G01 X-21.1271 Y3.3618
G01 X-21.1356 Y3.3669
G01 X-21.1434 Y3.3727
G01 X-21.1507 Y3.3793
G01 X-21.1573 Y3.3866
G01 X-21.1631 Y3.3944
G01 X-21.1682 Y3.4029
G01 X-21.1724 Y3.4117
G01 X-21.1757 Y3.4210
G01 X-21.1781 Y3.4305
G01 X-21.1795 Y3.4402
G01 X-21.1800 Y3.4500
G01 X-21.1795 Y3.4598
G01 X-21.1781 Y3.4695
G01 X-21.1757 Y3.4790
G01 X-21.1724 Y3.4883
G01 X-21.1682 Y3.4971
G01 X-21.1631 Y3.5056
G01 X-21.1573 Y3.5134
G01 X-21.1507 Y3.5207
G01 X-21.1434 Y3.5273
G01 X-21.1356 Y3.5331
G01 X-21.1271 Y3.5382
G01 X-21.1183 Y3.5424
G01 X-21.1090 Y3.5457
G01 X-21.0995 Y3.5481
G01 X-21.0898 Y3.5495
G01 X-21.0800 Y3.5500
G01 X-21.0702 Y3.5495
G01 X-21.0605 Y3.5481
G01 X-21.0510 Y3.5457
G01 X-21.0417 Y3.5424
G01 X-21.0329 Y3.5382
G01 X-21.0244 Y3.5331
G01 X-21.0166 Y3.5273
G01 X-21.0093 Y3.5207
G01 X-21.0027 Y3.5134
G01 X-20.9969 Y3.5056
G01 X-20.9918 Y3.4971
G01 X-20.9876 Y3.4883
G01 X-20.9843 Y3.4790
G01 X-20.9819 Y3.4695
G01 X-20.9805 Y3.4598
G01 X-20.9800 Y3.4500
G00 X-20.9800 Y3.4500
G01 F100.00
G01 Z-2.0000
G01 F100.00
G01 X-20.9805 Y3.4402
G01 X-20.9819 Y3.4305
G01 X-20.9843 Y3.4210
G01 X-20.9876 Y3.4117
G01 X-20.9918 Y3.4029
G01 X-20.9969 Y3.3944
G01 X-21.0027 Y3.3866
G01 X-21.0093 Y3.3793
G01 X-21.0166 Y3.3727
G01 X-21.0244 Y3.3669
G01 X-21.0329 Y3.3618
G01 X-21.0417 Y3.3576
G01 X-21.0510 Y3.3543
G01 X-21.0605 Y3.3519
G01 X-21.0702 Y3.3505
G01 X-21.0800 Y3.3500
G01 X-21.0898 Y3.3505
G01 X-21.0995 Y3.3519
G01 X-21.1090 Y3.3543
G01 X-21.1183 Y3.3576
G01 X-21.1271 Y3.3618
G01 X-21.1356 Y3.3669
G01 X-21.1434 Y3.3727
G01 X-21.1507 Y3.3793
G01 X-21.1573 Y3.3866
G01 X-21.1631 Y3.3944
G01 X-21.1682 Y3.4029
G01 X-21.1724 Y3.4117
G01 X-21.1757 Y3.4210
G01 X-21.1781 Y3.4305
G01 X-21.1795 Y3.4402
G01 X-21.1800 Y3.4500
G01 X-21.1795 Y3.4598
G01 X-21.1781 Y3.4695
G01 X-21.1757 Y3.4790
G01 X-21.1724 Y3.4883
G01 X-21.1682 Y3.4971
G01 X-21.1631 Y3.5056
G01 X-21.1573 Y3.5134
G01 X-21.1507 Y3.5207
G01 X-21.1434 Y3.5273
G01 X-21.1356 Y3.5331
G01 X-21.1271 Y3.5382
G01 X-21.1183 Y3.5424
G01 X-21.1090 Y3.5457
G01 X-21.0995 Y3.5481
G01 X-21.0898 Y3.5495
G01 X-21.0800 Y3.5500
G01 X-21.0702 Y3.5495
G01 X-21.0605 Y3.5481
G01 X-21.0510 Y3.5457
G01 X-21.0417 Y3.5424
G01 X-21.0329 Y3.5382
G01 X-21.0244 Y3.5331
G01 X-21.0166 Y3.5273
G01 X-21.0093 Y3.5207
G01 X-21.0027 Y3.5134
G01 X-20.9969 Y3.5056
G01 X-20.9918 Y3.4971
G01 X-20.9876 Y3.4883
G01 X-20.9843 Y3.4790
G01 X-20.9819 Y3.4695
G01 X-20.9805 Y3.4598
G01 X-20.9800 Y3.4500
G00 X-20.9800 Y3.4500
G01 F100.00
G01 Z-2.4000
G01 F100.00
G01 X-20.9805 Y3.4402
G01 X-20.9819 Y3.4305
G01 X-20.9843 Y3.4210
G01 X-20.9876 Y3.4117
G01 X-20.9918 Y3.4029
G01 X-20.9969 Y3.3944
G01 X-21.0027 Y3.3866
G01 X-21.0093 Y3.3793
G01 X-21.0166 Y3.3727
G01 X-21.0244 Y3.3669
G01 X-21.0329 Y3.3618
G01 X-21.0417 Y3.3576
G01 X-21.0510 Y3.3543
G01 X-21.0605 Y3.3519
G01 X-21.0702 Y3.3505
G01 X-21.0800 Y3.3500
G01 X-21.0898 Y3.3505
G01 X-21.0995 Y3.3519
G01 X-21.1090 Y3.3543
G01 X-21.1183 Y3.3576
G01 X-21.1271 Y3.3618
G01 X-21.1356 Y3.3669
G01 X-21.1434 Y3.3727
G01 X-21.1507 Y3.3793
G01 X-21.1573 Y3.3866
G01 X-21.1631 Y3.3944
G01 X-21.1682 Y3.4029
G01 X-21.1724 Y3.4117
G01 X-21.1757 Y3.4210
G01 X-21.1781 Y3.4305
G01 X-21.1795 Y3.4402
G01 X-21.1800 Y3.4500
G01 X-21.1795 Y3.4598
G01 X-21.1781 Y3.4695
G01 X-21.1757 Y3.4790
G01 X-21.1724 Y3.4883
G01 X-21.1682 Y3.4971
G01 X-21.1631 Y3.5056
G01 X-21.1573 Y3.5134
G01 X-21.1507 Y3.5207
G01 X-21.1434 Y3.5273
G01 X-21.1356 Y3.5331
G01 X-21.1271 Y3.5382
G01 X-21.1183 Y3.5424
G01 X-21.1090 Y3.5457
G01 X-21.0995 Y3.5481
G01 X-21.0898 Y3.5495
G01 X-21.0800 Y3.5500
G01 X-21.0702 Y3.5495
G01 X-21.0605 Y3.5481
G01 X-21.0510 Y3.5457
G01 X-21.0417 Y3.5424
G01 X-21.0329 Y3.5382
G01 X-21.0244 Y3.5331
G01 X-21.0166 Y3.5273
G01 X-21.0093 Y3.5207
G01 X-21.0027 Y3.5134
G01 X-20.9969 Y3.5056
G01 X-20.9918 Y3.4971
G01 X-20.9876 Y3.4883
G01 X-20.9843 Y3.4790
G01 X-20.9819 Y3.4695
G01 X-20.9805 Y3.4598
G01 X-20.9800 Y3.4500
G00 Z2.0000
G00 X-25.5260 Y-7.1760
G01 F100.00
G01 Z-1.0000
G01 F100.00
G01 X-25.5270 Y-7.1858
G01 X-25.5298 Y-7.1951
G01 X-25.5344 Y-7.2038
G01 X-25.5406 Y-7.2114
G01 X-25.5482 Y-7.2176
G01 X-25.5569 Y-7.2222
G01 X-25.5662 Y-7.2250
G01 X-25.5760 Y-7.2260
G01 X-25.5858 Y-7.2250
G01 X-25.5951 Y-7.2222
G01 X-25.6038 Y-7.2176
G01 X-25.6114 Y-7.2114
G01 X-25.6176 Y-7.2038
G01 X-25.6222 Y-7.1951
G01 X-25.6250 Y-7.1858
G01 X-25.6260 Y-7.1760
G01 X-25.6250 Y-7.1662
G01 X-25.6222 Y-7.1569
G01 X-25.6176 Y-7.1482
G01 X-25.6114 Y-7.1406
G01 X-25.6038 Y-7.1344
G01 X-25.5951 Y-7.1298
G01 X-25.5858 Y-7.1270
G01 X-25.5760 Y-7.1260
G01 X-25.5662 Y-7.1270
G01 X-25.5569 Y-7.1298
G01 X-25.5482 Y-7.1344
G01 X-25.5406 Y-7.1406
G01 X-25.5344 Y-7.1482
G01 X-25.5298 Y-7.1569
G01 X-25.5270 Y-7.1662
G01 X-25.5260 Y-7.1760
G00 X-25.5260 Y-7.1760
G01 F100.00
G01 Z-2.0000
G01 F100.00
G01 X-25.5270 Y-7.1858
G01 X-25.5298 Y-7.1951
G01 X-25.5344 Y-7.2038
G01 X-25.5406 Y-7.2114
G01 X-25.5482 Y-7.2176
G01 X-25.5569 Y-7.2222
G01 X-25.5662 Y-7.2250
G01 X-25.5760 Y-7.2260
G01 X-25.5858 Y-7.2250
G01 X-25.5951 Y-7.2222
G01 X-25.6038 Y-7.2176
G01 X-25.6114 Y-7.2114
G01 X-25.6176 Y-7.2038
G01 X-25.6222 Y-7.1951
G01 X-25.6250 Y-7.1858
G01 X-25.6260 Y-7.1760
G01 X-25.6250 Y-7.1662
G01 X-25.6222 Y-7.1569
G01 X-25.6176 Y-7.1482
G01 X-25.6114 Y-7.1406
G01 X-25.6038 Y-7.1344
G01 X-25.5951 Y-7.1298
G01 X-25.5858 Y-7.1270
G01 X-25.5760 Y-7.1260
G01 X-25.5662 Y-7.1270
G01 X-25.5569 Y-7.1298
G01 X-25.5482 Y-7.1344
G01 X-25.5406 Y-7.1406
G01 X-25.5344 Y-7.1482
G01 X-25.5298 Y-7.1569
G01 X-25.5270 Y-7.1662
G01 X-25.5260 Y-7.1760
G00 X-25.5260 Y-7.1760
G01 F100.00
G01 Z-2.4000
G01 F100.00
G01 X-25.5270 Y-7.1858
G01 X-25.5298 Y-7.1951
G01 X-25.5344 Y-7.2038
G01 X-25.5406 Y-7.2114
G01 X-25.5482 Y-7.2176
G01 X-25.5569 Y-7.2222
G01 X-25.5662 Y-7.2250
G01 X-25.5760 Y-7.2260
G01 X-25.5858 Y-7.2250
G01 X-25.5951 Y-7.2222
G01 X-25.6038 Y-7.2176
G01 X-25.6114 Y-7.2114
G01 X-25.6176 Y-7.2038
G01 X-25.6222 Y-7.1951
G01 X-25.6250 Y-7.1858
G01 X-25.6260 Y-7.1760
G01 X-25.6250 Y-7.1662
G01 X-25.6222 Y-7.1569
G01 X-25.6176 Y-7.1482
G01 X-25.6114 Y-7.1406
G01 X-25.6038 Y-7.1344
G01 X-25.5951 Y-7.1298
G01 X-25.5858 Y-7.1270
G01 X-25.5760 Y-7.1260
G01 X-25.5662 Y-7.1270
G01 X-25.5569 Y-7.1298
G01 X-25.5482 Y-7.1344
G01 X-25.5406 Y-7.1406
G01 X-25.5344 Y-7.1482
G01 X-25.5298 Y-7.1569
G01 X-25.5270 Y-7.1662
G01 X-25.5260 Y-7.1760
G00 Z2.0000
G00 X-27.4500 Y-10.9000
G01 F100.00
G01 Z-1.0000
G01 F100.00
G01 X-27.4510 Y-10.9098
G01 X-27.4538 Y-10.9191
G01 X-27.4584 Y-10.9278
G01 X-27.4646 Y-10.9354
G01 X-27.4722 Y-10.9416
G01 X-27.4809 Y-10.9462
G01 X-27.4902 Y-10.9490
G01 X-27.5000 Y-10.9500
G01 X-27.5098 Y-10.9490
G01 X-27.5191 Y-10.9462
G01 X-27.5278 Y-10.9416
G01 X-27.5354 Y-10.9354
G01 X-27.5416 Y-10.9278
G01 X-27.5462 Y-10.9191
G01 X-27.5490 Y-10.9098
G01 X-27.5500 Y-10.9000
G01 X-27.5490 Y-10.8902
G01 X-27.5462 Y-10.8809
G01 X-27.5416 Y-10.8722
G01 X-27.5354 Y-10.8646
G01 X-27.5278 Y-10.8584
G01 X-27.5191 Y-10.8538
G01 X-27.5098 Y-10.8510
G01 X-27.5000 Y-10.8500
G01 X-27.4902 Y-10.8510
G01 X-27.4809 Y-10.8538
G01 X-27.4722 Y-10.8584
G01 X-27.4646 Y-10.8646
G01 X-27.4584 Y-10.8722
G01 X-27.4538 Y-10.8809
G01 X-27.4510 Y-10.8902
G01 X-27.4500 Y-10.9000
G00 X-27.4500 Y-10.9000
G01 F100.00
G01 Z-2.0000
G01 F100.00
G01 X-27.4510 Y-10.9098
G01 X-27.4538 Y-10.9191
G01 X-27.4584 Y-10.9278
G01 X-27.4646 Y-10.9354
G01 X-27.4722 Y-10.9416
G01 X-27.4809 Y-10.9462
G01 X-27.4902 Y-10.9490
G01 X-27.5000 Y-10.9500
G01 X-27.5098 Y-10.9490
G01 X-27.5191 Y-10.9462
G01 X-27.5278 Y-10.9416
G01 X-27.5354 Y-10.9354
G01 X-27.5416 Y-10.9278
G01 X-27.5462 Y-10.9191
G01 X-27.5490 Y-10.9098
G01 X-27.5500 Y-10.9000
G01 X-27.5490 Y-10.8902
G01 X-27.5462 Y-10.8809
G01 X-27.5416 Y-10.8722
G01 X-27.5354 Y-10.8646
G01 X-27.5278 Y-10.8584
G01 X-27.5191 Y-10.8538
G01 X-27.5098 Y-10.8510
G01 X-27.5000 Y-10.8500
G01 X-27.4902 Y-10.8510
G01 X-27.4809 Y-10.8538
G01 X-27.4722 Y-10.8584
G01 X-27.4646 Y-10.8646
G01 X-27.4584 Y-10.8722
G01 X-27.4538 Y-10.8809
G01 X-27.4510 Y-10.8902
G01 X-27.4500 Y-10.9000
G00 X-27.4500 Y-10.9000
G01 F100.00
G01 Z-2.4000
G01 F100.00
G01 X-27.4510 Y-10.9098
G01 X-27.4538 Y-10.9191
G01 X-27.4584 Y-10.9278
G01 X-27.4646 Y-10.9354
G01 X-27.4722 Y-10.9416
G01 X-27.4809 Y-10.9462
G01 X-27.4902 Y-10.9490
G01 X-27.5000 Y-10.9500
G01 X-27.5098 Y-10.9490
G01 X-27.5191 Y-10.9462
G01 X-27.5278 Y-10.9416
G01 X-27.5354 Y-10.9354
G01 X-27.5416 Y-10.9278
G01 X-27.5462 Y-10.9191
G01 X-27.5490 Y-10.9098
G01 X-27.5500 Y-10.9000
G01 X-27.5490 Y-10.8902
G01 X-27.5462 Y-10.8809
G01 X-27.5416 Y-10.8722
G01 X-27.5354 Y-10.8646
G01 X-27.5278 Y-10.8584
G01 X-27.5191 Y-10.8538
G01 X-27.5098 Y-10.8510
G01 X-27.5000 Y-10.8500
G01 X-27.4902 Y-10.8510
G01 X-27.4809 Y-10.8538
G01 X-27.4722 Y-10.8584
G01 X-27.4646 Y-10.8646
G01 X-27.4584 Y-10.8722
G01 X-27.4538 Y-10.8809
G01 X-27.4510 Y-10.8902
G01 X-27.4500 Y-10.9000
G00 Z2.0000
G00 X-23.3500 Y-12.7600
G01 F100.00
G01 Z-1.0000
G01 F100.00
G01 X-23.3510 Y-12.7698
G01 X-23.3538 Y-12.7791
G01 X-23.3584 Y-12.7878
G01 X-23.3646 Y-12.7954
G01 X-23.3722 Y-12.8016
G01 X-23.3809 Y-12.8062
G01 X-23.3902 Y-12.8090
G01 X-23.4000 Y-12.8100
G01 X-23.4098 Y-12.8090
G01 X-23.4191 Y-12.8062
G01 X-23.4278 Y-12.8016
G01 X-23.4354 Y-12.7954
G01 X-23.4416 Y-12.7878
G01 X-23.4462 Y-12.7791
G01 X-23.4490 Y-12.7698
G01 X-23.4500 Y-12.7600
G01 X-23.4490 Y-12.7502
G01 X-23.4462 Y-12.7409
G01 X-23.4416 Y-12.7322
G01 X-23.4354 Y-12.7246
G01 X-23.4278 Y-12.7184
G01 X-23.4191 Y-12.7138
G01 X-23.4098 Y-12.7110
G01 X-23.4000 Y-12.7100
G01 X-23.3902 Y-12.7110
G01 X-23.3809 Y-12.7138
G01 X-23.3722 Y-12.7184
G01 X-23.3646 Y-12.7246
G01 X-23.3584 Y-12.7322
G01 X-23.3538 Y-12.7409
G01 X-23.3510 Y-12.7502
G01 X-23.3500 Y-12.7600
G00 X-23.3500 Y-12.7600
G01 F100.00
G01 Z-2.0000
G01 F100.00
G01 X-23.3510 Y-12.7698
G01 X-23.3538 Y-12.7791
G01 X-23.3584 Y-12.7878
G01 X-23.3646 Y-12.7954
G01 X-23.3722 Y-12.8016
G01 X-23.3809 Y-12.8062
G01 X-23.3902 Y-12.8090
G01 X-23.4000 Y-12.8100
G01 X-23.4098 Y-12.8090
G01 X-23.4191 Y-12.8062
G01 X-23.4278 Y-12.8016
G01 X-23.4354 Y-12.7954
G01 X-23.4416 Y-12.7878
G01 X-23.4462 Y-12.7791
G01 X-23.4490 Y-12.7698
G01 X-23.4500 Y-12.7600
G01 X-23.4490 Y-12.7502
G01 X-23.4462 Y-12.7409
G01 X-23.4416 Y-12.7322
G01 X-23.4354 Y-12.7246
G01 X-23.4278 Y-12.7184
G01 X-23.4191 Y-12.7138
G01 X-23.4098 Y-12.7110
G01 X-23.4000 Y-12.7100
G01 X-23.3902 Y-12.7110
G01 X-23.3809 Y-12.7138
G01 X-23.3722 Y-12.7184
G01 X-23.3646 Y-12.7246
G01 X-23.3584 Y-12.7322
G01 X-23.3538 Y-12.7409
G01 X-23.3510 Y-12.7502
G01 X-23.3500 Y-12.7600
G00 X-23.3500 Y-12.7600
G01 F100.00
G01 Z-2.4000
G01 F100.00
G01 X-23.3510 Y-12.7698
G01 X-23.3538 Y-12.7791
G01 X-23.3584 Y-12.7878
G01 X-23.3646 Y-12.7954
G01 X-23.3722 Y-12.8016
G01 X-23.3809 Y-12.8062
G01 X-23.3902 Y-12.8090
G01 X-23.4000 Y-12.8100
G01 X-23.4098 Y-12.8090
G01 X-23.4191 Y-12.8062
G01 X-23.4278 Y-12.8016
G01 X-23.4354 Y-12.7954
G01 X-23.4416 Y-12.7878
G01 X-23.4462 Y-12.7791
G01 X-23.4490 Y-12.7698
G01 X-23.4500 Y-12.7600
G01 X-23.4490 Y-12.7502
G01 X-23.4462 Y-12.7409
G01 X-23.4416 Y-12.7322
G01 X-23.4354 Y-12.7246
G01 X-23.4278 Y-12.7184
G01 X-23.4191 Y-12.7138
G01 X-23.4098 Y-12.7110
G01 X-23.4000 Y-12.7100
G01 X-23.3902 Y-12.7110
G01 X-23.3809 Y-12.7138
G01 X-23.3722 Y-12.7184
G01 X-23.3646 Y-12.7246
G01 X-23.3584 Y-12.7322
G01 X-23.3538 Y-12.7409
G01 X-23.3510 Y-12.7502
G01 X-23.3500 Y-12.7600
G00 Z2.0000
G00 X-20.8100 Y-12.7600
G01 F100.00
G01 Z-1.0000
G01 F100.00
G01 X-20.8110 Y-12.7698
G01 X-20.8138 Y-12.7791
G01 X-20.8184 Y-12.7878
G01 X-20.8246 Y-12.7954
G01 X-20.8322 Y-12.8016
G01 X-20.8409 Y-12.8062
G01 X-20.8502 Y-12.8090
G01 X-20.8600 Y-12.8100
G01 X-20.8698 Y-12.8090
G01 X-20.8791 Y-12.8062
G01 X-20.8878 Y-12.8016
G01 X-20.8954 Y-12.7954
G01 X-20.9016 Y-12.7878
G01 X-20.9062 Y-12.7791
G01 X-20.9090 Y-12.7698
G01 X-20.9100 Y-12.7600
G01 X-20.9090 Y-12.7502
G01 X-20.9062 Y-12.7409
G01 X-20.9016 Y-12.7322
G01 X-20.8954 Y-12.7246
G01 X-20.8878 Y-12.7184
G01 X-20.8791 Y-12.7138
G01 X-20.8698 Y-12.7110
G01 X-20.8600 Y-12.7100
G01 X-20.8502 Y-12.7110
G01 X-20.8409 Y-12.7138
G01 X-20.8322 Y-12.7184
G01 X-20.8246 Y-12.7246
G01 X-20.8184 Y-12.7322
G01 X-20.8138 Y-12.7409
G01 X-20.8110 Y-12.7502
G01 X-20.8100 Y-12.7600
G00 X-20.8100 Y-12.7600
G01 F100.00
G01 Z-2.0000
G01 F100.00
G01 X-20.8110 Y-12.7698
G01 X-20.8138 Y-12.7791
G01 X-20.8184 Y-12.7878
G01 X-20.8246 Y-12.7954
G01 X-20.8322 Y-12.8016
G01 X-20.8409 Y-12.8062
G01 X-20.8502 Y-12.8090
G01 X-20.8600 Y-12.8100
G01 X-20.8698 Y-12.8090
G01 X-20.8791 Y-12.8062
G01 X-20.8878 Y-12.8016
G01 X-20.8954 Y-12.7954
G01 X-20.9016 Y-12.7878
G01 X-20.9062 Y-12.7791
G01 X-20.9090 Y-12.7698
G01 X-20.9100 Y-12.7600
G01 X-20.9090 Y-12.7502
G01 X-20.9062 Y-12.7409
G01 X-20.9016 Y-12.7322
G01 X-20.8954 Y-12.7246
G01 X-20.8878 Y-12.7184
G01 X-20.8791 Y-12.7138
G01 X-20.8698 Y-12.7110
G01 X-20.8600 Y-12.7100
G01 X-20.8502 Y-12.7110
G01 X-20.8409 Y-12.7138
G01 X-20.8322 Y-12.7184
G01 X-20.8246 Y-12.7246
G01 X-20.8184 Y-12.7322
G01 X-20.8138 Y-12.7409
G01 X-20.8110 Y-12.7502
G01 X-20.8100 Y-12.7600
G00 X-20.8100 Y-12.7600
G01 F100.00
G01 Z-2.4000
G01 F100.00
G01 X-20.8110 Y-12.7698
G01 X-20.8138 Y-12.7791
G01 X-20.8184 Y-12.7878
G01 X-20.8246 Y-12.7954
G01 X-20.8322 Y-12.8016
G01 X-20.8409 Y-12.8062
G01 X-20.8502 Y-12.8090
G01 X-20.8600 Y-12.8100
G01 X-20.8698 Y-12.8090
G01 X-20.8791 Y-12.8062
G01 X-20.8878 Y-12.8016
G01 X-20.8954 Y-12.7954
G01 X-20.9016 Y-12.7878
G01 X-20.9062 Y-12.7791
G01 X-20.9090 Y-12.7698
G01 X-20.9100 Y-12.7600
G01 X-20.9090 Y-12.7502
G01 X-20.9062 Y-12.7409
G01 X-20.9016 Y-12.7322
G01 X-20.8954 Y-12.7246
G01 X-20.8878 Y-12.7184
G01 X-20.8791 Y-12.7138
G01 X-20.8698 Y-12.7110
G01 X-20.8600 Y-12.7100
G01 X-20.8502 Y-12.7110
G01 X-20.8409 Y-12.7138
G01 X-20.8322 Y-12.7184
G01 X-20.8246 Y-12.7246
G01 X-20.8184 Y-12.7322
G01 X-20.8138 Y-12.7409
G01 X-20.8110 Y-12.7502
G01 X-20.8100 Y-12.7600
G00 Z2.0000
G00 X-20.8100 Y-15.3000
G01 F100.00
G01 Z-1.0000
G01 F100.00
G01 X-20.8110 Y-15.3098
G01 X-20.8138 Y-15.3191
G01 X-20.8184 Y-15.3278
G01 X-20.8246 Y-15.3354
G01 X-20.8322 Y-15.3416
G01 X-20.8409 Y-15.3462
G01 X-20.8502 Y-15.3490
G01 X-20.8600 Y-15.3500
G01 X-20.8698 Y-15.3490
G01 X-20.8791 Y-15.3462
G01 X-20.8878 Y-15.3416
G01 X-20.8954 Y-15.3354
G01 X-20.9016 Y-15.3278
G01 X-20.9062 Y-15.3191
G01 X-20.9090 Y-15.3098
G01 X-20.9100 Y-15.3000
G01 X-20.9090 Y-15.2902
G01 X-20.9062 Y-15.2809
G01 X-20.9016 Y-15.2722
G01 X-20.8954 Y-15.2646
G01 X-20.8878 Y-15.2584
G01 X-20.8791 Y-15.2538
G01 X-20.8698 Y-15.2510
G01 X-20.8600 Y-15.2500
G01 X-20.8502 Y-15.2510
G01 X-20.8409 Y-15.2538
G01 X-20.8322 Y-15.2584
G01 X-20.8246 Y-15.2646
G01 X-20.8184 Y-15.2722
G01 X-20.8138 Y-15.2809
G01 X-20.8110 Y-15.2902
G01 X-20.8100 Y-15.3000
G00 X-20.8100 Y-15.3000
G01 F100.00
G01 Z-2.0000
G01 F100.00
G01 X-20.8110 Y-15.3098
G01 X-20.8138 Y-15.3191
G01 X-20.8184 Y-15.3278
G01 X-20.8246 Y-15.3354
G01 X-20.8322 Y-15.3416
G01 X-20.8409 Y-15.3462
G01 X-20.8502 Y-15.3490
G01 X-20.8600 Y-15.3500
G01 X-20.8698 Y-15.3490
G01 X-20.8791 Y-15.3462
G01 X-20.8878 Y-15.3416
G01 X-20.8954 Y-15.3354
G01 X-20.9016 Y-15.3278
G01 X-20.9062 Y-15.3191
G01 X-20.9090 Y-15.3098
G01 X-20.9100 Y-15.3000
G01 X-20.9090 Y-15.2902
G01 X-20.9062 Y-15.2809
G01 X-20.9016 Y-15.2722
G01 X-20.8954 Y-15.2646
G01 X-20.8878 Y-15.2584
G01 X-20.8791 Y-15.2538
G01 X-20.8698 Y-15.2510
G01 X-20.8600 Y-15.2500
G01 X-20.8502 Y-15.2510
G01 X-20.8409 Y-15.2538
G01 X-20.8322 Y-15.2584
G01 X-20.8246 Y-15.2646
G01 X-20.8184 Y-15.2722
G01 X-20.8138 Y-15.2809
G01 X-20.8110 Y-15.2902
G01 X-20.8100 Y-15.3000
G00 X-20.8100 Y-15.3000
G01 F100.00
G01 Z-2.4000
G01 F100.00
G01 X-20.8110 Y-15.3098
G01 X-20.8138 Y-15.3191
G01 X-20.8184 Y-15.3278
G01 X-20.8246 Y-15.3354
G01 X-20.8322 Y-15.3416
G01 X-20.8409 Y-15.3462
G01 X-20.8502 Y-15.3490
G01 X-20.8600 Y-15.3500
G01 X-20.8698 Y-15.3490
G01 X-20.8791 Y-15.3462
G01 X-20.8878 Y-15.3416
G01 X-20.8954 Y-15.3354
G01 X-20.9016 Y-15.3278
G01 X-20.9062 Y-15.3191
G01 X-20.9090 Y-15.3098
G01 X-20.9100 Y-15.3000
G01 X-20.9090 Y-15.2902
G01 X-20.9062 Y-15.2809
G01 X-20.9016 Y-15.2722
G01 X-20.8954 Y-15.2646
G01 X-20.8878 Y-15.2584
G01 X-20.8791 Y-15.2538
G01 X-20.8698 Y-15.2510
G01 X-20.8600 Y-15.2500
G01 X-20.8502 Y-15.2510
G01 X-20.8409 Y-15.2538
G01 X-20.8322 Y-15.2584
G01 X-20.8246 Y-15.2646
G01 X-20.8184 Y-15.2722
G01 X-20.8138 Y-15.2809
G01 X-20.8110 Y-15.2902
G01 X-20.8100 Y-15.3000
G00 Z2.0000
G00 X-23.3500 Y-15.3000
G01 F100.00
G01 Z-1.0000
G01 F100.00
G01 X-23.3510 Y-15.3098
G01 X-23.3538 Y-15.3191
G01 X-23.3584 Y-15.3278
G01 X-23.3646 Y-15.3354
G01 X-23.3722 Y-15.3416
G01 X-23.3809 Y-15.3462
G01 X-23.3902 Y-15.3490
G01 X-23.4000 Y-15.3500
G01 X-23.4098 Y-15.3490
G01 X-23.4191 Y-15.3462
G01 X-23.4278 Y-15.3416
G01 X-23.4354 Y-15.3354
G01 X-23.4416 Y-15.3278
G01 X-23.4462 Y-15.3191
G01 X-23.4490 Y-15.3098
G01 X-23.4500 Y-15.3000
G01 X-23.4490 Y-15.2902
G01 X-23.4462 Y-15.2809
G01 X-23.4416 Y-15.2722
G01 X-23.4354 Y-15.2646
G01 X-23.4278 Y-15.2584
G01 X-23.4191 Y-15.2538
G01 X-23.4098 Y-15.2510
G01 X-23.4000 Y-15.2500
G01 X-23.3902 Y-15.2510
G01 X-23.3809 Y-15.2538
G01 X-23.3722 Y-15.2584
G01 X-23.3646 Y-15.2646
G01 X-23.3584 Y-15.2722
G01 X-23.3538 Y-15.2809
G01 X-23.3510 Y-15.2902
G01 X-23.3500 Y-15.3000
G00 X-23.3500 Y-15.3000
G01 F100.00
G01 Z-2.0000
G01 F100.00
G01 X-23.3510 Y-15.3098
G01 X-23.3538 Y-15.3191
G01 X-23.3584 Y-15.3278
G01 X-23.3646 Y-15.3354
G01 X-23.3722 Y-15.3416
G01 X-23.3809 Y-15.3462
G01 X-23.3902 Y-15.3490
G01 X-23.4000 Y-15.3500
G01 X-23.4098 Y-15.3490
G01 X-23.4191 Y-15.3462
G01 X-23.4278 Y-15.3416
G01 X-23.4354 Y-15.3354
G01 X-23.4416 Y-15.3278
G01 X-23.4462 Y-15.3191
G01 X-23.4490 Y-15.3098
G01 X-23.4500 Y-15.3000
G01 X-23.4490 Y-15.2902
G01 X-23.4462 Y-15.2809
G01 X-23.4416 Y-15.2722
G01 X-23.4354 Y-15.2646
G01 X-23.4278 Y-15.2584
G01 X-23.4191 Y-15.2538
G01 X-23.4098 Y-15.2510
G01 X-23.4000 Y-15.2500
G01 X-23.3902 Y-15.2510
G01 X-23.3809 Y-15.2538
G01 X-23.3722 Y-15.2584
G01 X-23.3646 Y-15.2646
G01 X-23.3584 Y-15.2722
G01 X-23.3538 Y-15.2809
G01 X-23.3510 Y-15.2902
G01 X-23.3500 Y-15.3000
G00 X-23.3500 Y-15.3000
G01 F100.00
G01 Z-2.4000
G01 F100.00
G01 X-23.3510 Y-15.3098
G01 X-23.3538 Y-15.3191
G01 X-23.3584 Y-15.3278
G01 X-23.3646 Y-15.3354
G01 X-23.3722 Y-15.3416
G01 X-23.3809 Y-15.3462
G01 X-23.3902 Y-15.3490
G01 X-23.4000 Y-15.3500
G01 X-23.4098 Y-15.3490
G01 X-23.4191 Y-15.3462
G01 X-23.4278 Y-15.3416
G01 X-23.4354 Y-15.3354
G01 X-23.4416 Y-15.3278
G01 X-23.4462 Y-15.3191
G01 X-23.4490 Y-15.3098
G01 X-23.4500 Y-15.3000
G01 X-23.4490 Y-15.2902
G01 X-23.4462 Y-15.2809
G01 X-23.4416 Y-15.2722
G01 X-23.4354 Y-15.2646
G01 X-23.4278 Y-15.2584
G01 X-23.4191 Y-15.2538
G01 X-23.4098 Y-15.2510
G01 X-23.4000 Y-15.2500
G01 X-23.3902 Y-15.2510
G01 X-23.3809 Y-15.2538
G01 X-23.3722 Y-15.2584
G01 X-23.3646 Y-15.2646
G01 X-23.3584 Y-15.2722
G01 X-23.3538 Y-15.2809
G01 X-23.3510 Y-15.2902
G01 X-23.3500 Y-15.3000
G00 Z2.0000
G00 X-5.4500 Y4.1000
G01 F100.00
G01 Z-1.0000
G01 F100.00
G01 X-5.4510 Y4.0902
G01 X-5.4538 Y4.0809
G01 X-5.4584 Y4.0722
G01 X-5.4646 Y4.0646
G01 X-5.4722 Y4.0584
G01 X-5.4809 Y4.0538
G01 X-5.4902 Y4.0510
G01 X-5.5000 Y4.0500
G01 X-5.5098 Y4.0510
G01 X-5.5191 Y4.0538
G01 X-5.5278 Y4.0584
G01 X-5.5354 Y4.0646
G01 X-5.5416 Y4.0722
G01 X-5.5462 Y4.0809
G01 X-5.5490 Y4.0902
G01 X-5.5500 Y4.1000
G01 X-5.5490 Y4.1098
G01 X-5.5462 Y4.1191
G01 X-5.5416 Y4.1278
G01 X-5.5354 Y4.1354
G01 X-5.5278 Y4.1416
G01 X-5.5191 Y4.1462
G01 X-5.5098 Y4.1490
G01 X-5.5000 Y4.1500
G01 X-5.4902 Y4.1490
G01 X-5.4809 Y4.1462
G01 X-5.4722 Y4.1416
G01 X-5.4646 Y4.1354
G01 X-5.4584 Y4.1278
G01 X-5.4538 Y4.1191
G01 X-5.4510 Y4.1098
G01 X-5.4500 Y4.1000
G00 X-5.4500 Y4.1000
G01 F100.00
G01 Z-2.0000
G01 F100.00
G01 X-5.4510 Y4.0902
G01 X-5.4538 Y4.0809
G01 X-5.4584 Y4.0722
G01 X-5.4646 Y4.0646
G01 X-5.4722 Y4.0584
G01 X-5.4809 Y4.0538
G01 X-5.4902 Y4.0510
G01 X-5.5000 Y4.0500
G01 X-5.5098 Y4.0510
G01 X-5.5191 Y4.0538
G01 X-5.5278 Y4.0584
G01 X-5.5354 Y4.0646
G01 X-5.5416 Y4.0722
G01 X-5.5462 Y4.0809
G01 X-5.5490 Y4.0902
G01 X-5.5500 Y4.1000
G01 X-5.5490 Y4.1098
G01 X-5.5462 Y4.1191
G01 X-5.5416 Y4.1278
G01 X-5.5354 Y4.1354
G01 X-5.5278 Y4.1416
G01 X-5.5191 Y4.1462
G01 X-5.5098 Y4.1490
G01 X-5.5000 Y4.1500
G01 X-5.4902 Y4.1490
G01 X-5.4809 Y4.1462
G01 X-5.4722 Y4.1416
G01 X-5.4646 Y4.1354
G01 X-5.4584 Y4.1278
G01 X-5.4538 Y4.1191
G01 X-5.4510 Y4.1098
G01 X-5.4500 Y4.1000
G00 X-5.4500 Y4.1000
G01 F100.00
G01 Z-2.4000
G01 F100.00
G01 X-5.4510 Y4.0902
G01 X-5.4538 Y4.0809
G01 X-5.4584 Y4.0722
G01 X-5.4646 Y4.0646
G01 X-5.4722 Y4.0584
G01 X-5.4809 Y4.0538
G01 X-5.4902 Y4.0510
G01 X-5.5000 Y4.0500
G01 X-5.5098 Y4.0510
G01 X-5.5191 Y4.0538
G01 X-5.5278 Y4.0584
G01 X-5.5354 Y4.0646
G01 X-5.5416 Y4.0722
G01 X-5.5462 Y4.0809
G01 X-5.5490 Y4.0902
G01 X-5.5500 Y4.1000
G01 X-5.5490 Y4.1098
G01 X-5.5462 Y4.1191
G01 X-5.5416 Y4.1278
G01 X-5.5354 Y4.1354
G01 X-5.5278 Y4.1416
G01 X-5.5191 Y4.1462
G01 X-5.5098 Y4.1490
G01 X-5.5000 Y4.1500
G01 X-5.4902 Y4.1490
G01 X-5.4809 Y4.1462
G01 X-5.4722 Y4.1416
G01 X-5.4646 Y4.1354
G01 X-5.4584 Y4.1278
G01 X-5.4538 Y4.1191
G01 X-5.4510 Y4.1098
G01 X-5.4500 Y4.1000
G00 Z2.0000
G00 X8.9100 Y14.9000
G01 F100.00
G01 Z-1.0000
G01 F100.00
G01 X8.9090 Y14.8902
G01 X8.9062 Y14.8809
G01 X8.9016 Y14.8722
G01 X8.8954 Y14.8646
G01 X8.8878 Y14.8584
G01 X8.8791 Y14.8538
G01 X8.8698 Y14.8510
G01 X8.8600 Y14.8500
G01 X8.8502 Y14.8510
G01 X8.8409 Y14.8538
G01 X8.8322 Y14.8584
G01 X8.8246 Y14.8646
G01 X8.8184 Y14.8722
G01 X8.8138 Y14.8809
G01 X8.8110 Y14.8902
G01 X8.8100 Y14.9000
G01 X8.8110 Y14.9098
G01 X8.8138 Y14.9191
G01 X8.8184 Y14.9278
G01 X8.8246 Y14.9354
G01 X8.8322 Y14.9416
G01 X8.8409 Y14.9462
G01 X8.8502 Y14.9490
G01 X8.8600 Y14.9500
G01 X8.8698 Y14.9490
G01 X8.8791 Y14.9462
G01 X8.8878 Y14.9416
G01 X8.8954 Y14.9354
G01 X8.9016 Y14.9278
G01 X8.9062 Y14.9191
G01 X8.9090 Y14.9098
G01 X8.9100 Y14.9000
G00 X8.9100 Y14.9000
G01 F100.00
G01 Z-2.0000
G01 F100.00
G01 X8.9090 Y14.8902
G01 X8.9062 Y14.8809
G01 X8.9016 Y14.8722
G01 X8.8954 Y14.8646
G01 X8.8878 Y14.8584
G01 X8.8791 Y14.8538
G01 X8.8698 Y14.8510
G01 X8.8600 Y14.8500
G01 X8.8502 Y14.8510
G01 X8.8409 Y14.8538
G01 X8.8322 Y14.8584
G01 X8.8246 Y14.8646
G01 X8.8184 Y14.8722
G01 X8.8138 Y14.8809
G01 X8.8110 Y14.8902
G01 X8.8100 Y14.9000
G01 X8.8110 Y14.9098
G01 X8.8138 Y14.9191
G01 X8.8184 Y14.9278
G01 X8.8246 Y14.9354
G01 X8.8322 Y14.9416
G01 X8.8409 Y14.9462
G01 X8.8502 Y14.9490
G01 X8.8600 Y14.9500
G01 X8.8698 Y14.9490
G01 X8.8791 Y14.9462
G01 X8.8878 Y14.9416
G01 X8.8954 Y14.9354
G01 X8.9016 Y14.9278
G01 X8.9062 Y14.9191
G01 X8.9090 Y14.9098
G01 X8.9100 Y14.9000
G00 X8.9100 Y14.9000
G01 F100.00
G01 Z-2.4000
G01 F100.00
G01 X8.9090 Y14.8902
G01 X8.9062 Y14.8809
G01 X8.9016 Y14.8722
G01 X8.8954 Y14.8646
G01 X8.8878 Y14.8584
G01 X8.8791 Y14.8538
G01 X8.8698 Y14.8510
G01 X8.8600 Y14.8500
G01 X8.8502 Y14.8510
G01 X8.8409 Y14.8538
G01 X8.8322 Y14.8584
G01 X8.8246 Y14.8646
G01 X8.8184 Y14.8722
G01 X8.8138 Y14.8809
G01 X8.8110 Y14.8902
G01 X8.8100 Y14.9000
G01 X8.8110 Y14.9098
G01 X8.8138 Y14.9191
G01 X8.8184 Y14.9278
G01 X8.8246 Y14.9354
G01 X8.8322 Y14.9416
G01 X8.8409 Y14.9462
G01 X8.8502 Y14.9490
G01 X8.8600 Y14.9500
G01 X8.8698 Y14.9490
G01 X8.8791 Y14.9462
G01 X8.8878 Y14.9416
G01 X8.8954 Y14.9354
G01 X8.9016 Y14.9278
G01 X8.9062 Y14.9191
G01 X8.9090 Y14.9098
G01 X8.9100 Y14.9000
G00 Z2.0000
G00 X11.4500 Y14.9000
G01 F100.00
G01 Z-1.0000
G01 F100.00
G01 X11.4490 Y14.8902
G01 X11.4462 Y14.8809
G01 X11.4416 Y14.8722
G01 X11.4354 Y14.8646
G01 X11.4278 Y14.8584
G01 X11.4191 Y14.8538
G01 X11.4098 Y14.8510
G01 X11.4000 Y14.8500
G01 X11.3902 Y14.8510
G01 X11.3809 Y14.8538
G01 X11.3722 Y14.8584
G01 X11.3646 Y14.8646
G01 X11.3584 Y14.8722
G01 X11.3538 Y14.8809
G01 X11.3510 Y14.8902
G01 X11.3500 Y14.9000
G01 X11.3510 Y14.9098
G01 X11.3538 Y14.9191
G01 X11.3584 Y14.9278
G01 X11.3646 Y14.9354
G01 X11.3722 Y14.9416
G01 X11.3809 Y14.9462
G01 X11.3902 Y14.9490
G01 X11.4000 Y14.9500
G01 X11.4098 Y14.9490
G01 X11.4191 Y14.9462
G01 X11.4278 Y14.9416
G01 X11.4354 Y14.9354
G01 X11.4416 Y14.9278
G01 X11.4462 Y14.9191
G01 X11.4490 Y14.9098
G01 X11.4500 Y14.9000
G00 X11.4500 Y14.9000
G01 F100.00
G01 Z-2.0000
G01 F100.00
G01 X11.4490 Y14.8902
G01 X11.4462 Y14.8809
G01 X11.4416 Y14.8722
G01 X11.4354 Y14.8646
G01 X11.4278 Y14.8584
G01 X11.4191 Y14.8538
G01 X11.4098 Y14.8510
G01 X11.4000 Y14.8500
G01 X11.3902 Y14.8510
G01 X11.3809 Y14.8538
G01 X11.3722 Y14.8584
G01 X11.3646 Y14.8646
G01 X11.3584 Y14.8722
G01 X11.3538 Y14.8809
G01 X11.3510 Y14.8902
G01 X11.3500 Y14.9000
G01 X11.3510 Y14.9098
G01 X11.3538 Y14.9191
G01 X11.3584 Y14.9278
G01 X11.3646 Y14.9354
G01 X11.3722 Y14.9416
G01 X11.3809 Y14.9462
G01 X11.3902 Y14.9490
G01 X11.4000 Y14.9500
G01 X11.4098 Y14.9490
G01 X11.4191 Y14.9462
G01 X11.4278 Y14.9416
G01 X11.4354 Y14.9354
G01 X11.4416 Y14.9278
G01 X11.4462 Y14.9191
G01 X11.4490 Y14.9098
G01 X11.4500 Y14.9000
G00 X11.4500 Y14.9000
G01 F100.00
G01 Z-2.4000
G01 F100.00
G01 X11.4490 Y14.8902
G01 X11.4462 Y14.8809
G01 X11.4416 Y14.8722
G01 X11.4354 Y14.8646
G01 X11.4278 Y14.8584
G01 X11.4191 Y14.8538
G01 X11.4098 Y14.8510
G01 X11.4000 Y14.8500
G01 X11.3902 Y14.8510
G01 X11.3809 Y14.8538
G01 X11.3722 Y14.8584
G01 X11.3646 Y14.8646
G01 X11.3584 Y14.8722
G01 X11.3538 Y14.8809
G01 X11.3510 Y14.8902
G01 X11.3500 Y14.9000
G01 X11.3510 Y14.9098
G01 X11.3538 Y14.9191
G01 X11.3584 Y14.9278
G01 X11.3646 Y14.9354
G01 X11.3722 Y14.9416
G01 X11.3809 Y14.9462
G01 X11.3902 Y14.9490
G01 X11.4000 Y14.9500
G01 X11.4098 Y14.9490
G01 X11.4191 Y14.9462
G01 X11.4278 Y14.9416
G01 X11.4354 Y14.9354
G01 X11.4416 Y14.9278
G01 X11.4462 Y14.9191
G01 X11.4490 Y14.9098
G01 X11.4500 Y14.9000
G00 Z2.0000
M05
G00 Z2.0000
G00 Z15.00


M2
