(G-CODE GENERATED BY FLATCAM v8.994 - www.flatcam.org - Version Date: 2020/11/7)

(Name: spindle_fan_control-Edge_Cuts.gbr_cutout_cnc)
(Type: G-code from Geometry)
(Units: MM)

(Created on torstai, 07 marraskuu 2024 at 14:04)

(This preprocessor is the default preprocessor used by FlatCAM.)
(It is made to work with MACH3 compatible motion controllers.)

(TOOL DIAMETER: 0.8 mm)
(Feedrate_XY: 100.0 mm/min)
(Feedrate_Z: 100.0 mm/min)
(Feedrate rapids 1500.0 mm/min)

(Z_Cut: -1.8 mm)
(DepthPerCut: 1.0 mm <=>2 passes)
(Z_Move: 2.0 mm)
(Z Start: None mm)
(Z End: 15.0 mm)
(X,Y End: None mm)
(Steps per circle: 64)
(Preprocessor Geometry: default)

(X range:  -30.0250 ...   14.0250  mm)
(Y range:  -22.4250 ...   19.1250  mm)

(Spindle Speed: 24000.0 RPM)
G21
G90
G94

G01 F100.00

M5
G00 Z15.0000
G00 X0.0000 Y0.0000
T1
M6    
(MSG, Change to Tool Dia = 0.8000)
M0
G00 Z15.0000

M03 S24000.0
G01 F100.00
G00 X-30.0250 Y4.1000
G01 F100.00
G01 Z-1.0000
G01 F100.00
G01 X-30.0244 Y4.1258
G01 X-30.0075 Y4.4688
G01 X-30.0057 Y4.4933
G01 X-30.0025 Y4.5201
G01 X-29.9521 Y4.8599
G01 X-29.9479 Y4.8840
G01 X-29.9420 Y4.9104
G01 X-29.8586 Y5.2436
G01 X-29.8520 Y5.2672
G01 X-29.8436 Y5.2929
G01 X-29.7279 Y5.6163
G01 X-29.7181 Y5.6414
G01 X-29.7082 Y5.6639
G01 X-29.5613 Y5.9744
G01 X-29.5491 Y5.9984
G01 X-29.5370 Y6.0198
G01 X-29.3605 Y6.3144
G01 X-29.3460 Y6.3372
G01 X-29.3318 Y6.3572
G01 X-29.1272 Y6.6331
G01 X-29.1106 Y6.6544
G01 X-29.0945 Y6.6730
G01 X-28.8639 Y6.9275
G01 X-28.8452 Y6.9470
G01 X-28.8275 Y6.9639
G01 X-28.5730 Y7.1945
G01 X-28.5544 Y7.2106
G01 X-28.5331 Y7.2272
G01 X-28.2572 Y7.4318
G01 X-28.2372 Y7.4460
G01 X-28.2144 Y7.4605
G01 X-27.9198 Y7.6370
G01 X-27.8963 Y7.6503
G01 X-27.8744 Y7.6613
G01 X-27.5639 Y7.8082
G01 X-27.5392 Y7.8191
G01 X-27.5163 Y7.8279
G01 X-27.1929 Y7.9436
G01 X-27.1672 Y7.9520
G01 X-27.1436 Y7.9586
G01 X-26.8104 Y8.0420
G01 X-26.7840 Y8.0479
G01 X-26.7599 Y8.0521
G01 X-26.4201 Y8.1025
G01 X-26.3933 Y8.1057
G01 X-26.3688 Y8.1075
G01 X-26.0258 Y8.1244
G01 X-26.0000 Y8.1250
G01 X-6.5129 Y8.1250
G01 X-6.0614 Y8.1472
G01 X-5.6271 Y8.2116
G01 X-5.2012 Y8.3183
G01 X-4.7877 Y8.4662
G01 X-4.3908 Y8.6540
G01 X-4.0142 Y8.8797
G01 X-3.6615 Y9.1413
G01 X-3.3362 Y9.4362
G01 X-3.0413 Y9.7615
G01 X-2.7797 Y10.1142
G01 X-2.5540 Y10.4908
G01 X-2.3662 Y10.8877
G01 X-2.2183 Y11.3012
G01 X-2.1116 Y11.7271
G01 X-2.0472 Y12.1614
G01 X-2.0250 Y12.6129
G01 X-2.0250 Y15.1000
G01 X-2.0244 Y15.1258
G01 X-2.0075 Y15.4688
G01 X-2.0055 Y15.4957
G01 X-2.0025 Y15.5201
G01 X-1.9521 Y15.8599
G01 X-1.9474 Y15.8864
G01 X-1.9420 Y15.9104
G01 X-1.8586 Y16.2436
G01 X-1.8520 Y16.2672
G01 X-1.8436 Y16.2929
G01 X-1.7279 Y16.6163
G01 X-1.7191 Y16.6392
G01 X-1.7082 Y16.6639
G01 X-1.5613 Y16.9744
G01 X-1.5491 Y16.9984
G01 X-1.5370 Y17.0198
G01 X-1.3605 Y17.3144
G01 X-1.3460 Y17.3372
G01 X-1.3318 Y17.3572
G01 X-1.1272 Y17.6331
G01 X-1.1106 Y17.6544
G01 X-1.0945 Y17.6730
G01 X-0.8639 Y17.9275
G01 X-0.8452 Y17.9470
G01 X-0.8275 Y17.9639
G01 X-0.5730 Y18.1945
G01 X-0.5525 Y18.2121
G01 X-0.5331 Y18.2272
G01 X-0.2572 Y18.4318
G01 X-0.2351 Y18.4473
G01 X-0.2144 Y18.4605
G01 X0.0802 Y18.6370
G01 X0.1037 Y18.6503
G01 X0.1256 Y18.6613
G01 X0.4361 Y18.8082
G01 X0.4608 Y18.8191
G01 X0.4837 Y18.8279
G01 X0.8071 Y18.9436
G01 X0.8304 Y18.9513
G01 X0.8564 Y18.9586
G01 X1.1896 Y19.0420
G01 X1.2160 Y19.0479
G01 X1.2401 Y19.0521
G01 X1.5799 Y19.1025
G01 X1.6067 Y19.1057
G01 X1.6312 Y19.1075
G01 X1.9742 Y19.1244
G01 X2.0000 Y19.1250
G01 X10.0123 Y19.1249
G01 X10.3688 Y19.1075
G01 X10.3933 Y19.1057
G01 X10.4201 Y19.1025
G01 X10.7599 Y19.0521
G01 X10.7864 Y19.0474
G01 X10.8104 Y19.0420
G01 X11.1436 Y18.9586
G01 X11.1696 Y18.9513
G01 X11.1929 Y18.9436
G01 X11.5163 Y18.8279
G01 X11.5392 Y18.8191
G01 X11.5639 Y18.8082
G01 X11.8744 Y18.6613
G01 X11.8984 Y18.6491
G01 X11.9198 Y18.6370
G01 X12.2144 Y18.4605
G01 X12.2372 Y18.4460
G01 X12.2572 Y18.4318
G01 X12.5331 Y18.2272
G01 X12.5525 Y18.2121
G01 X12.5730 Y18.1945
G01 X12.8275 Y17.9639
G01 X12.8470 Y17.9452
G01 X12.8639 Y17.9275
G01 X13.0945 Y17.6730
G01 X13.1121 Y17.6525
G01 X13.1272 Y17.6331
G01 X13.3318 Y17.3572
G01 X13.3460 Y17.3372
G01 X13.3605 Y17.3144
G01 X13.5370 Y17.0198
G01 X13.5503 Y16.9963
G01 X13.5613 Y16.9744
G01 X13.7082 Y16.6639
G01 X13.7191 Y16.6392
G01 X13.7279 Y16.6163
G01 X13.8436 Y16.2929
G01 X13.8513 Y16.2696
G01 X13.8586 Y16.2436
G01 X13.9420 Y15.9104
G01 X13.9479 Y15.8840
G01 X13.9521 Y15.8599
G01 X14.0025 Y15.5201
G01 X14.0057 Y15.4933
G01 X14.0075 Y15.4688
G01 X14.0244 Y15.1258
G01 X14.0250 Y15.1000
G01 X14.0250 Y-8.4000
G01 X14.0244 Y-8.4258
G01 X14.0075 Y-8.7688
G01 X14.0057 Y-8.7933
G01 X14.0025 Y-8.8201
G01 X13.9521 Y-9.1599
G01 X13.9474 Y-9.1864
G01 X13.9420 Y-9.2104
G01 X13.8586 Y-9.5436
G01 X13.8513 Y-9.5696
G01 X13.8436 Y-9.5929
G01 X13.7279 Y-9.9163
G01 X13.7181 Y-9.9414
G01 X13.7082 Y-9.9639
G01 X13.5613 Y-10.2744
G01 X13.5491 Y-10.2984
G01 X13.5370 Y-10.3198
G01 X13.3605 Y-10.6144
G01 X13.3460 Y-10.6372
G01 X13.3318 Y-10.6572
G01 X13.1272 Y-10.9331
G01 X13.1106 Y-10.9544
G01 X13.0945 Y-10.9730
G01 X12.8639 Y-11.2275
G01 X12.8452 Y-11.2470
G01 X12.8275 Y-11.2639
G01 X12.5730 Y-11.4945
G01 X12.5525 Y-11.5121
G01 X12.5331 Y-11.5272
G01 X12.2572 Y-11.7318
G01 X12.2351 Y-11.7473
G01 X12.2144 Y-11.7605
G01 X11.9198 Y-11.9370
G01 X11.8963 Y-11.9503
G01 X11.8744 Y-11.9613
G01 X11.5639 Y-12.1082
G01 X11.5392 Y-12.1191
G01 X11.5163 Y-12.1279
G01 X11.1929 Y-12.2436
G01 X11.1672 Y-12.2520
G01 X11.1436 Y-12.2586
G01 X10.8104 Y-12.3420
G01 X10.7840 Y-12.3479
G01 X10.7599 Y-12.3521
G01 X10.4201 Y-12.4025
G01 X10.3957 Y-12.4055
G01 X10.3688 Y-12.4075
G01 X10.0258 Y-12.4244
G01 X10.0000 Y-12.4250
G01 X0.5129 Y-12.4250
G01 X0.1104 Y-12.4448
G01 X-0.2754 Y-12.5020
G01 X-0.6537 Y-12.5968
G01 X-1.0209 Y-12.7282
G01 X-1.3735 Y-12.8949
G01 X-1.7080 Y-13.0954
G01 X-2.0213 Y-13.3278
G01 X-2.3103 Y-13.5897
G01 X-2.5722 Y-13.8787
G01 X-2.8046 Y-14.1920
G01 X-3.0051 Y-14.5265
G01 X-3.1718 Y-14.8791
G01 X-3.3032 Y-15.2463
G01 X-3.3980 Y-15.6246
G01 X-3.4552 Y-16.0104
G01 X-3.4750 Y-16.4129
G01 X-3.4751 Y-18.4123
G01 X-3.4925 Y-18.7688
G01 X-3.4945 Y-18.7957
G01 X-3.4975 Y-18.8201
G01 X-3.5479 Y-19.1599
G01 X-3.5526 Y-19.1864
G01 X-3.5580 Y-19.2104
G01 X-3.6414 Y-19.5436
G01 X-3.6487 Y-19.5696
G01 X-3.6564 Y-19.5929
G01 X-3.7721 Y-19.9163
G01 X-3.7819 Y-19.9414
G01 X-3.7918 Y-19.9639
G01 X-3.9387 Y-20.2744
G01 X-3.9497 Y-20.2963
G01 X-3.9630 Y-20.3198
G01 X-4.1395 Y-20.6144
G01 X-4.1527 Y-20.6351
G01 X-4.1682 Y-20.6572
G01 X-4.3728 Y-20.9331
G01 X-4.3879 Y-20.9525
G01 X-4.4055 Y-20.9730
G01 X-4.6361 Y-21.2275
G01 X-4.6530 Y-21.2452
G01 X-4.6725 Y-21.2639
G01 X-4.9270 Y-21.4945
G01 X-4.9456 Y-21.5106
G01 X-4.9669 Y-21.5272
G01 X-5.2428 Y-21.7318
G01 X-5.2628 Y-21.7460
G01 X-5.2856 Y-21.7605
G01 X-5.5802 Y-21.9370
G01 X-5.6016 Y-21.9491
G01 X-5.6256 Y-21.9613
G01 X-5.9361 Y-22.1082
G01 X-5.9586 Y-22.1181
G01 X-5.9837 Y-22.1279
G01 X-6.3071 Y-22.2436
G01 X-6.3304 Y-22.2513
G01 X-6.3564 Y-22.2586
G01 X-6.6896 Y-22.3420
G01 X-6.7160 Y-22.3479
G01 X-6.7401 Y-22.3521
G01 X-7.0799 Y-22.4025
G01 X-7.1067 Y-22.4057
G01 X-7.1312 Y-22.4075
G01 X-7.4742 Y-22.4244
G01 X-7.5000 Y-22.4250
G01 X-26.0000 Y-22.4250
G01 X-26.0258 Y-22.4244
G01 X-26.3688 Y-22.4075
G01 X-26.3933 Y-22.4057
G01 X-26.4201 Y-22.4025
G01 X-26.7599 Y-22.3521
G01 X-26.7864 Y-22.3474
G01 X-26.8104 Y-22.3420
G01 X-27.1436 Y-22.2586
G01 X-27.1696 Y-22.2513
G01 X-27.1929 Y-22.2436
G01 X-27.5163 Y-22.1279
G01 X-27.5392 Y-22.1191
G01 X-27.5639 Y-22.1082
G01 X-27.8744 Y-21.9613
G01 X-27.8984 Y-21.9491
G01 X-27.9198 Y-21.9370
G01 X-28.2144 Y-21.7605
G01 X-28.2372 Y-21.7460
G01 X-28.2572 Y-21.7318
G01 X-28.5331 Y-21.5272
G01 X-28.5525 Y-21.5121
G01 X-28.5730 Y-21.4945
G01 X-28.8275 Y-21.2639
G01 X-28.8470 Y-21.2452
G01 X-28.8639 Y-21.2275
G01 X-29.0945 Y-20.9730
G01 X-29.1121 Y-20.9525
G01 X-29.1272 Y-20.9331
G01 X-29.3318 Y-20.6572
G01 X-29.3460 Y-20.6372
G01 X-29.3605 Y-20.6144
G01 X-29.5370 Y-20.3198
G01 X-29.5503 Y-20.2963
G01 X-29.5613 Y-20.2744
G01 X-29.7082 Y-19.9639
G01 X-29.7191 Y-19.9392
G01 X-29.7279 Y-19.9163
G01 X-29.8436 Y-19.5929
G01 X-29.8520 Y-19.5672
G01 X-29.8586 Y-19.5436
G01 X-29.9420 Y-19.2104
G01 X-29.9479 Y-19.1840
G01 X-29.9521 Y-19.1599
G01 X-30.0025 Y-18.8201
G01 X-30.0055 Y-18.7957
G01 X-30.0075 Y-18.7688
G01 X-30.0244 Y-18.4258
G01 X-30.0250 Y-18.4000
G01 X-30.0250 Y4.1000
G00 X-30.0250 Y4.1000
G01 F100.00
G01 Z-1.8000
G01 F100.00
G01 X-30.0250 Y-18.4000
G01 X-30.0244 Y-18.4258
G01 X-30.0075 Y-18.7688
G01 X-30.0055 Y-18.7957
G01 X-30.0025 Y-18.8201
G01 X-29.9521 Y-19.1599
G01 X-29.9479 Y-19.1840
G01 X-29.9420 Y-19.2104
G01 X-29.8586 Y-19.5436
G01 X-29.8520 Y-19.5672
G01 X-29.8436 Y-19.5929
G01 X-29.7279 Y-19.9163
G01 X-29.7191 Y-19.9392
G01 X-29.7082 Y-19.9639
G01 X-29.5613 Y-20.2744
G01 X-29.5503 Y-20.2963
G01 X-29.5370 Y-20.3198
G01 X-29.3605 Y-20.6144
G01 X-29.3460 Y-20.6372
G01 X-29.3318 Y-20.6572
G01 X-29.1272 Y-20.9331
G01 X-29.1121 Y-20.9525
G01 X-29.0945 Y-20.9730
G01 X-28.8639 Y-21.2275
G01 X-28.8470 Y-21.2452
G01 X-28.8275 Y-21.2639
G01 X-28.5730 Y-21.4945
G01 X-28.5525 Y-21.5121
G01 X-28.5331 Y-21.5272
G01 X-28.2572 Y-21.7318
G01 X-28.2372 Y-21.7460
G01 X-28.2144 Y-21.7605
G01 X-27.9198 Y-21.9370
G01 X-27.8984 Y-21.9491
G01 X-27.8744 Y-21.9613
G01 X-27.5639 Y-22.1082
G01 X-27.5392 Y-22.1191
G01 X-27.5163 Y-22.1279
G01 X-27.1929 Y-22.2436
G01 X-27.1696 Y-22.2513
G01 X-27.1436 Y-22.2586
G01 X-26.8104 Y-22.3420
G01 X-26.7864 Y-22.3474
G01 X-26.7599 Y-22.3521
G01 X-26.4201 Y-22.4025
G01 X-26.3933 Y-22.4057
G01 X-26.3688 Y-22.4075
G01 X-26.0258 Y-22.4244
G01 X-26.0000 Y-22.4250
G01 X-7.5000 Y-22.4250
G01 X-7.4742 Y-22.4244
G01 X-7.1312 Y-22.4075
G01 X-7.1067 Y-22.4057
G01 X-7.0799 Y-22.4025
G01 X-6.7401 Y-22.3521
G01 X-6.7160 Y-22.3479
G01 X-6.6896 Y-22.3420
G01 X-6.3564 Y-22.2586
G01 X-6.3304 Y-22.2513
G01 X-6.3071 Y-22.2436
G01 X-5.9837 Y-22.1279
G01 X-5.9586 Y-22.1181
G01 X-5.9361 Y-22.1082
G01 X-5.6256 Y-21.9613
G01 X-5.6016 Y-21.9491
G01 X-5.5802 Y-21.9370
G01 X-5.2856 Y-21.7605
G01 X-5.2628 Y-21.7460
G01 X-5.2428 Y-21.7318
G01 X-4.9669 Y-21.5272
G01 X-4.9456 Y-21.5106
G01 X-4.9270 Y-21.4945
G01 X-4.6725 Y-21.2639
G01 X-4.6530 Y-21.2452
G01 X-4.6361 Y-21.2275
G01 X-4.4055 Y-20.9730
G01 X-4.3879 Y-20.9525
G01 X-4.3728 Y-20.9331
G01 X-4.1682 Y-20.6572
G01 X-4.1527 Y-20.6351
G01 X-4.1395 Y-20.6144
G01 X-3.9630 Y-20.3198
G01 X-3.9497 Y-20.2963
G01 X-3.9387 Y-20.2744
G01 X-3.7918 Y-19.9639
G01 X-3.7819 Y-19.9414
G01 X-3.7721 Y-19.9163
G01 X-3.6564 Y-19.5929
G01 X-3.6487 Y-19.5696
G01 X-3.6414 Y-19.5436
G01 X-3.5580 Y-19.2104
G01 X-3.5526 Y-19.1864
G01 X-3.5479 Y-19.1599
G01 X-3.4975 Y-18.8201
G01 X-3.4945 Y-18.7957
G01 X-3.4925 Y-18.7688
G01 X-3.4751 Y-18.4123
G01 X-3.4750 Y-16.4129
G01 X-3.4552 Y-16.0104
G01 X-3.3980 Y-15.6246
G01 X-3.3032 Y-15.2463
G01 X-3.1718 Y-14.8791
G01 X-3.0051 Y-14.5265
G01 X-2.8046 Y-14.1920
G01 X-2.5722 Y-13.8787
G01 X-2.3103 Y-13.5897
G01 X-2.0213 Y-13.3278
G01 X-1.7080 Y-13.0954
G01 X-1.3735 Y-12.8949
G01 X-1.0209 Y-12.7282
G01 X-0.6537 Y-12.5968
G01 X-0.2754 Y-12.5020
G01 X0.1104 Y-12.4448
G01 X0.5129 Y-12.4250
G01 X10.0000 Y-12.4250
G01 X10.0258 Y-12.4244
G01 X10.3688 Y-12.4075
G01 X10.3957 Y-12.4055
G01 X10.4201 Y-12.4025
G01 X10.7599 Y-12.3521
G01 X10.7840 Y-12.3479
G01 X10.8104 Y-12.3420
G01 X11.1436 Y-12.2586
G01 X11.1672 Y-12.2520
G01 X11.1929 Y-12.2436
G01 X11.5163 Y-12.1279
G01 X11.5392 Y-12.1191
G01 X11.5639 Y-12.1082
G01 X11.8744 Y-11.9613
G01 X11.8963 Y-11.9503
G01 X11.9198 Y-11.9370
G01 X12.2144 Y-11.7605
G01 X12.2351 Y-11.7473
G01 X12.2572 Y-11.7318
G01 X12.5331 Y-11.5272
G01 X12.5525 Y-11.5121
G01 X12.5730 Y-11.4945
G01 X12.8275 Y-11.2639
G01 X12.8452 Y-11.2470
G01 X12.8639 Y-11.2275
G01 X13.0945 Y-10.9730
G01 X13.1106 Y-10.9544
G01 X13.1272 Y-10.9331
G01 X13.3318 Y-10.6572
G01 X13.3460 Y-10.6372
G01 X13.3605 Y-10.6144
G01 X13.5370 Y-10.3198
G01 X13.5491 Y-10.2984
G01 X13.5613 Y-10.2744
G01 X13.7082 Y-9.9639
G01 X13.7181 Y-9.9414
G01 X13.7279 Y-9.9163
G01 X13.8436 Y-9.5929
G01 X13.8513 Y-9.5696
G01 X13.8586 Y-9.5436
G01 X13.9420 Y-9.2104
G01 X13.9474 Y-9.1864
G01 X13.9521 Y-9.1599
G01 X14.0025 Y-8.8201
G01 X14.0057 Y-8.7933
G01 X14.0075 Y-8.7688
G01 X14.0244 Y-8.4258
G01 X14.0250 Y-8.4000
G01 X14.0250 Y15.1000
G01 X14.0244 Y15.1258
G01 X14.0075 Y15.4688
G01 X14.0057 Y15.4933
G01 X14.0025 Y15.5201
G01 X13.9521 Y15.8599
G01 X13.9479 Y15.8840
G01 X13.9420 Y15.9104
G01 X13.8586 Y16.2436
G01 X13.8513 Y16.2696
G01 X13.8436 Y16.2929
G01 X13.7279 Y16.6163
G01 X13.7191 Y16.6392
G01 X13.7082 Y16.6639
G01 X13.5613 Y16.9744
G01 X13.5503 Y16.9963
G01 X13.5370 Y17.0198
G01 X13.3605 Y17.3144
G01 X13.3460 Y17.3372
G01 X13.3318 Y17.3572
G01 X13.1272 Y17.6331
G01 X13.1121 Y17.6525
G01 X13.0945 Y17.6730
G01 X12.8639 Y17.9275
G01 X12.8470 Y17.9452
G01 X12.8275 Y17.9639
G01 X12.5730 Y18.1945
G01 X12.5525 Y18.2121
G01 X12.5331 Y18.2272
G01 X12.2572 Y18.4318
G01 X12.2372 Y18.4460
G01 X12.2144 Y18.4605
G01 X11.9198 Y18.6370
G01 X11.8984 Y18.6491
G01 X11.8744 Y18.6613
G01 X11.5639 Y18.8082
G01 X11.5392 Y18.8191
G01 X11.5163 Y18.8279
G01 X11.1929 Y18.9436
G01 X11.1696 Y18.9513
G01 X11.1436 Y18.9586
G01 X10.8104 Y19.0420
G01 X10.7864 Y19.0474
G01 X10.7599 Y19.0521
G01 X10.4201 Y19.1025
G01 X10.3933 Y19.1057
G01 X10.3688 Y19.1075
G01 X10.0123 Y19.1249
G01 X2.0000 Y19.1250
G01 X1.9742 Y19.1244
G01 X1.6312 Y19.1075
G01 X1.6067 Y19.1057
G01 X1.5799 Y19.1025
G01 X1.2401 Y19.0521
G01 X1.2160 Y19.0479
G01 X1.1896 Y19.0420
G01 X0.8564 Y18.9586
G01 X0.8304 Y18.9513
G01 X0.8071 Y18.9436
G01 X0.4837 Y18.8279
G01 X0.4608 Y18.8191
G01 X0.4361 Y18.8082
G01 X0.1256 Y18.6613
G01 X0.1037 Y18.6503
G01 X0.0802 Y18.6370
G01 X-0.2144 Y18.4605
G01 X-0.2351 Y18.4473
G01 X-0.2572 Y18.4318
G01 X-0.5331 Y18.2272
G01 X-0.5525 Y18.2121
G01 X-0.5730 Y18.1945
G01 X-0.8275 Y17.9639
G01 X-0.8452 Y17.9470
G01 X-0.8639 Y17.9275
G01 X-1.0945 Y17.6730
G01 X-1.1106 Y17.6544
G01 X-1.1272 Y17.6331
G01 X-1.3318 Y17.3572
G01 X-1.3460 Y17.3372
G01 X-1.3605 Y17.3144
G01 X-1.5370 Y17.0198
G01 X-1.5491 Y16.9984
G01 X-1.5613 Y16.9744
G01 X-1.7082 Y16.6639
G01 X-1.7191 Y16.6392
G01 X-1.7279 Y16.6163
G01 X-1.8436 Y16.2929
G01 X-1.8520 Y16.2672
G01 X-1.8586 Y16.2436
G01 X-1.9420 Y15.9104
G01 X-1.9474 Y15.8864
G01 X-1.9521 Y15.8599
G01 X-2.0025 Y15.5201
G01 X-2.0055 Y15.4957
G01 X-2.0075 Y15.4688
G01 X-2.0244 Y15.1258
G01 X-2.0250 Y15.1000
G01 X-2.0250 Y12.6129
G01 X-2.0472 Y12.1614
G01 X-2.1116 Y11.7271
G01 X-2.2183 Y11.3012
G01 X-2.3662 Y10.8877
G01 X-2.5540 Y10.4908
G01 X-2.7797 Y10.1142
G01 X-3.0413 Y9.7615
G01 X-3.3362 Y9.4362
G01 X-3.6615 Y9.1413
G01 X-4.0142 Y8.8797
G01 X-4.3908 Y8.6540
G01 X-4.7877 Y8.4662
G01 X-5.2012 Y8.3183
G01 X-5.6271 Y8.2116
G01 X-6.0614 Y8.1472
G01 X-6.5129 Y8.1250
G01 X-26.0000 Y8.1250
G01 X-26.0258 Y8.1244
G01 X-26.3688 Y8.1075
G01 X-26.3933 Y8.1057
G01 X-26.4201 Y8.1025
G01 X-26.7599 Y8.0521
G01 X-26.7840 Y8.0479
G01 X-26.8104 Y8.0420
G01 X-27.1436 Y7.9586
G01 X-27.1672 Y7.9520
G01 X-27.1929 Y7.9436
G01 X-27.5163 Y7.8279
G01 X-27.5392 Y7.8191
G01 X-27.5639 Y7.8082
G01 X-27.8744 Y7.6613
G01 X-27.8963 Y7.6503
G01 X-27.9198 Y7.6370
G01 X-28.2144 Y7.4605
G01 X-28.2372 Y7.4460
G01 X-28.2572 Y7.4318
G01 X-28.5331 Y7.2272
G01 X-28.5544 Y7.2106
G01 X-28.5730 Y7.1945
G01 X-28.8275 Y6.9639
G01 X-28.8452 Y6.9470
G01 X-28.8639 Y6.9275
G01 X-29.0945 Y6.6730
G01 X-29.1106 Y6.6544
G01 X-29.1272 Y6.6331
G01 X-29.3318 Y6.3572
G01 X-29.3460 Y6.3372
G01 X-29.3605 Y6.3144
G01 X-29.5370 Y6.0198
G01 X-29.5491 Y5.9984
G01 X-29.5613 Y5.9744
G01 X-29.7082 Y5.6639
G01 X-29.7181 Y5.6414
G01 X-29.7279 Y5.6163
G01 X-29.8436 Y5.2929
G01 X-29.8520 Y5.2672
G01 X-29.8586 Y5.2436
G01 X-29.9420 Y4.9104
G01 X-29.9479 Y4.8840
G01 X-29.9521 Y4.8599
G01 X-30.0025 Y4.5201
G01 X-30.0057 Y4.4933
G01 X-30.0075 Y4.4688
G01 X-30.0244 Y4.1258
G01 X-30.0250 Y4.1000
G00 Z2.0000
M05
G00 Z2.0000
G00 Z15.00


M2
