(G-CODE GENERATED BY FLATCAM v8.994 - www.flatcam.org - Version Date: 2020/11/7)

(Name: buck_regulator.drl_mill_1_cnc)
(Type: G-code from Geometry)
(Units: MM)

(Created on perjantai, 10 helmikuu 2023 at 21:35)

(This preprocessor is the default preprocessor used by FlatCAM.)
(It is made to work with MACH3 compatible motion controllers.)

(TOOL DIAMETER: 0.79 mm)
(Feedrate_XY: 120.0 mm/min)
(Feedrate_Z: 60.0 mm/min)
(Feedrate rapids 1500.0 mm/min)

(Z_Cut: -2.4 mm)
(DepthPerCut: 0.8 mm <=>3 passes)
(Z_Move: 2.0 mm)
(Z Start: None mm)
(Z End: 15.0 mm)
(X,Y End: None mm)
(Steps per circle: 64)
(Preprocessor Geometry: default)

(X range:    2.8950 ...   45.5050  mm)
(Y range:  -28.4050 ...   -4.5450  mm)

(Spindle Speed: 24000.0 RPM)
G21
G90
G94

G01 F120.00

M5
G00 Z15.0000
G00 X0.0000 Y0.0000
T1
M6    
(MSG, Change to Tool Dia = 0.7900)
M0
G00 Z15.0000

M03 S24000.0
G01 F120.00
G00 X5.9550 Y-4.8000
G01 F60.00
G01 Z-0.8000
G01 F120.00
G01 X5.9538 Y-4.8250
G01 X5.9501 Y-4.8497
G01 X5.9440 Y-4.8740
G01 X5.9356 Y-4.8976
G01 X5.9249 Y-4.9202
G01 X5.9120 Y-4.9417
G01 X5.8971 Y-4.9618
G01 X5.8803 Y-4.9803
G01 X5.8618 Y-4.9971
G01 X5.8417 Y-5.0120
G01 X5.8202 Y-5.0249
G01 X5.7976 Y-5.0356
G01 X5.7740 Y-5.0440
G01 X5.7497 Y-5.0501
G01 X5.7250 Y-5.0538
G01 X5.7000 Y-5.0550
G01 X5.6750 Y-5.0538
G01 X5.6503 Y-5.0501
G01 X5.6260 Y-5.0440
G01 X5.6024 Y-5.0356
G01 X5.5798 Y-5.0249
G01 X5.5583 Y-5.0120
G01 X5.5382 Y-4.9971
G01 X5.5197 Y-4.9803
G01 X5.5029 Y-4.9618
G01 X5.4880 Y-4.9417
G01 X5.4751 Y-4.9202
G01 X5.4644 Y-4.8976
G01 X5.4560 Y-4.8740
G01 X5.4499 Y-4.8497
G01 X5.4462 Y-4.8250
G01 X5.4450 Y-4.8000
G01 X5.4462 Y-4.7750
G01 X5.4499 Y-4.7503
G01 X5.4560 Y-4.7260
G01 X5.4644 Y-4.7024
G01 X5.4751 Y-4.6798
G01 X5.4880 Y-4.6583
G01 X5.5029 Y-4.6382
G01 X5.5197 Y-4.6197
G01 X5.5382 Y-4.6029
G01 X5.5583 Y-4.5880
G01 X5.5798 Y-4.5751
G01 X5.6024 Y-4.5644
G01 X5.6260 Y-4.5560
G01 X5.6503 Y-4.5499
G01 X5.6750 Y-4.5462
G01 X5.7000 Y-4.5450
G01 X5.7250 Y-4.5462
G01 X5.7497 Y-4.5499
G01 X5.7740 Y-4.5560
G01 X5.7976 Y-4.5644
G01 X5.8202 Y-4.5751
G01 X5.8417 Y-4.5880
G01 X5.8618 Y-4.6029
G01 X5.8803 Y-4.6197
G01 X5.8971 Y-4.6382
G01 X5.9120 Y-4.6583
G01 X5.9249 Y-4.6798
G01 X5.9356 Y-4.7024
G01 X5.9440 Y-4.7260
G01 X5.9501 Y-4.7503
G01 X5.9538 Y-4.7750
G01 X5.9550 Y-4.8000
G00 X5.9550 Y-4.8000
G01 F60.00
G01 Z-1.6000
G01 F120.00
G01 X5.9538 Y-4.8250
G01 X5.9501 Y-4.8497
G01 X5.9440 Y-4.8740
G01 X5.9356 Y-4.8976
G01 X5.9249 Y-4.9202
G01 X5.9120 Y-4.9417
G01 X5.8971 Y-4.9618
G01 X5.8803 Y-4.9803
G01 X5.8618 Y-4.9971
G01 X5.8417 Y-5.0120
G01 X5.8202 Y-5.0249
G01 X5.7976 Y-5.0356
G01 X5.7740 Y-5.0440
G01 X5.7497 Y-5.0501
G01 X5.7250 Y-5.0538
G01 X5.7000 Y-5.0550
G01 X5.6750 Y-5.0538
G01 X5.6503 Y-5.0501
G01 X5.6260 Y-5.0440
G01 X5.6024 Y-5.0356
G01 X5.5798 Y-5.0249
G01 X5.5583 Y-5.0120
G01 X5.5382 Y-4.9971
G01 X5.5197 Y-4.9803
G01 X5.5029 Y-4.9618
G01 X5.4880 Y-4.9417
G01 X5.4751 Y-4.9202
G01 X5.4644 Y-4.8976
G01 X5.4560 Y-4.8740
G01 X5.4499 Y-4.8497
G01 X5.4462 Y-4.8250
G01 X5.4450 Y-4.8000
G01 X5.4462 Y-4.7750
G01 X5.4499 Y-4.7503
G01 X5.4560 Y-4.7260
G01 X5.4644 Y-4.7024
G01 X5.4751 Y-4.6798
G01 X5.4880 Y-4.6583
G01 X5.5029 Y-4.6382
G01 X5.5197 Y-4.6197
G01 X5.5382 Y-4.6029
G01 X5.5583 Y-4.5880
G01 X5.5798 Y-4.5751
G01 X5.6024 Y-4.5644
G01 X5.6260 Y-4.5560
G01 X5.6503 Y-4.5499
G01 X5.6750 Y-4.5462
G01 X5.7000 Y-4.5450
G01 X5.7250 Y-4.5462
G01 X5.7497 Y-4.5499
G01 X5.7740 Y-4.5560
G01 X5.7976 Y-4.5644
G01 X5.8202 Y-4.5751
G01 X5.8417 Y-4.5880
G01 X5.8618 Y-4.6029
G01 X5.8803 Y-4.6197
G01 X5.8971 Y-4.6382
G01 X5.9120 Y-4.6583
G01 X5.9249 Y-4.6798
G01 X5.9356 Y-4.7024
G01 X5.9440 Y-4.7260
G01 X5.9501 Y-4.7503
G01 X5.9538 Y-4.7750
G01 X5.9550 Y-4.8000
G00 X5.9550 Y-4.8000
G01 F60.00
G01 Z-2.4000
G01 F120.00
G01 X5.9538 Y-4.8250
G01 X5.9501 Y-4.8497
G01 X5.9440 Y-4.8740
G01 X5.9356 Y-4.8976
G01 X5.9249 Y-4.9202
G01 X5.9120 Y-4.9417
G01 X5.8971 Y-4.9618
G01 X5.8803 Y-4.9803
G01 X5.8618 Y-4.9971
G01 X5.8417 Y-5.0120
G01 X5.8202 Y-5.0249
G01 X5.7976 Y-5.0356
G01 X5.7740 Y-5.0440
G01 X5.7497 Y-5.0501
G01 X5.7250 Y-5.0538
G01 X5.7000 Y-5.0550
G01 X5.6750 Y-5.0538
G01 X5.6503 Y-5.0501
G01 X5.6260 Y-5.0440
G01 X5.6024 Y-5.0356
G01 X5.5798 Y-5.0249
G01 X5.5583 Y-5.0120
G01 X5.5382 Y-4.9971
G01 X5.5197 Y-4.9803
G01 X5.5029 Y-4.9618
G01 X5.4880 Y-4.9417
G01 X5.4751 Y-4.9202
G01 X5.4644 Y-4.8976
G01 X5.4560 Y-4.8740
G01 X5.4499 Y-4.8497
G01 X5.4462 Y-4.8250
G01 X5.4450 Y-4.8000
G01 X5.4462 Y-4.7750
G01 X5.4499 Y-4.7503
G01 X5.4560 Y-4.7260
G01 X5.4644 Y-4.7024
G01 X5.4751 Y-4.6798
G01 X5.4880 Y-4.6583
G01 X5.5029 Y-4.6382
G01 X5.5197 Y-4.6197
G01 X5.5382 Y-4.6029
G01 X5.5583 Y-4.5880
G01 X5.5798 Y-4.5751
G01 X5.6024 Y-4.5644
G01 X5.6260 Y-4.5560
G01 X5.6503 Y-4.5499
G01 X5.6750 Y-4.5462
G01 X5.7000 Y-4.5450
G01 X5.7250 Y-4.5462
G01 X5.7497 Y-4.5499
G01 X5.7740 Y-4.5560
G01 X5.7976 Y-4.5644
G01 X5.8202 Y-4.5751
G01 X5.8417 Y-4.5880
G01 X5.8618 Y-4.6029
G01 X5.8803 Y-4.6197
G01 X5.8971 Y-4.6382
G01 X5.9120 Y-4.6583
G01 X5.9249 Y-4.6798
G01 X5.9356 Y-4.7024
G01 X5.9440 Y-4.7260
G01 X5.9501 Y-4.7503
G01 X5.9538 Y-4.7750
G01 X5.9550 Y-4.8000
G00 Z2.0000
G00 X10.9550 Y-4.8000
G01 F60.00
G01 Z-0.8000
G01 F120.00
G01 X10.9538 Y-4.8250
G01 X10.9501 Y-4.8497
G01 X10.9440 Y-4.8740
G01 X10.9356 Y-4.8976
G01 X10.9249 Y-4.9202
G01 X10.9120 Y-4.9417
G01 X10.8971 Y-4.9618
G01 X10.8803 Y-4.9803
G01 X10.8618 Y-4.9971
G01 X10.8417 Y-5.0120
G01 X10.8202 Y-5.0249
G01 X10.7976 Y-5.0356
G01 X10.7740 Y-5.0440
G01 X10.7497 Y-5.0501
G01 X10.7250 Y-5.0538
G01 X10.7000 Y-5.0550
G01 X10.6750 Y-5.0538
G01 X10.6503 Y-5.0501
G01 X10.6260 Y-5.0440
G01 X10.6024 Y-5.0356
G01 X10.5798 Y-5.0249
G01 X10.5583 Y-5.0120
G01 X10.5382 Y-4.9971
G01 X10.5197 Y-4.9803
G01 X10.5029 Y-4.9618
G01 X10.4880 Y-4.9417
G01 X10.4751 Y-4.9202
G01 X10.4644 Y-4.8976
G01 X10.4560 Y-4.8740
G01 X10.4499 Y-4.8497
G01 X10.4462 Y-4.8250
G01 X10.4450 Y-4.8000
G01 X10.4462 Y-4.7750
G01 X10.4499 Y-4.7503
G01 X10.4560 Y-4.7260
G01 X10.4644 Y-4.7024
G01 X10.4751 Y-4.6798
G01 X10.4880 Y-4.6583
G01 X10.5029 Y-4.6382
G01 X10.5197 Y-4.6197
G01 X10.5382 Y-4.6029
G01 X10.5583 Y-4.5880
G01 X10.5798 Y-4.5751
G01 X10.6024 Y-4.5644
G01 X10.6260 Y-4.5560
G01 X10.6503 Y-4.5499
G01 X10.6750 Y-4.5462
G01 X10.7000 Y-4.5450
G01 X10.7250 Y-4.5462
G01 X10.7497 Y-4.5499
G01 X10.7740 Y-4.5560
G01 X10.7976 Y-4.5644
G01 X10.8202 Y-4.5751
G01 X10.8417 Y-4.5880
G01 X10.8618 Y-4.6029
G01 X10.8803 Y-4.6197
G01 X10.8971 Y-4.6382
G01 X10.9120 Y-4.6583
G01 X10.9249 Y-4.6798
G01 X10.9356 Y-4.7024
G01 X10.9440 Y-4.7260
G01 X10.9501 Y-4.7503
G01 X10.9538 Y-4.7750
G01 X10.9550 Y-4.8000
G00 X10.9550 Y-4.8000
G01 F60.00
G01 Z-1.6000
G01 F120.00
G01 X10.9538 Y-4.8250
G01 X10.9501 Y-4.8497
G01 X10.9440 Y-4.8740
G01 X10.9356 Y-4.8976
G01 X10.9249 Y-4.9202
G01 X10.9120 Y-4.9417
G01 X10.8971 Y-4.9618
G01 X10.8803 Y-4.9803
G01 X10.8618 Y-4.9971
G01 X10.8417 Y-5.0120
G01 X10.8202 Y-5.0249
G01 X10.7976 Y-5.0356
G01 X10.7740 Y-5.0440
G01 X10.7497 Y-5.0501
G01 X10.7250 Y-5.0538
G01 X10.7000 Y-5.0550
G01 X10.6750 Y-5.0538
G01 X10.6503 Y-5.0501
G01 X10.6260 Y-5.0440
G01 X10.6024 Y-5.0356
G01 X10.5798 Y-5.0249
G01 X10.5583 Y-5.0120
G01 X10.5382 Y-4.9971
G01 X10.5197 Y-4.9803
G01 X10.5029 Y-4.9618
G01 X10.4880 Y-4.9417
G01 X10.4751 Y-4.9202
G01 X10.4644 Y-4.8976
G01 X10.4560 Y-4.8740
G01 X10.4499 Y-4.8497
G01 X10.4462 Y-4.8250
G01 X10.4450 Y-4.8000
G01 X10.4462 Y-4.7750
G01 X10.4499 Y-4.7503
G01 X10.4560 Y-4.7260
G01 X10.4644 Y-4.7024
G01 X10.4751 Y-4.6798
G01 X10.4880 Y-4.6583
G01 X10.5029 Y-4.6382
G01 X10.5197 Y-4.6197
G01 X10.5382 Y-4.6029
G01 X10.5583 Y-4.5880
G01 X10.5798 Y-4.5751
G01 X10.6024 Y-4.5644
G01 X10.6260 Y-4.5560
G01 X10.6503 Y-4.5499
G01 X10.6750 Y-4.5462
G01 X10.7000 Y-4.5450
G01 X10.7250 Y-4.5462
G01 X10.7497 Y-4.5499
G01 X10.7740 Y-4.5560
G01 X10.7976 Y-4.5644
G01 X10.8202 Y-4.5751
G01 X10.8417 Y-4.5880
G01 X10.8618 Y-4.6029
G01 X10.8803 Y-4.6197
G01 X10.8971 Y-4.6382
G01 X10.9120 Y-4.6583
G01 X10.9249 Y-4.6798
G01 X10.9356 Y-4.7024
G01 X10.9440 Y-4.7260
G01 X10.9501 Y-4.7503
G01 X10.9538 Y-4.7750
G01 X10.9550 Y-4.8000
G00 X10.9550 Y-4.8000
G01 F60.00
G01 Z-2.4000
G01 F120.00
G01 X10.9538 Y-4.8250
G01 X10.9501 Y-4.8497
G01 X10.9440 Y-4.8740
G01 X10.9356 Y-4.8976
G01 X10.9249 Y-4.9202
G01 X10.9120 Y-4.9417
G01 X10.8971 Y-4.9618
G01 X10.8803 Y-4.9803
G01 X10.8618 Y-4.9971
G01 X10.8417 Y-5.0120
G01 X10.8202 Y-5.0249
G01 X10.7976 Y-5.0356
G01 X10.7740 Y-5.0440
G01 X10.7497 Y-5.0501
G01 X10.7250 Y-5.0538
G01 X10.7000 Y-5.0550
G01 X10.6750 Y-5.0538
G01 X10.6503 Y-5.0501
G01 X10.6260 Y-5.0440
G01 X10.6024 Y-5.0356
G01 X10.5798 Y-5.0249
G01 X10.5583 Y-5.0120
G01 X10.5382 Y-4.9971
G01 X10.5197 Y-4.9803
G01 X10.5029 Y-4.9618
G01 X10.4880 Y-4.9417
G01 X10.4751 Y-4.9202
G01 X10.4644 Y-4.8976
G01 X10.4560 Y-4.8740
G01 X10.4499 Y-4.8497
G01 X10.4462 Y-4.8250
G01 X10.4450 Y-4.8000
G01 X10.4462 Y-4.7750
G01 X10.4499 Y-4.7503
G01 X10.4560 Y-4.7260
G01 X10.4644 Y-4.7024
G01 X10.4751 Y-4.6798
G01 X10.4880 Y-4.6583
G01 X10.5029 Y-4.6382
G01 X10.5197 Y-4.6197
G01 X10.5382 Y-4.6029
G01 X10.5583 Y-4.5880
G01 X10.5798 Y-4.5751
G01 X10.6024 Y-4.5644
G01 X10.6260 Y-4.5560
G01 X10.6503 Y-4.5499
G01 X10.6750 Y-4.5462
G01 X10.7000 Y-4.5450
G01 X10.7250 Y-4.5462
G01 X10.7497 Y-4.5499
G01 X10.7740 Y-4.5560
G01 X10.7976 Y-4.5644
G01 X10.8202 Y-4.5751
G01 X10.8417 Y-4.5880
G01 X10.8618 Y-4.6029
G01 X10.8803 Y-4.6197
G01 X10.8971 Y-4.6382
G01 X10.9120 Y-4.6583
G01 X10.9249 Y-4.6798
G01 X10.9356 Y-4.7024
G01 X10.9440 Y-4.7260
G01 X10.9501 Y-4.7503
G01 X10.9538 Y-4.7750
G01 X10.9550 Y-4.8000
G00 Z2.0000
G00 X15.9550 Y-4.8000
G01 F60.00
G01 Z-0.8000
G01 F120.00
G01 X15.9538 Y-4.8250
G01 X15.9501 Y-4.8497
G01 X15.9440 Y-4.8740
G01 X15.9356 Y-4.8976
G01 X15.9249 Y-4.9202
G01 X15.9120 Y-4.9417
G01 X15.8971 Y-4.9618
G01 X15.8803 Y-4.9803
G01 X15.8618 Y-4.9971
G01 X15.8417 Y-5.0120
G01 X15.8202 Y-5.0249
G01 X15.7976 Y-5.0356
G01 X15.7740 Y-5.0440
G01 X15.7497 Y-5.0501
G01 X15.7250 Y-5.0538
G01 X15.7000 Y-5.0550
G01 X15.6750 Y-5.0538
G01 X15.6503 Y-5.0501
G01 X15.6260 Y-5.0440
G01 X15.6024 Y-5.0356
G01 X15.5798 Y-5.0249
G01 X15.5583 Y-5.0120
G01 X15.5382 Y-4.9971
G01 X15.5197 Y-4.9803
G01 X15.5029 Y-4.9618
G01 X15.4880 Y-4.9417
G01 X15.4751 Y-4.9202
G01 X15.4644 Y-4.8976
G01 X15.4560 Y-4.8740
G01 X15.4499 Y-4.8497
G01 X15.4462 Y-4.8250
G01 X15.4450 Y-4.8000
G01 X15.4462 Y-4.7750
G01 X15.4499 Y-4.7503
G01 X15.4560 Y-4.7260
G01 X15.4644 Y-4.7024
G01 X15.4751 Y-4.6798
G01 X15.4880 Y-4.6583
G01 X15.5029 Y-4.6382
G01 X15.5197 Y-4.6197
G01 X15.5382 Y-4.6029
G01 X15.5583 Y-4.5880
G01 X15.5798 Y-4.5751
G01 X15.6024 Y-4.5644
G01 X15.6260 Y-4.5560
G01 X15.6503 Y-4.5499
G01 X15.6750 Y-4.5462
G01 X15.7000 Y-4.5450
G01 X15.7250 Y-4.5462
G01 X15.7497 Y-4.5499
G01 X15.7740 Y-4.5560
G01 X15.7976 Y-4.5644
G01 X15.8202 Y-4.5751
G01 X15.8417 Y-4.5880
G01 X15.8618 Y-4.6029
G01 X15.8803 Y-4.6197
G01 X15.8971 Y-4.6382
G01 X15.9120 Y-4.6583
G01 X15.9249 Y-4.6798
G01 X15.9356 Y-4.7024
G01 X15.9440 Y-4.7260
G01 X15.9501 Y-4.7503
G01 X15.9538 Y-4.7750
G01 X15.9550 Y-4.8000
G00 X15.9550 Y-4.8000
G01 F60.00
G01 Z-1.6000
G01 F120.00
G01 X15.9538 Y-4.8250
G01 X15.9501 Y-4.8497
G01 X15.9440 Y-4.8740
G01 X15.9356 Y-4.8976
G01 X15.9249 Y-4.9202
G01 X15.9120 Y-4.9417
G01 X15.8971 Y-4.9618
G01 X15.8803 Y-4.9803
G01 X15.8618 Y-4.9971
G01 X15.8417 Y-5.0120
G01 X15.8202 Y-5.0249
G01 X15.7976 Y-5.0356
G01 X15.7740 Y-5.0440
G01 X15.7497 Y-5.0501
G01 X15.7250 Y-5.0538
G01 X15.7000 Y-5.0550
G01 X15.6750 Y-5.0538
G01 X15.6503 Y-5.0501
G01 X15.6260 Y-5.0440
G01 X15.6024 Y-5.0356
G01 X15.5798 Y-5.0249
G01 X15.5583 Y-5.0120
G01 X15.5382 Y-4.9971
G01 X15.5197 Y-4.9803
G01 X15.5029 Y-4.9618
G01 X15.4880 Y-4.9417
G01 X15.4751 Y-4.9202
G01 X15.4644 Y-4.8976
G01 X15.4560 Y-4.8740
G01 X15.4499 Y-4.8497
G01 X15.4462 Y-4.8250
G01 X15.4450 Y-4.8000
G01 X15.4462 Y-4.7750
G01 X15.4499 Y-4.7503
G01 X15.4560 Y-4.7260
G01 X15.4644 Y-4.7024
G01 X15.4751 Y-4.6798
G01 X15.4880 Y-4.6583
G01 X15.5029 Y-4.6382
G01 X15.5197 Y-4.6197
G01 X15.5382 Y-4.6029
G01 X15.5583 Y-4.5880
G01 X15.5798 Y-4.5751
G01 X15.6024 Y-4.5644
G01 X15.6260 Y-4.5560
G01 X15.6503 Y-4.5499
G01 X15.6750 Y-4.5462
G01 X15.7000 Y-4.5450
G01 X15.7250 Y-4.5462
G01 X15.7497 Y-4.5499
G01 X15.7740 Y-4.5560
G01 X15.7976 Y-4.5644
G01 X15.8202 Y-4.5751
G01 X15.8417 Y-4.5880
G01 X15.8618 Y-4.6029
G01 X15.8803 Y-4.6197
G01 X15.8971 Y-4.6382
G01 X15.9120 Y-4.6583
G01 X15.9249 Y-4.6798
G01 X15.9356 Y-4.7024
G01 X15.9440 Y-4.7260
G01 X15.9501 Y-4.7503
G01 X15.9538 Y-4.7750
G01 X15.9550 Y-4.8000
G00 X15.9550 Y-4.8000
G01 F60.00
G01 Z-2.4000
G01 F120.00
G01 X15.9538 Y-4.8250
G01 X15.9501 Y-4.8497
G01 X15.9440 Y-4.8740
G01 X15.9356 Y-4.8976
G01 X15.9249 Y-4.9202
G01 X15.9120 Y-4.9417
G01 X15.8971 Y-4.9618
G01 X15.8803 Y-4.9803
G01 X15.8618 Y-4.9971
G01 X15.8417 Y-5.0120
G01 X15.8202 Y-5.0249
G01 X15.7976 Y-5.0356
G01 X15.7740 Y-5.0440
G01 X15.7497 Y-5.0501
G01 X15.7250 Y-5.0538
G01 X15.7000 Y-5.0550
G01 X15.6750 Y-5.0538
G01 X15.6503 Y-5.0501
G01 X15.6260 Y-5.0440
G01 X15.6024 Y-5.0356
G01 X15.5798 Y-5.0249
G01 X15.5583 Y-5.0120
G01 X15.5382 Y-4.9971
G01 X15.5197 Y-4.9803
G01 X15.5029 Y-4.9618
G01 X15.4880 Y-4.9417
G01 X15.4751 Y-4.9202
G01 X15.4644 Y-4.8976
G01 X15.4560 Y-4.8740
G01 X15.4499 Y-4.8497
G01 X15.4462 Y-4.8250
G01 X15.4450 Y-4.8000
G01 X15.4462 Y-4.7750
G01 X15.4499 Y-4.7503
G01 X15.4560 Y-4.7260
G01 X15.4644 Y-4.7024
G01 X15.4751 Y-4.6798
G01 X15.4880 Y-4.6583
G01 X15.5029 Y-4.6382
G01 X15.5197 Y-4.6197
G01 X15.5382 Y-4.6029
G01 X15.5583 Y-4.5880
G01 X15.5798 Y-4.5751
G01 X15.6024 Y-4.5644
G01 X15.6260 Y-4.5560
G01 X15.6503 Y-4.5499
G01 X15.6750 Y-4.5462
G01 X15.7000 Y-4.5450
G01 X15.7250 Y-4.5462
G01 X15.7497 Y-4.5499
G01 X15.7740 Y-4.5560
G01 X15.7976 Y-4.5644
G01 X15.8202 Y-4.5751
G01 X15.8417 Y-4.5880
G01 X15.8618 Y-4.6029
G01 X15.8803 Y-4.6197
G01 X15.8971 Y-4.6382
G01 X15.9120 Y-4.6583
G01 X15.9249 Y-4.6798
G01 X15.9356 Y-4.7024
G01 X15.9440 Y-4.7260
G01 X15.9501 Y-4.7503
G01 X15.9538 Y-4.7750
G01 X15.9550 Y-4.8000
G00 Z2.0000
G00 X20.9550 Y-4.8000
G01 F60.00
G01 Z-0.8000
G01 F120.00
G01 X20.9538 Y-4.8250
G01 X20.9501 Y-4.8497
G01 X20.9440 Y-4.8740
G01 X20.9356 Y-4.8976
G01 X20.9249 Y-4.9202
G01 X20.9120 Y-4.9417
G01 X20.8971 Y-4.9618
G01 X20.8803 Y-4.9803
G01 X20.8618 Y-4.9971
G01 X20.8417 Y-5.0120
G01 X20.8202 Y-5.0249
G01 X20.7976 Y-5.0356
G01 X20.7740 Y-5.0440
G01 X20.7497 Y-5.0501
G01 X20.7250 Y-5.0538
G01 X20.7000 Y-5.0550
G01 X20.6750 Y-5.0538
G01 X20.6503 Y-5.0501
G01 X20.6260 Y-5.0440
G01 X20.6024 Y-5.0356
G01 X20.5798 Y-5.0249
G01 X20.5583 Y-5.0120
G01 X20.5382 Y-4.9971
G01 X20.5197 Y-4.9803
G01 X20.5029 Y-4.9618
G01 X20.4880 Y-4.9417
G01 X20.4751 Y-4.9202
G01 X20.4644 Y-4.8976
G01 X20.4560 Y-4.8740
G01 X20.4499 Y-4.8497
G01 X20.4462 Y-4.8250
G01 X20.4450 Y-4.8000
G01 X20.4462 Y-4.7750
G01 X20.4499 Y-4.7503
G01 X20.4560 Y-4.7260
G01 X20.4644 Y-4.7024
G01 X20.4751 Y-4.6798
G01 X20.4880 Y-4.6583
G01 X20.5029 Y-4.6382
G01 X20.5197 Y-4.6197
G01 X20.5382 Y-4.6029
G01 X20.5583 Y-4.5880
G01 X20.5798 Y-4.5751
G01 X20.6024 Y-4.5644
G01 X20.6260 Y-4.5560
G01 X20.6503 Y-4.5499
G01 X20.6750 Y-4.5462
G01 X20.7000 Y-4.5450
G01 X20.7250 Y-4.5462
G01 X20.7497 Y-4.5499
G01 X20.7740 Y-4.5560
G01 X20.7976 Y-4.5644
G01 X20.8202 Y-4.5751
G01 X20.8417 Y-4.5880
G01 X20.8618 Y-4.6029
G01 X20.8803 Y-4.6197
G01 X20.8971 Y-4.6382
G01 X20.9120 Y-4.6583
G01 X20.9249 Y-4.6798
G01 X20.9356 Y-4.7024
G01 X20.9440 Y-4.7260
G01 X20.9501 Y-4.7503
G01 X20.9538 Y-4.7750
G01 X20.9550 Y-4.8000
G00 X20.9550 Y-4.8000
G01 F60.00
G01 Z-1.6000
G01 F120.00
G01 X20.9538 Y-4.8250
G01 X20.9501 Y-4.8497
G01 X20.9440 Y-4.8740
G01 X20.9356 Y-4.8976
G01 X20.9249 Y-4.9202
G01 X20.9120 Y-4.9417
G01 X20.8971 Y-4.9618
G01 X20.8803 Y-4.9803
G01 X20.8618 Y-4.9971
G01 X20.8417 Y-5.0120
G01 X20.8202 Y-5.0249
G01 X20.7976 Y-5.0356
G01 X20.7740 Y-5.0440
G01 X20.7497 Y-5.0501
G01 X20.7250 Y-5.0538
G01 X20.7000 Y-5.0550
G01 X20.6750 Y-5.0538
G01 X20.6503 Y-5.0501
G01 X20.6260 Y-5.0440
G01 X20.6024 Y-5.0356
G01 X20.5798 Y-5.0249
G01 X20.5583 Y-5.0120
G01 X20.5382 Y-4.9971
G01 X20.5197 Y-4.9803
G01 X20.5029 Y-4.9618
G01 X20.4880 Y-4.9417
G01 X20.4751 Y-4.9202
G01 X20.4644 Y-4.8976
G01 X20.4560 Y-4.8740
G01 X20.4499 Y-4.8497
G01 X20.4462 Y-4.8250
G01 X20.4450 Y-4.8000
G01 X20.4462 Y-4.7750
G01 X20.4499 Y-4.7503
G01 X20.4560 Y-4.7260
G01 X20.4644 Y-4.7024
G01 X20.4751 Y-4.6798
G01 X20.4880 Y-4.6583
G01 X20.5029 Y-4.6382
G01 X20.5197 Y-4.6197
G01 X20.5382 Y-4.6029
G01 X20.5583 Y-4.5880
G01 X20.5798 Y-4.5751
G01 X20.6024 Y-4.5644
G01 X20.6260 Y-4.5560
G01 X20.6503 Y-4.5499
G01 X20.6750 Y-4.5462
G01 X20.7000 Y-4.5450
G01 X20.7250 Y-4.5462
G01 X20.7497 Y-4.5499
G01 X20.7740 Y-4.5560
G01 X20.7976 Y-4.5644
G01 X20.8202 Y-4.5751
G01 X20.8417 Y-4.5880
G01 X20.8618 Y-4.6029
G01 X20.8803 Y-4.6197
G01 X20.8971 Y-4.6382
G01 X20.9120 Y-4.6583
G01 X20.9249 Y-4.6798
G01 X20.9356 Y-4.7024
G01 X20.9440 Y-4.7260
G01 X20.9501 Y-4.7503
G01 X20.9538 Y-4.7750
G01 X20.9550 Y-4.8000
G00 X20.9550 Y-4.8000
G01 F60.00
G01 Z-2.4000
G01 F120.00
G01 X20.9538 Y-4.8250
G01 X20.9501 Y-4.8497
G01 X20.9440 Y-4.8740
G01 X20.9356 Y-4.8976
G01 X20.9249 Y-4.9202
G01 X20.9120 Y-4.9417
G01 X20.8971 Y-4.9618
G01 X20.8803 Y-4.9803
G01 X20.8618 Y-4.9971
G01 X20.8417 Y-5.0120
G01 X20.8202 Y-5.0249
G01 X20.7976 Y-5.0356
G01 X20.7740 Y-5.0440
G01 X20.7497 Y-5.0501
G01 X20.7250 Y-5.0538
G01 X20.7000 Y-5.0550
G01 X20.6750 Y-5.0538
G01 X20.6503 Y-5.0501
G01 X20.6260 Y-5.0440
G01 X20.6024 Y-5.0356
G01 X20.5798 Y-5.0249
G01 X20.5583 Y-5.0120
G01 X20.5382 Y-4.9971
G01 X20.5197 Y-4.9803
G01 X20.5029 Y-4.9618
G01 X20.4880 Y-4.9417
G01 X20.4751 Y-4.9202
G01 X20.4644 Y-4.8976
G01 X20.4560 Y-4.8740
G01 X20.4499 Y-4.8497
G01 X20.4462 Y-4.8250
G01 X20.4450 Y-4.8000
G01 X20.4462 Y-4.7750
G01 X20.4499 Y-4.7503
G01 X20.4560 Y-4.7260
G01 X20.4644 Y-4.7024
G01 X20.4751 Y-4.6798
G01 X20.4880 Y-4.6583
G01 X20.5029 Y-4.6382
G01 X20.5197 Y-4.6197
G01 X20.5382 Y-4.6029
G01 X20.5583 Y-4.5880
G01 X20.5798 Y-4.5751
G01 X20.6024 Y-4.5644
G01 X20.6260 Y-4.5560
G01 X20.6503 Y-4.5499
G01 X20.6750 Y-4.5462
G01 X20.7000 Y-4.5450
G01 X20.7250 Y-4.5462
G01 X20.7497 Y-4.5499
G01 X20.7740 Y-4.5560
G01 X20.7976 Y-4.5644
G01 X20.8202 Y-4.5751
G01 X20.8417 Y-4.5880
G01 X20.8618 Y-4.6029
G01 X20.8803 Y-4.6197
G01 X20.8971 Y-4.6382
G01 X20.9120 Y-4.6583
G01 X20.9249 Y-4.6798
G01 X20.9356 Y-4.7024
G01 X20.9440 Y-4.7260
G01 X20.9501 Y-4.7503
G01 X20.9538 Y-4.7750
G01 X20.9550 Y-4.8000
G00 Z2.0000
G00 X23.3050 Y-11.7000
G01 F60.00
G01 Z-0.8000
G01 F120.00
G01 X23.3046 Y-11.7019
G01 X23.3035 Y-11.7035
G01 X23.3019 Y-11.7046
G01 X23.3000 Y-11.7050
G01 X23.2981 Y-11.7046
G01 X23.2965 Y-11.7035
G01 X23.2954 Y-11.7019
G01 X23.2950 Y-11.7000
G01 X23.2954 Y-11.6981
G01 X23.2965 Y-11.6965
G01 X23.2981 Y-11.6954
G01 X23.3000 Y-11.6950
G01 X23.3019 Y-11.6954
G01 X23.3035 Y-11.6965
G01 X23.3046 Y-11.6981
G01 X23.3050 Y-11.7000
G00 X23.3050 Y-11.7000
G01 F60.00
G01 Z-1.6000
G01 F120.00
G01 X23.3046 Y-11.7019
G01 X23.3035 Y-11.7035
G01 X23.3019 Y-11.7046
G01 X23.3000 Y-11.7050
G01 X23.2981 Y-11.7046
G01 X23.2965 Y-11.7035
G01 X23.2954 Y-11.7019
G01 X23.2950 Y-11.7000
G01 X23.2954 Y-11.6981
G01 X23.2965 Y-11.6965
G01 X23.2981 Y-11.6954
G01 X23.3000 Y-11.6950
G01 X23.3019 Y-11.6954
G01 X23.3035 Y-11.6965
G01 X23.3046 Y-11.6981
G01 X23.3050 Y-11.7000
G00 X23.3050 Y-11.7000
G01 F60.00
G01 Z-2.4000
G01 F120.00
G01 X23.3046 Y-11.7019
G01 X23.3035 Y-11.7035
G01 X23.3019 Y-11.7046
G01 X23.3000 Y-11.7050
G01 X23.2981 Y-11.7046
G01 X23.2965 Y-11.7035
G01 X23.2954 Y-11.7019
G01 X23.2950 Y-11.7000
G01 X23.2954 Y-11.6981
G01 X23.2965 Y-11.6965
G01 X23.2981 Y-11.6954
G01 X23.3000 Y-11.6950
G01 X23.3019 Y-11.6954
G01 X23.3035 Y-11.6965
G01 X23.3046 Y-11.6981
G01 X23.3050 Y-11.7000
G00 Z2.0000
G00 X17.2050 Y-11.7000
G01 F60.00
G01 Z-0.8000
G01 F120.00
G01 X17.2045 Y-11.7103
G01 X17.2030 Y-11.7205
G01 X17.2005 Y-11.7305
G01 X17.1970 Y-11.7402
G01 X17.1926 Y-11.7495
G01 X17.1873 Y-11.7583
G01 X17.1812 Y-11.7666
G01 X17.1742 Y-11.7742
G01 X17.1666 Y-11.7812
G01 X17.1583 Y-11.7873
G01 X17.1495 Y-11.7926
G01 X17.1402 Y-11.7970
G01 X17.1305 Y-11.8005
G01 X17.1205 Y-11.8030
G01 X17.1103 Y-11.8045
G01 X17.1000 Y-11.8050
G01 X17.0897 Y-11.8045
G01 X17.0795 Y-11.8030
G01 X17.0695 Y-11.8005
G01 X17.0598 Y-11.7970
G01 X17.0505 Y-11.7926
G01 X17.0417 Y-11.7873
G01 X17.0334 Y-11.7812
G01 X17.0258 Y-11.7742
G01 X17.0188 Y-11.7666
G01 X17.0127 Y-11.7583
G01 X17.0074 Y-11.7495
G01 X17.0030 Y-11.7402
G01 X16.9995 Y-11.7305
G01 X16.9970 Y-11.7205
G01 X16.9955 Y-11.7103
G01 X16.9950 Y-11.7000
G01 X16.9955 Y-11.6897
G01 X16.9970 Y-11.6795
G01 X16.9995 Y-11.6695
G01 X17.0030 Y-11.6598
G01 X17.0074 Y-11.6505
G01 X17.0127 Y-11.6417
G01 X17.0188 Y-11.6334
G01 X17.0258 Y-11.6258
G01 X17.0334 Y-11.6188
G01 X17.0417 Y-11.6127
G01 X17.0505 Y-11.6074
G01 X17.0598 Y-11.6030
G01 X17.0695 Y-11.5995
G01 X17.0795 Y-11.5970
G01 X17.0897 Y-11.5955
G01 X17.1000 Y-11.5950
G01 X17.1103 Y-11.5955
G01 X17.1205 Y-11.5970
G01 X17.1305 Y-11.5995
G01 X17.1402 Y-11.6030
G01 X17.1495 Y-11.6074
G01 X17.1583 Y-11.6127
G01 X17.1666 Y-11.6188
G01 X17.1742 Y-11.6258
G01 X17.1812 Y-11.6334
G01 X17.1873 Y-11.6417
G01 X17.1926 Y-11.6505
G01 X17.1970 Y-11.6598
G01 X17.2005 Y-11.6695
G01 X17.2030 Y-11.6795
G01 X17.2045 Y-11.6897
G01 X17.2050 Y-11.7000
G00 X17.2050 Y-11.7000
G01 F60.00
G01 Z-1.6000
G01 F120.00
G01 X17.2045 Y-11.7103
G01 X17.2030 Y-11.7205
G01 X17.2005 Y-11.7305
G01 X17.1970 Y-11.7402
G01 X17.1926 Y-11.7495
G01 X17.1873 Y-11.7583
G01 X17.1812 Y-11.7666
G01 X17.1742 Y-11.7742
G01 X17.1666 Y-11.7812
G01 X17.1583 Y-11.7873
G01 X17.1495 Y-11.7926
G01 X17.1402 Y-11.7970
G01 X17.1305 Y-11.8005
G01 X17.1205 Y-11.8030
G01 X17.1103 Y-11.8045
G01 X17.1000 Y-11.8050
G01 X17.0897 Y-11.8045
G01 X17.0795 Y-11.8030
G01 X17.0695 Y-11.8005
G01 X17.0598 Y-11.7970
G01 X17.0505 Y-11.7926
G01 X17.0417 Y-11.7873
G01 X17.0334 Y-11.7812
G01 X17.0258 Y-11.7742
G01 X17.0188 Y-11.7666
G01 X17.0127 Y-11.7583
G01 X17.0074 Y-11.7495
G01 X17.0030 Y-11.7402
G01 X16.9995 Y-11.7305
G01 X16.9970 Y-11.7205
G01 X16.9955 Y-11.7103
G01 X16.9950 Y-11.7000
G01 X16.9955 Y-11.6897
G01 X16.9970 Y-11.6795
G01 X16.9995 Y-11.6695
G01 X17.0030 Y-11.6598
G01 X17.0074 Y-11.6505
G01 X17.0127 Y-11.6417
G01 X17.0188 Y-11.6334
G01 X17.0258 Y-11.6258
G01 X17.0334 Y-11.6188
G01 X17.0417 Y-11.6127
G01 X17.0505 Y-11.6074
G01 X17.0598 Y-11.6030
G01 X17.0695 Y-11.5995
G01 X17.0795 Y-11.5970
G01 X17.0897 Y-11.5955
G01 X17.1000 Y-11.5950
G01 X17.1103 Y-11.5955
G01 X17.1205 Y-11.5970
G01 X17.1305 Y-11.5995
G01 X17.1402 Y-11.6030
G01 X17.1495 Y-11.6074
G01 X17.1583 Y-11.6127
G01 X17.1666 Y-11.6188
G01 X17.1742 Y-11.6258
G01 X17.1812 Y-11.6334
G01 X17.1873 Y-11.6417
G01 X17.1926 Y-11.6505
G01 X17.1970 Y-11.6598
G01 X17.2005 Y-11.6695
G01 X17.2030 Y-11.6795
G01 X17.2045 Y-11.6897
G01 X17.2050 Y-11.7000
G00 X17.2050 Y-11.7000
G01 F60.00
G01 Z-2.4000
G01 F120.00
G01 X17.2045 Y-11.7103
G01 X17.2030 Y-11.7205
G01 X17.2005 Y-11.7305
G01 X17.1970 Y-11.7402
G01 X17.1926 Y-11.7495
G01 X17.1873 Y-11.7583
G01 X17.1812 Y-11.7666
G01 X17.1742 Y-11.7742
G01 X17.1666 Y-11.7812
G01 X17.1583 Y-11.7873
G01 X17.1495 Y-11.7926
G01 X17.1402 Y-11.7970
G01 X17.1305 Y-11.8005
G01 X17.1205 Y-11.8030
G01 X17.1103 Y-11.8045
G01 X17.1000 Y-11.8050
G01 X17.0897 Y-11.8045
G01 X17.0795 Y-11.8030
G01 X17.0695 Y-11.8005
G01 X17.0598 Y-11.7970
G01 X17.0505 Y-11.7926
G01 X17.0417 Y-11.7873
G01 X17.0334 Y-11.7812
G01 X17.0258 Y-11.7742
G01 X17.0188 Y-11.7666
G01 X17.0127 Y-11.7583
G01 X17.0074 Y-11.7495
G01 X17.0030 Y-11.7402
G01 X16.9995 Y-11.7305
G01 X16.9970 Y-11.7205
G01 X16.9955 Y-11.7103
G01 X16.9950 Y-11.7000
G01 X16.9955 Y-11.6897
G01 X16.9970 Y-11.6795
G01 X16.9995 Y-11.6695
G01 X17.0030 Y-11.6598
G01 X17.0074 Y-11.6505
G01 X17.0127 Y-11.6417
G01 X17.0188 Y-11.6334
G01 X17.0258 Y-11.6258
G01 X17.0334 Y-11.6188
G01 X17.0417 Y-11.6127
G01 X17.0505 Y-11.6074
G01 X17.0598 Y-11.6030
G01 X17.0695 Y-11.5995
G01 X17.0795 Y-11.5970
G01 X17.0897 Y-11.5955
G01 X17.1000 Y-11.5950
G01 X17.1103 Y-11.5955
G01 X17.1205 Y-11.5970
G01 X17.1305 Y-11.5995
G01 X17.1402 Y-11.6030
G01 X17.1495 Y-11.6074
G01 X17.1583 Y-11.6127
G01 X17.1666 Y-11.6188
G01 X17.1742 Y-11.6258
G01 X17.1812 Y-11.6334
G01 X17.1873 Y-11.6417
G01 X17.1926 Y-11.6505
G01 X17.1970 Y-11.6598
G01 X17.2005 Y-11.6695
G01 X17.2030 Y-11.6795
G01 X17.2045 Y-11.6897
G01 X17.2050 Y-11.7000
G00 Z2.0000
G00 X12.2050 Y-11.7000
G01 F60.00
G01 Z-0.8000
G01 F120.00
G01 X12.2045 Y-11.7103
G01 X12.2030 Y-11.7205
G01 X12.2005 Y-11.7305
G01 X12.1970 Y-11.7402
G01 X12.1926 Y-11.7495
G01 X12.1873 Y-11.7583
G01 X12.1812 Y-11.7666
G01 X12.1742 Y-11.7742
G01 X12.1666 Y-11.7812
G01 X12.1583 Y-11.7873
G01 X12.1495 Y-11.7926
G01 X12.1402 Y-11.7970
G01 X12.1305 Y-11.8005
G01 X12.1205 Y-11.8030
G01 X12.1103 Y-11.8045
G01 X12.1000 Y-11.8050
G01 X12.0897 Y-11.8045
G01 X12.0795 Y-11.8030
G01 X12.0695 Y-11.8005
G01 X12.0598 Y-11.7970
G01 X12.0505 Y-11.7926
G01 X12.0417 Y-11.7873
G01 X12.0334 Y-11.7812
G01 X12.0258 Y-11.7742
G01 X12.0188 Y-11.7666
G01 X12.0127 Y-11.7583
G01 X12.0074 Y-11.7495
G01 X12.0030 Y-11.7402
G01 X11.9995 Y-11.7305
G01 X11.9970 Y-11.7205
G01 X11.9955 Y-11.7103
G01 X11.9950 Y-11.7000
G01 X11.9955 Y-11.6897
G01 X11.9970 Y-11.6795
G01 X11.9995 Y-11.6695
G01 X12.0030 Y-11.6598
G01 X12.0074 Y-11.6505
G01 X12.0127 Y-11.6417
G01 X12.0188 Y-11.6334
G01 X12.0258 Y-11.6258
G01 X12.0334 Y-11.6188
G01 X12.0417 Y-11.6127
G01 X12.0505 Y-11.6074
G01 X12.0598 Y-11.6030
G01 X12.0695 Y-11.5995
G01 X12.0795 Y-11.5970
G01 X12.0897 Y-11.5955
G01 X12.1000 Y-11.5950
G01 X12.1103 Y-11.5955
G01 X12.1205 Y-11.5970
G01 X12.1305 Y-11.5995
G01 X12.1402 Y-11.6030
G01 X12.1495 Y-11.6074
G01 X12.1583 Y-11.6127
G01 X12.1666 Y-11.6188
G01 X12.1742 Y-11.6258
G01 X12.1812 Y-11.6334
G01 X12.1873 Y-11.6417
G01 X12.1926 Y-11.6505
G01 X12.1970 Y-11.6598
G01 X12.2005 Y-11.6695
G01 X12.2030 Y-11.6795
G01 X12.2045 Y-11.6897
G01 X12.2050 Y-11.7000
G00 X12.2050 Y-11.7000
G01 F60.00
G01 Z-1.6000
G01 F120.00
G01 X12.2045 Y-11.7103
G01 X12.2030 Y-11.7205
G01 X12.2005 Y-11.7305
G01 X12.1970 Y-11.7402
G01 X12.1926 Y-11.7495
G01 X12.1873 Y-11.7583
G01 X12.1812 Y-11.7666
G01 X12.1742 Y-11.7742
G01 X12.1666 Y-11.7812
G01 X12.1583 Y-11.7873
G01 X12.1495 Y-11.7926
G01 X12.1402 Y-11.7970
G01 X12.1305 Y-11.8005
G01 X12.1205 Y-11.8030
G01 X12.1103 Y-11.8045
G01 X12.1000 Y-11.8050
G01 X12.0897 Y-11.8045
G01 X12.0795 Y-11.8030
G01 X12.0695 Y-11.8005
G01 X12.0598 Y-11.7970
G01 X12.0505 Y-11.7926
G01 X12.0417 Y-11.7873
G01 X12.0334 Y-11.7812
G01 X12.0258 Y-11.7742
G01 X12.0188 Y-11.7666
G01 X12.0127 Y-11.7583
G01 X12.0074 Y-11.7495
G01 X12.0030 Y-11.7402
G01 X11.9995 Y-11.7305
G01 X11.9970 Y-11.7205
G01 X11.9955 Y-11.7103
G01 X11.9950 Y-11.7000
G01 X11.9955 Y-11.6897
G01 X11.9970 Y-11.6795
G01 X11.9995 Y-11.6695
G01 X12.0030 Y-11.6598
G01 X12.0074 Y-11.6505
G01 X12.0127 Y-11.6417
G01 X12.0188 Y-11.6334
G01 X12.0258 Y-11.6258
G01 X12.0334 Y-11.6188
G01 X12.0417 Y-11.6127
G01 X12.0505 Y-11.6074
G01 X12.0598 Y-11.6030
G01 X12.0695 Y-11.5995
G01 X12.0795 Y-11.5970
G01 X12.0897 Y-11.5955
G01 X12.1000 Y-11.5950
G01 X12.1103 Y-11.5955
G01 X12.1205 Y-11.5970
G01 X12.1305 Y-11.5995
G01 X12.1402 Y-11.6030
G01 X12.1495 Y-11.6074
G01 X12.1583 Y-11.6127
G01 X12.1666 Y-11.6188
G01 X12.1742 Y-11.6258
G01 X12.1812 Y-11.6334
G01 X12.1873 Y-11.6417
G01 X12.1926 Y-11.6505
G01 X12.1970 Y-11.6598
G01 X12.2005 Y-11.6695
G01 X12.2030 Y-11.6795
G01 X12.2045 Y-11.6897
G01 X12.2050 Y-11.7000
G00 X12.2050 Y-11.7000
G01 F60.00
G01 Z-2.4000
G01 F120.00
G01 X12.2045 Y-11.7103
G01 X12.2030 Y-11.7205
G01 X12.2005 Y-11.7305
G01 X12.1970 Y-11.7402
G01 X12.1926 Y-11.7495
G01 X12.1873 Y-11.7583
G01 X12.1812 Y-11.7666
G01 X12.1742 Y-11.7742
G01 X12.1666 Y-11.7812
G01 X12.1583 Y-11.7873
G01 X12.1495 Y-11.7926
G01 X12.1402 Y-11.7970
G01 X12.1305 Y-11.8005
G01 X12.1205 Y-11.8030
G01 X12.1103 Y-11.8045
G01 X12.1000 Y-11.8050
G01 X12.0897 Y-11.8045
G01 X12.0795 Y-11.8030
G01 X12.0695 Y-11.8005
G01 X12.0598 Y-11.7970
G01 X12.0505 Y-11.7926
G01 X12.0417 Y-11.7873
G01 X12.0334 Y-11.7812
G01 X12.0258 Y-11.7742
G01 X12.0188 Y-11.7666
G01 X12.0127 Y-11.7583
G01 X12.0074 Y-11.7495
G01 X12.0030 Y-11.7402
G01 X11.9995 Y-11.7305
G01 X11.9970 Y-11.7205
G01 X11.9955 Y-11.7103
G01 X11.9950 Y-11.7000
G01 X11.9955 Y-11.6897
G01 X11.9970 Y-11.6795
G01 X11.9995 Y-11.6695
G01 X12.0030 Y-11.6598
G01 X12.0074 Y-11.6505
G01 X12.0127 Y-11.6417
G01 X12.0188 Y-11.6334
G01 X12.0258 Y-11.6258
G01 X12.0334 Y-11.6188
G01 X12.0417 Y-11.6127
G01 X12.0505 Y-11.6074
G01 X12.0598 Y-11.6030
G01 X12.0695 Y-11.5995
G01 X12.0795 Y-11.5970
G01 X12.0897 Y-11.5955
G01 X12.1000 Y-11.5950
G01 X12.1103 Y-11.5955
G01 X12.1205 Y-11.5970
G01 X12.1305 Y-11.5995
G01 X12.1402 Y-11.6030
G01 X12.1495 Y-11.6074
G01 X12.1583 Y-11.6127
G01 X12.1666 Y-11.6188
G01 X12.1742 Y-11.6258
G01 X12.1812 Y-11.6334
G01 X12.1873 Y-11.6417
G01 X12.1926 Y-11.6505
G01 X12.1970 Y-11.6598
G01 X12.2005 Y-11.6695
G01 X12.2030 Y-11.6795
G01 X12.2045 Y-11.6897
G01 X12.2050 Y-11.7000
G00 Z2.0000
G00 X5.4550 Y-13.4000
G01 F60.00
G01 Z-0.8000
G01 F120.00
G01 X5.4538 Y-13.4250
G01 X5.4501 Y-13.4497
G01 X5.4440 Y-13.4740
G01 X5.4356 Y-13.4976
G01 X5.4249 Y-13.5202
G01 X5.4120 Y-13.5417
G01 X5.3971 Y-13.5618
G01 X5.3803 Y-13.5803
G01 X5.3618 Y-13.5971
G01 X5.3417 Y-13.6120
G01 X5.3202 Y-13.6249
G01 X5.2976 Y-13.6356
G01 X5.2740 Y-13.6440
G01 X5.2497 Y-13.6501
G01 X5.2250 Y-13.6538
G01 X5.2000 Y-13.6550
G01 X5.1750 Y-13.6538
G01 X5.1503 Y-13.6501
G01 X5.1260 Y-13.6440
G01 X5.1024 Y-13.6356
G01 X5.0798 Y-13.6249
G01 X5.0583 Y-13.6120
G01 X5.0382 Y-13.5971
G01 X5.0197 Y-13.5803
G01 X5.0029 Y-13.5618
G01 X4.9880 Y-13.5417
G01 X4.9751 Y-13.5202
G01 X4.9644 Y-13.4976
G01 X4.9560 Y-13.4740
G01 X4.9499 Y-13.4497
G01 X4.9462 Y-13.4250
G01 X4.9450 Y-13.4000
G01 X4.9462 Y-13.3750
G01 X4.9499 Y-13.3503
G01 X4.9560 Y-13.3260
G01 X4.9644 Y-13.3024
G01 X4.9751 Y-13.2798
G01 X4.9880 Y-13.2583
G01 X5.0029 Y-13.2382
G01 X5.0197 Y-13.2197
G01 X5.0382 Y-13.2029
G01 X5.0583 Y-13.1880
G01 X5.0798 Y-13.1751
G01 X5.1024 Y-13.1644
G01 X5.1260 Y-13.1560
G01 X5.1503 Y-13.1499
G01 X5.1750 Y-13.1462
G01 X5.2000 Y-13.1450
G01 X5.2250 Y-13.1462
G01 X5.2497 Y-13.1499
G01 X5.2740 Y-13.1560
G01 X5.2976 Y-13.1644
G01 X5.3202 Y-13.1751
G01 X5.3417 Y-13.1880
G01 X5.3618 Y-13.2029
G01 X5.3803 Y-13.2197
G01 X5.3971 Y-13.2382
G01 X5.4120 Y-13.2583
G01 X5.4249 Y-13.2798
G01 X5.4356 Y-13.3024
G01 X5.4440 Y-13.3260
G01 X5.4501 Y-13.3503
G01 X5.4538 Y-13.3750
G01 X5.4550 Y-13.4000
G00 X5.4550 Y-13.4000
G01 F60.00
G01 Z-1.6000
G01 F120.00
G01 X5.4538 Y-13.4250
G01 X5.4501 Y-13.4497
G01 X5.4440 Y-13.4740
G01 X5.4356 Y-13.4976
G01 X5.4249 Y-13.5202
G01 X5.4120 Y-13.5417
G01 X5.3971 Y-13.5618
G01 X5.3803 Y-13.5803
G01 X5.3618 Y-13.5971
G01 X5.3417 Y-13.6120
G01 X5.3202 Y-13.6249
G01 X5.2976 Y-13.6356
G01 X5.2740 Y-13.6440
G01 X5.2497 Y-13.6501
G01 X5.2250 Y-13.6538
G01 X5.2000 Y-13.6550
G01 X5.1750 Y-13.6538
G01 X5.1503 Y-13.6501
G01 X5.1260 Y-13.6440
G01 X5.1024 Y-13.6356
G01 X5.0798 Y-13.6249
G01 X5.0583 Y-13.6120
G01 X5.0382 Y-13.5971
G01 X5.0197 Y-13.5803
G01 X5.0029 Y-13.5618
G01 X4.9880 Y-13.5417
G01 X4.9751 Y-13.5202
G01 X4.9644 Y-13.4976
G01 X4.9560 Y-13.4740
G01 X4.9499 Y-13.4497
G01 X4.9462 Y-13.4250
G01 X4.9450 Y-13.4000
G01 X4.9462 Y-13.3750
G01 X4.9499 Y-13.3503
G01 X4.9560 Y-13.3260
G01 X4.9644 Y-13.3024
G01 X4.9751 Y-13.2798
G01 X4.9880 Y-13.2583
G01 X5.0029 Y-13.2382
G01 X5.0197 Y-13.2197
G01 X5.0382 Y-13.2029
G01 X5.0583 Y-13.1880
G01 X5.0798 Y-13.1751
G01 X5.1024 Y-13.1644
G01 X5.1260 Y-13.1560
G01 X5.1503 Y-13.1499
G01 X5.1750 Y-13.1462
G01 X5.2000 Y-13.1450
G01 X5.2250 Y-13.1462
G01 X5.2497 Y-13.1499
G01 X5.2740 Y-13.1560
G01 X5.2976 Y-13.1644
G01 X5.3202 Y-13.1751
G01 X5.3417 Y-13.1880
G01 X5.3618 Y-13.2029
G01 X5.3803 Y-13.2197
G01 X5.3971 Y-13.2382
G01 X5.4120 Y-13.2583
G01 X5.4249 Y-13.2798
G01 X5.4356 Y-13.3024
G01 X5.4440 Y-13.3260
G01 X5.4501 Y-13.3503
G01 X5.4538 Y-13.3750
G01 X5.4550 Y-13.4000
G00 X5.4550 Y-13.4000
G01 F60.00
G01 Z-2.4000
G01 F120.00
G01 X5.4538 Y-13.4250
G01 X5.4501 Y-13.4497
G01 X5.4440 Y-13.4740
G01 X5.4356 Y-13.4976
G01 X5.4249 Y-13.5202
G01 X5.4120 Y-13.5417
G01 X5.3971 Y-13.5618
G01 X5.3803 Y-13.5803
G01 X5.3618 Y-13.5971
G01 X5.3417 Y-13.6120
G01 X5.3202 Y-13.6249
G01 X5.2976 Y-13.6356
G01 X5.2740 Y-13.6440
G01 X5.2497 Y-13.6501
G01 X5.2250 Y-13.6538
G01 X5.2000 Y-13.6550
G01 X5.1750 Y-13.6538
G01 X5.1503 Y-13.6501
G01 X5.1260 Y-13.6440
G01 X5.1024 Y-13.6356
G01 X5.0798 Y-13.6249
G01 X5.0583 Y-13.6120
G01 X5.0382 Y-13.5971
G01 X5.0197 Y-13.5803
G01 X5.0029 Y-13.5618
G01 X4.9880 Y-13.5417
G01 X4.9751 Y-13.5202
G01 X4.9644 Y-13.4976
G01 X4.9560 Y-13.4740
G01 X4.9499 Y-13.4497
G01 X4.9462 Y-13.4250
G01 X4.9450 Y-13.4000
G01 X4.9462 Y-13.3750
G01 X4.9499 Y-13.3503
G01 X4.9560 Y-13.3260
G01 X4.9644 Y-13.3024
G01 X4.9751 Y-13.2798
G01 X4.9880 Y-13.2583
G01 X5.0029 Y-13.2382
G01 X5.0197 Y-13.2197
G01 X5.0382 Y-13.2029
G01 X5.0583 Y-13.1880
G01 X5.0798 Y-13.1751
G01 X5.1024 Y-13.1644
G01 X5.1260 Y-13.1560
G01 X5.1503 Y-13.1499
G01 X5.1750 Y-13.1462
G01 X5.2000 Y-13.1450
G01 X5.2250 Y-13.1462
G01 X5.2497 Y-13.1499
G01 X5.2740 Y-13.1560
G01 X5.2976 Y-13.1644
G01 X5.3202 Y-13.1751
G01 X5.3417 Y-13.1880
G01 X5.3618 Y-13.2029
G01 X5.3803 Y-13.2197
G01 X5.3971 Y-13.2382
G01 X5.4120 Y-13.2583
G01 X5.4249 Y-13.2798
G01 X5.4356 Y-13.3024
G01 X5.4440 Y-13.3260
G01 X5.4501 Y-13.3503
G01 X5.4538 Y-13.3750
G01 X5.4550 Y-13.4000
G00 Z2.0000
G00 X5.4550 Y-18.4000
G01 F60.00
G01 Z-0.8000
G01 F120.00
G01 X5.4538 Y-18.4250
G01 X5.4501 Y-18.4497
G01 X5.4440 Y-18.4740
G01 X5.4356 Y-18.4976
G01 X5.4249 Y-18.5202
G01 X5.4120 Y-18.5417
G01 X5.3971 Y-18.5618
G01 X5.3803 Y-18.5803
G01 X5.3618 Y-18.5971
G01 X5.3417 Y-18.6120
G01 X5.3202 Y-18.6249
G01 X5.2976 Y-18.6356
G01 X5.2740 Y-18.6440
G01 X5.2497 Y-18.6501
G01 X5.2250 Y-18.6538
G01 X5.2000 Y-18.6550
G01 X5.1750 Y-18.6538
G01 X5.1503 Y-18.6501
G01 X5.1260 Y-18.6440
G01 X5.1024 Y-18.6356
G01 X5.0798 Y-18.6249
G01 X5.0583 Y-18.6120
G01 X5.0382 Y-18.5971
G01 X5.0197 Y-18.5803
G01 X5.0029 Y-18.5618
G01 X4.9880 Y-18.5417
G01 X4.9751 Y-18.5202
G01 X4.9644 Y-18.4976
G01 X4.9560 Y-18.4740
G01 X4.9499 Y-18.4497
G01 X4.9462 Y-18.4250
G01 X4.9450 Y-18.4000
G01 X4.9462 Y-18.3750
G01 X4.9499 Y-18.3503
G01 X4.9560 Y-18.3260
G01 X4.9644 Y-18.3024
G01 X4.9751 Y-18.2798
G01 X4.9880 Y-18.2583
G01 X5.0029 Y-18.2382
G01 X5.0197 Y-18.2197
G01 X5.0382 Y-18.2029
G01 X5.0583 Y-18.1880
G01 X5.0798 Y-18.1751
G01 X5.1024 Y-18.1644
G01 X5.1260 Y-18.1560
G01 X5.1503 Y-18.1499
G01 X5.1750 Y-18.1462
G01 X5.2000 Y-18.1450
G01 X5.2250 Y-18.1462
G01 X5.2497 Y-18.1499
G01 X5.2740 Y-18.1560
G01 X5.2976 Y-18.1644
G01 X5.3202 Y-18.1751
G01 X5.3417 Y-18.1880
G01 X5.3618 Y-18.2029
G01 X5.3803 Y-18.2197
G01 X5.3971 Y-18.2382
G01 X5.4120 Y-18.2583
G01 X5.4249 Y-18.2798
G01 X5.4356 Y-18.3024
G01 X5.4440 Y-18.3260
G01 X5.4501 Y-18.3503
G01 X5.4538 Y-18.3750
G01 X5.4550 Y-18.4000
G00 X5.4550 Y-18.4000
G01 F60.00
G01 Z-1.6000
G01 F120.00
G01 X5.4538 Y-18.4250
G01 X5.4501 Y-18.4497
G01 X5.4440 Y-18.4740
G01 X5.4356 Y-18.4976
G01 X5.4249 Y-18.5202
G01 X5.4120 Y-18.5417
G01 X5.3971 Y-18.5618
G01 X5.3803 Y-18.5803
G01 X5.3618 Y-18.5971
G01 X5.3417 Y-18.6120
G01 X5.3202 Y-18.6249
G01 X5.2976 Y-18.6356
G01 X5.2740 Y-18.6440
G01 X5.2497 Y-18.6501
G01 X5.2250 Y-18.6538
G01 X5.2000 Y-18.6550
G01 X5.1750 Y-18.6538
G01 X5.1503 Y-18.6501
G01 X5.1260 Y-18.6440
G01 X5.1024 Y-18.6356
G01 X5.0798 Y-18.6249
G01 X5.0583 Y-18.6120
G01 X5.0382 Y-18.5971
G01 X5.0197 Y-18.5803
G01 X5.0029 Y-18.5618
G01 X4.9880 Y-18.5417
G01 X4.9751 Y-18.5202
G01 X4.9644 Y-18.4976
G01 X4.9560 Y-18.4740
G01 X4.9499 Y-18.4497
G01 X4.9462 Y-18.4250
G01 X4.9450 Y-18.4000
G01 X4.9462 Y-18.3750
G01 X4.9499 Y-18.3503
G01 X4.9560 Y-18.3260
G01 X4.9644 Y-18.3024
G01 X4.9751 Y-18.2798
G01 X4.9880 Y-18.2583
G01 X5.0029 Y-18.2382
G01 X5.0197 Y-18.2197
G01 X5.0382 Y-18.2029
G01 X5.0583 Y-18.1880
G01 X5.0798 Y-18.1751
G01 X5.1024 Y-18.1644
G01 X5.1260 Y-18.1560
G01 X5.1503 Y-18.1499
G01 X5.1750 Y-18.1462
G01 X5.2000 Y-18.1450
G01 X5.2250 Y-18.1462
G01 X5.2497 Y-18.1499
G01 X5.2740 Y-18.1560
G01 X5.2976 Y-18.1644
G01 X5.3202 Y-18.1751
G01 X5.3417 Y-18.1880
G01 X5.3618 Y-18.2029
G01 X5.3803 Y-18.2197
G01 X5.3971 Y-18.2382
G01 X5.4120 Y-18.2583
G01 X5.4249 Y-18.2798
G01 X5.4356 Y-18.3024
G01 X5.4440 Y-18.3260
G01 X5.4501 Y-18.3503
G01 X5.4538 Y-18.3750
G01 X5.4550 Y-18.4000
G00 X5.4550 Y-18.4000
G01 F60.00
G01 Z-2.4000
G01 F120.00
G01 X5.4538 Y-18.4250
G01 X5.4501 Y-18.4497
G01 X5.4440 Y-18.4740
G01 X5.4356 Y-18.4976
G01 X5.4249 Y-18.5202
G01 X5.4120 Y-18.5417
G01 X5.3971 Y-18.5618
G01 X5.3803 Y-18.5803
G01 X5.3618 Y-18.5971
G01 X5.3417 Y-18.6120
G01 X5.3202 Y-18.6249
G01 X5.2976 Y-18.6356
G01 X5.2740 Y-18.6440
G01 X5.2497 Y-18.6501
G01 X5.2250 Y-18.6538
G01 X5.2000 Y-18.6550
G01 X5.1750 Y-18.6538
G01 X5.1503 Y-18.6501
G01 X5.1260 Y-18.6440
G01 X5.1024 Y-18.6356
G01 X5.0798 Y-18.6249
G01 X5.0583 Y-18.6120
G01 X5.0382 Y-18.5971
G01 X5.0197 Y-18.5803
G01 X5.0029 Y-18.5618
G01 X4.9880 Y-18.5417
G01 X4.9751 Y-18.5202
G01 X4.9644 Y-18.4976
G01 X4.9560 Y-18.4740
G01 X4.9499 Y-18.4497
G01 X4.9462 Y-18.4250
G01 X4.9450 Y-18.4000
G01 X4.9462 Y-18.3750
G01 X4.9499 Y-18.3503
G01 X4.9560 Y-18.3260
G01 X4.9644 Y-18.3024
G01 X4.9751 Y-18.2798
G01 X4.9880 Y-18.2583
G01 X5.0029 Y-18.2382
G01 X5.0197 Y-18.2197
G01 X5.0382 Y-18.2029
G01 X5.0583 Y-18.1880
G01 X5.0798 Y-18.1751
G01 X5.1024 Y-18.1644
G01 X5.1260 Y-18.1560
G01 X5.1503 Y-18.1499
G01 X5.1750 Y-18.1462
G01 X5.2000 Y-18.1450
G01 X5.2250 Y-18.1462
G01 X5.2497 Y-18.1499
G01 X5.2740 Y-18.1560
G01 X5.2976 Y-18.1644
G01 X5.3202 Y-18.1751
G01 X5.3417 Y-18.1880
G01 X5.3618 Y-18.2029
G01 X5.3803 Y-18.2197
G01 X5.3971 Y-18.2382
G01 X5.4120 Y-18.2583
G01 X5.4249 Y-18.2798
G01 X5.4356 Y-18.3024
G01 X5.4440 Y-18.3260
G01 X5.4501 Y-18.3503
G01 X5.4538 Y-18.3750
G01 X5.4550 Y-18.4000
G00 Z2.0000
G00 X3.5050 Y-21.5000
G01 F60.00
G01 Z-0.8000
G01 F120.00
G01 X3.5046 Y-21.5019
G01 X3.5035 Y-21.5035
G01 X3.5019 Y-21.5046
G01 X3.5000 Y-21.5050
G01 X3.4981 Y-21.5046
G01 X3.4965 Y-21.5035
G01 X3.4954 Y-21.5019
G01 X3.4950 Y-21.5000
G01 X3.4954 Y-21.4981
G01 X3.4965 Y-21.4965
G01 X3.4981 Y-21.4954
G01 X3.5000 Y-21.4950
G01 X3.5019 Y-21.4954
G01 X3.5035 Y-21.4965
G01 X3.5046 Y-21.4981
G01 X3.5050 Y-21.5000
G00 X3.5050 Y-21.5000
G01 F60.00
G01 Z-1.6000
G01 F120.00
G01 X3.5046 Y-21.5019
G01 X3.5035 Y-21.5035
G01 X3.5019 Y-21.5046
G01 X3.5000 Y-21.5050
G01 X3.4981 Y-21.5046
G01 X3.4965 Y-21.5035
G01 X3.4954 Y-21.5019
G01 X3.4950 Y-21.5000
G01 X3.4954 Y-21.4981
G01 X3.4965 Y-21.4965
G01 X3.4981 Y-21.4954
G01 X3.5000 Y-21.4950
G01 X3.5019 Y-21.4954
G01 X3.5035 Y-21.4965
G01 X3.5046 Y-21.4981
G01 X3.5050 Y-21.5000
G00 X3.5050 Y-21.5000
G01 F60.00
G01 Z-2.4000
G01 F120.00
G01 X3.5046 Y-21.5019
G01 X3.5035 Y-21.5035
G01 X3.5019 Y-21.5046
G01 X3.5000 Y-21.5050
G01 X3.4981 Y-21.5046
G01 X3.4965 Y-21.5035
G01 X3.4954 Y-21.5019
G01 X3.4950 Y-21.5000
G01 X3.4954 Y-21.4981
G01 X3.4965 Y-21.4965
G01 X3.4981 Y-21.4954
G01 X3.5000 Y-21.4950
G01 X3.5019 Y-21.4954
G01 X3.5035 Y-21.4965
G01 X3.5046 Y-21.4981
G01 X3.5050 Y-21.5000
G00 Z2.0000
G00 X5.3050 Y-27.2000
G01 F60.00
G01 Z-0.8000
G01 F120.00
G01 X5.2992 Y-27.3181
G01 X5.2818 Y-27.4351
G01 X5.2531 Y-27.5498
G01 X5.2133 Y-27.6611
G01 X5.1627 Y-27.7680
G01 X5.1019 Y-27.8695
G01 X5.0315 Y-27.9644
G01 X4.9521 Y-28.0521
G01 X4.8644 Y-28.1315
G01 X4.7695 Y-28.2019
G01 X4.6680 Y-28.2627
G01 X4.5611 Y-28.3133
G01 X4.4498 Y-28.3531
G01 X4.3351 Y-28.3818
G01 X4.2181 Y-28.3992
G01 X4.1000 Y-28.4050
G01 X3.9819 Y-28.3992
G01 X3.8649 Y-28.3818
G01 X3.7502 Y-28.3531
G01 X3.6389 Y-28.3133
G01 X3.5320 Y-28.2627
G01 X3.4305 Y-28.2019
G01 X3.3356 Y-28.1315
G01 X3.2479 Y-28.0521
G01 X3.1685 Y-27.9644
G01 X3.0981 Y-27.8695
G01 X3.0373 Y-27.7680
G01 X2.9867 Y-27.6611
G01 X2.9469 Y-27.5498
G01 X2.9182 Y-27.4351
G01 X2.9008 Y-27.3181
G01 X2.8950 Y-27.2000
G01 X2.9008 Y-27.0819
G01 X2.9182 Y-26.9649
G01 X2.9469 Y-26.8502
G01 X2.9867 Y-26.7389
G01 X3.0373 Y-26.6320
G01 X3.0981 Y-26.5305
G01 X3.1685 Y-26.4356
G01 X3.2479 Y-26.3479
G01 X3.3356 Y-26.2685
G01 X3.4305 Y-26.1981
G01 X3.5320 Y-26.1373
G01 X3.6389 Y-26.0867
G01 X3.7502 Y-26.0469
G01 X3.8649 Y-26.0182
G01 X3.9819 Y-26.0008
G01 X4.1000 Y-25.9950
G01 X4.2181 Y-26.0008
G01 X4.3351 Y-26.0182
G01 X4.4498 Y-26.0469
G01 X4.5611 Y-26.0867
G01 X4.6680 Y-26.1373
G01 X4.7695 Y-26.1981
G01 X4.8644 Y-26.2685
G01 X4.9521 Y-26.3479
G01 X5.0315 Y-26.4356
G01 X5.1019 Y-26.5305
G01 X5.1627 Y-26.6320
G01 X5.2133 Y-26.7389
G01 X5.2531 Y-26.8502
G01 X5.2818 Y-26.9649
G01 X5.2992 Y-27.0819
G01 X5.3050 Y-27.2000
G00 X5.3050 Y-27.2000
G01 F60.00
G01 Z-1.6000
G01 F120.00
G01 X5.2992 Y-27.3181
G01 X5.2818 Y-27.4351
G01 X5.2531 Y-27.5498
G01 X5.2133 Y-27.6611
G01 X5.1627 Y-27.7680
G01 X5.1019 Y-27.8695
G01 X5.0315 Y-27.9644
G01 X4.9521 Y-28.0521
G01 X4.8644 Y-28.1315
G01 X4.7695 Y-28.2019
G01 X4.6680 Y-28.2627
G01 X4.5611 Y-28.3133
G01 X4.4498 Y-28.3531
G01 X4.3351 Y-28.3818
G01 X4.2181 Y-28.3992
G01 X4.1000 Y-28.4050
G01 X3.9819 Y-28.3992
G01 X3.8649 Y-28.3818
G01 X3.7502 Y-28.3531
G01 X3.6389 Y-28.3133
G01 X3.5320 Y-28.2627
G01 X3.4305 Y-28.2019
G01 X3.3356 Y-28.1315
G01 X3.2479 Y-28.0521
G01 X3.1685 Y-27.9644
G01 X3.0981 Y-27.8695
G01 X3.0373 Y-27.7680
G01 X2.9867 Y-27.6611
G01 X2.9469 Y-27.5498
G01 X2.9182 Y-27.4351
G01 X2.9008 Y-27.3181
G01 X2.8950 Y-27.2000
G01 X2.9008 Y-27.0819
G01 X2.9182 Y-26.9649
G01 X2.9469 Y-26.8502
G01 X2.9867 Y-26.7389
G01 X3.0373 Y-26.6320
G01 X3.0981 Y-26.5305
G01 X3.1685 Y-26.4356
G01 X3.2479 Y-26.3479
G01 X3.3356 Y-26.2685
G01 X3.4305 Y-26.1981
G01 X3.5320 Y-26.1373
G01 X3.6389 Y-26.0867
G01 X3.7502 Y-26.0469
G01 X3.8649 Y-26.0182
G01 X3.9819 Y-26.0008
G01 X4.1000 Y-25.9950
G01 X4.2181 Y-26.0008
G01 X4.3351 Y-26.0182
G01 X4.4498 Y-26.0469
G01 X4.5611 Y-26.0867
G01 X4.6680 Y-26.1373
G01 X4.7695 Y-26.1981
G01 X4.8644 Y-26.2685
G01 X4.9521 Y-26.3479
G01 X5.0315 Y-26.4356
G01 X5.1019 Y-26.5305
G01 X5.1627 Y-26.6320
G01 X5.2133 Y-26.7389
G01 X5.2531 Y-26.8502
G01 X5.2818 Y-26.9649
G01 X5.2992 Y-27.0819
G01 X5.3050 Y-27.2000
G00 X5.3050 Y-27.2000
G01 F60.00
G01 Z-2.4000
G01 F120.00
G01 X5.2992 Y-27.3181
G01 X5.2818 Y-27.4351
G01 X5.2531 Y-27.5498
G01 X5.2133 Y-27.6611
G01 X5.1627 Y-27.7680
G01 X5.1019 Y-27.8695
G01 X5.0315 Y-27.9644
G01 X4.9521 Y-28.0521
G01 X4.8644 Y-28.1315
G01 X4.7695 Y-28.2019
G01 X4.6680 Y-28.2627
G01 X4.5611 Y-28.3133
G01 X4.4498 Y-28.3531
G01 X4.3351 Y-28.3818
G01 X4.2181 Y-28.3992
G01 X4.1000 Y-28.4050
G01 X3.9819 Y-28.3992
G01 X3.8649 Y-28.3818
G01 X3.7502 Y-28.3531
G01 X3.6389 Y-28.3133
G01 X3.5320 Y-28.2627
G01 X3.4305 Y-28.2019
G01 X3.3356 Y-28.1315
G01 X3.2479 Y-28.0521
G01 X3.1685 Y-27.9644
G01 X3.0981 Y-27.8695
G01 X3.0373 Y-27.7680
G01 X2.9867 Y-27.6611
G01 X2.9469 Y-27.5498
G01 X2.9182 Y-27.4351
G01 X2.9008 Y-27.3181
G01 X2.8950 Y-27.2000
G01 X2.9008 Y-27.0819
G01 X2.9182 Y-26.9649
G01 X2.9469 Y-26.8502
G01 X2.9867 Y-26.7389
G01 X3.0373 Y-26.6320
G01 X3.0981 Y-26.5305
G01 X3.1685 Y-26.4356
G01 X3.2479 Y-26.3479
G01 X3.3356 Y-26.2685
G01 X3.4305 Y-26.1981
G01 X3.5320 Y-26.1373
G01 X3.6389 Y-26.0867
G01 X3.7502 Y-26.0469
G01 X3.8649 Y-26.0182
G01 X3.9819 Y-26.0008
G01 X4.1000 Y-25.9950
G01 X4.2181 Y-26.0008
G01 X4.3351 Y-26.0182
G01 X4.4498 Y-26.0469
G01 X4.5611 Y-26.0867
G01 X4.6680 Y-26.1373
G01 X4.7695 Y-26.1981
G01 X4.8644 Y-26.2685
G01 X4.9521 Y-26.3479
G01 X5.0315 Y-26.4356
G01 X5.1019 Y-26.5305
G01 X5.1627 Y-26.6320
G01 X5.2133 Y-26.7389
G01 X5.2531 Y-26.8502
G01 X5.2818 Y-26.9649
G01 X5.2992 Y-27.0819
G01 X5.3050 Y-27.2000
G00 Z2.0000
G00 X31.5370 Y-11.7000
G01 F60.00
G01 Z-0.8000
G01 F120.00
G01 X31.5365 Y-11.7103
G01 X31.5350 Y-11.7205
G01 X31.5325 Y-11.7305
G01 X31.5290 Y-11.7402
G01 X31.5246 Y-11.7495
G01 X31.5193 Y-11.7583
G01 X31.5132 Y-11.7666
G01 X31.5062 Y-11.7742
G01 X31.4986 Y-11.7812
G01 X31.4903 Y-11.7873
G01 X31.4815 Y-11.7926
G01 X31.4722 Y-11.7970
G01 X31.4625 Y-11.8005
G01 X31.4525 Y-11.8030
G01 X31.4423 Y-11.8045
G01 X31.4320 Y-11.8050
G01 X31.4217 Y-11.8045
G01 X31.4115 Y-11.8030
G01 X31.4015 Y-11.8005
G01 X31.3918 Y-11.7970
G01 X31.3825 Y-11.7926
G01 X31.3737 Y-11.7873
G01 X31.3654 Y-11.7812
G01 X31.3578 Y-11.7742
G01 X31.3508 Y-11.7666
G01 X31.3447 Y-11.7583
G01 X31.3394 Y-11.7495
G01 X31.3350 Y-11.7402
G01 X31.3315 Y-11.7305
G01 X31.3290 Y-11.7205
G01 X31.3275 Y-11.7103
G01 X31.3270 Y-11.7000
G01 X31.3275 Y-11.6897
G01 X31.3290 Y-11.6795
G01 X31.3315 Y-11.6695
G01 X31.3350 Y-11.6598
G01 X31.3394 Y-11.6505
G01 X31.3447 Y-11.6417
G01 X31.3508 Y-11.6334
G01 X31.3578 Y-11.6258
G01 X31.3654 Y-11.6188
G01 X31.3737 Y-11.6127
G01 X31.3825 Y-11.6074
G01 X31.3918 Y-11.6030
G01 X31.4015 Y-11.5995
G01 X31.4115 Y-11.5970
G01 X31.4217 Y-11.5955
G01 X31.4320 Y-11.5950
G01 X31.4423 Y-11.5955
G01 X31.4525 Y-11.5970
G01 X31.4625 Y-11.5995
G01 X31.4722 Y-11.6030
G01 X31.4815 Y-11.6074
G01 X31.4903 Y-11.6127
G01 X31.4986 Y-11.6188
G01 X31.5062 Y-11.6258
G01 X31.5132 Y-11.6334
G01 X31.5193 Y-11.6417
G01 X31.5246 Y-11.6505
G01 X31.5290 Y-11.6598
G01 X31.5325 Y-11.6695
G01 X31.5350 Y-11.6795
G01 X31.5365 Y-11.6897
G01 X31.5370 Y-11.7000
G00 X31.5370 Y-11.7000
G01 F60.00
G01 Z-1.6000
G01 F120.00
G01 X31.5365 Y-11.7103
G01 X31.5350 Y-11.7205
G01 X31.5325 Y-11.7305
G01 X31.5290 Y-11.7402
G01 X31.5246 Y-11.7495
G01 X31.5193 Y-11.7583
G01 X31.5132 Y-11.7666
G01 X31.5062 Y-11.7742
G01 X31.4986 Y-11.7812
G01 X31.4903 Y-11.7873
G01 X31.4815 Y-11.7926
G01 X31.4722 Y-11.7970
G01 X31.4625 Y-11.8005
G01 X31.4525 Y-11.8030
G01 X31.4423 Y-11.8045
G01 X31.4320 Y-11.8050
G01 X31.4217 Y-11.8045
G01 X31.4115 Y-11.8030
G01 X31.4015 Y-11.8005
G01 X31.3918 Y-11.7970
G01 X31.3825 Y-11.7926
G01 X31.3737 Y-11.7873
G01 X31.3654 Y-11.7812
G01 X31.3578 Y-11.7742
G01 X31.3508 Y-11.7666
G01 X31.3447 Y-11.7583
G01 X31.3394 Y-11.7495
G01 X31.3350 Y-11.7402
G01 X31.3315 Y-11.7305
G01 X31.3290 Y-11.7205
G01 X31.3275 Y-11.7103
G01 X31.3270 Y-11.7000
G01 X31.3275 Y-11.6897
G01 X31.3290 Y-11.6795
G01 X31.3315 Y-11.6695
G01 X31.3350 Y-11.6598
G01 X31.3394 Y-11.6505
G01 X31.3447 Y-11.6417
G01 X31.3508 Y-11.6334
G01 X31.3578 Y-11.6258
G01 X31.3654 Y-11.6188
G01 X31.3737 Y-11.6127
G01 X31.3825 Y-11.6074
G01 X31.3918 Y-11.6030
G01 X31.4015 Y-11.5995
G01 X31.4115 Y-11.5970
G01 X31.4217 Y-11.5955
G01 X31.4320 Y-11.5950
G01 X31.4423 Y-11.5955
G01 X31.4525 Y-11.5970
G01 X31.4625 Y-11.5995
G01 X31.4722 Y-11.6030
G01 X31.4815 Y-11.6074
G01 X31.4903 Y-11.6127
G01 X31.4986 Y-11.6188
G01 X31.5062 Y-11.6258
G01 X31.5132 Y-11.6334
G01 X31.5193 Y-11.6417
G01 X31.5246 Y-11.6505
G01 X31.5290 Y-11.6598
G01 X31.5325 Y-11.6695
G01 X31.5350 Y-11.6795
G01 X31.5365 Y-11.6897
G01 X31.5370 Y-11.7000
G00 X31.5370 Y-11.7000
G01 F60.00
G01 Z-2.4000
G01 F120.00
G01 X31.5365 Y-11.7103
G01 X31.5350 Y-11.7205
G01 X31.5325 Y-11.7305
G01 X31.5290 Y-11.7402
G01 X31.5246 Y-11.7495
G01 X31.5193 Y-11.7583
G01 X31.5132 Y-11.7666
G01 X31.5062 Y-11.7742
G01 X31.4986 Y-11.7812
G01 X31.4903 Y-11.7873
G01 X31.4815 Y-11.7926
G01 X31.4722 Y-11.7970
G01 X31.4625 Y-11.8005
G01 X31.4525 Y-11.8030
G01 X31.4423 Y-11.8045
G01 X31.4320 Y-11.8050
G01 X31.4217 Y-11.8045
G01 X31.4115 Y-11.8030
G01 X31.4015 Y-11.8005
G01 X31.3918 Y-11.7970
G01 X31.3825 Y-11.7926
G01 X31.3737 Y-11.7873
G01 X31.3654 Y-11.7812
G01 X31.3578 Y-11.7742
G01 X31.3508 Y-11.7666
G01 X31.3447 Y-11.7583
G01 X31.3394 Y-11.7495
G01 X31.3350 Y-11.7402
G01 X31.3315 Y-11.7305
G01 X31.3290 Y-11.7205
G01 X31.3275 Y-11.7103
G01 X31.3270 Y-11.7000
G01 X31.3275 Y-11.6897
G01 X31.3290 Y-11.6795
G01 X31.3315 Y-11.6695
G01 X31.3350 Y-11.6598
G01 X31.3394 Y-11.6505
G01 X31.3447 Y-11.6417
G01 X31.3508 Y-11.6334
G01 X31.3578 Y-11.6258
G01 X31.3654 Y-11.6188
G01 X31.3737 Y-11.6127
G01 X31.3825 Y-11.6074
G01 X31.3918 Y-11.6030
G01 X31.4015 Y-11.5995
G01 X31.4115 Y-11.5970
G01 X31.4217 Y-11.5955
G01 X31.4320 Y-11.5950
G01 X31.4423 Y-11.5955
G01 X31.4525 Y-11.5970
G01 X31.4625 Y-11.5995
G01 X31.4722 Y-11.6030
G01 X31.4815 Y-11.6074
G01 X31.4903 Y-11.6127
G01 X31.4986 Y-11.6188
G01 X31.5062 Y-11.6258
G01 X31.5132 Y-11.6334
G01 X31.5193 Y-11.6417
G01 X31.5246 Y-11.6505
G01 X31.5290 Y-11.6598
G01 X31.5325 Y-11.6695
G01 X31.5350 Y-11.6795
G01 X31.5365 Y-11.6897
G01 X31.5370 Y-11.7000
G00 Z2.0000
G00 X36.5370 Y-11.7000
G01 F60.00
G01 Z-0.8000
G01 F120.00
G01 X36.5365 Y-11.7103
G01 X36.5350 Y-11.7205
G01 X36.5325 Y-11.7305
G01 X36.5290 Y-11.7402
G01 X36.5246 Y-11.7495
G01 X36.5193 Y-11.7583
G01 X36.5132 Y-11.7666
G01 X36.5062 Y-11.7742
G01 X36.4986 Y-11.7812
G01 X36.4903 Y-11.7873
G01 X36.4815 Y-11.7926
G01 X36.4722 Y-11.7970
G01 X36.4625 Y-11.8005
G01 X36.4525 Y-11.8030
G01 X36.4423 Y-11.8045
G01 X36.4320 Y-11.8050
G01 X36.4217 Y-11.8045
G01 X36.4115 Y-11.8030
G01 X36.4015 Y-11.8005
G01 X36.3918 Y-11.7970
G01 X36.3825 Y-11.7926
G01 X36.3737 Y-11.7873
G01 X36.3654 Y-11.7812
G01 X36.3578 Y-11.7742
G01 X36.3508 Y-11.7666
G01 X36.3447 Y-11.7583
G01 X36.3394 Y-11.7495
G01 X36.3350 Y-11.7402
G01 X36.3315 Y-11.7305
G01 X36.3290 Y-11.7205
G01 X36.3275 Y-11.7103
G01 X36.3270 Y-11.7000
G01 X36.3275 Y-11.6897
G01 X36.3290 Y-11.6795
G01 X36.3315 Y-11.6695
G01 X36.3350 Y-11.6598
G01 X36.3394 Y-11.6505
G01 X36.3447 Y-11.6417
G01 X36.3508 Y-11.6334
G01 X36.3578 Y-11.6258
G01 X36.3654 Y-11.6188
G01 X36.3737 Y-11.6127
G01 X36.3825 Y-11.6074
G01 X36.3918 Y-11.6030
G01 X36.4015 Y-11.5995
G01 X36.4115 Y-11.5970
G01 X36.4217 Y-11.5955
G01 X36.4320 Y-11.5950
G01 X36.4423 Y-11.5955
G01 X36.4525 Y-11.5970
G01 X36.4625 Y-11.5995
G01 X36.4722 Y-11.6030
G01 X36.4815 Y-11.6074
G01 X36.4903 Y-11.6127
G01 X36.4986 Y-11.6188
G01 X36.5062 Y-11.6258
G01 X36.5132 Y-11.6334
G01 X36.5193 Y-11.6417
G01 X36.5246 Y-11.6505
G01 X36.5290 Y-11.6598
G01 X36.5325 Y-11.6695
G01 X36.5350 Y-11.6795
G01 X36.5365 Y-11.6897
G01 X36.5370 Y-11.7000
G00 X36.5370 Y-11.7000
G01 F60.00
G01 Z-1.6000
G01 F120.00
G01 X36.5365 Y-11.7103
G01 X36.5350 Y-11.7205
G01 X36.5325 Y-11.7305
G01 X36.5290 Y-11.7402
G01 X36.5246 Y-11.7495
G01 X36.5193 Y-11.7583
G01 X36.5132 Y-11.7666
G01 X36.5062 Y-11.7742
G01 X36.4986 Y-11.7812
G01 X36.4903 Y-11.7873
G01 X36.4815 Y-11.7926
G01 X36.4722 Y-11.7970
G01 X36.4625 Y-11.8005
G01 X36.4525 Y-11.8030
G01 X36.4423 Y-11.8045
G01 X36.4320 Y-11.8050
G01 X36.4217 Y-11.8045
G01 X36.4115 Y-11.8030
G01 X36.4015 Y-11.8005
G01 X36.3918 Y-11.7970
G01 X36.3825 Y-11.7926
G01 X36.3737 Y-11.7873
G01 X36.3654 Y-11.7812
G01 X36.3578 Y-11.7742
G01 X36.3508 Y-11.7666
G01 X36.3447 Y-11.7583
G01 X36.3394 Y-11.7495
G01 X36.3350 Y-11.7402
G01 X36.3315 Y-11.7305
G01 X36.3290 Y-11.7205
G01 X36.3275 Y-11.7103
G01 X36.3270 Y-11.7000
G01 X36.3275 Y-11.6897
G01 X36.3290 Y-11.6795
G01 X36.3315 Y-11.6695
G01 X36.3350 Y-11.6598
G01 X36.3394 Y-11.6505
G01 X36.3447 Y-11.6417
G01 X36.3508 Y-11.6334
G01 X36.3578 Y-11.6258
G01 X36.3654 Y-11.6188
G01 X36.3737 Y-11.6127
G01 X36.3825 Y-11.6074
G01 X36.3918 Y-11.6030
G01 X36.4015 Y-11.5995
G01 X36.4115 Y-11.5970
G01 X36.4217 Y-11.5955
G01 X36.4320 Y-11.5950
G01 X36.4423 Y-11.5955
G01 X36.4525 Y-11.5970
G01 X36.4625 Y-11.5995
G01 X36.4722 Y-11.6030
G01 X36.4815 Y-11.6074
G01 X36.4903 Y-11.6127
G01 X36.4986 Y-11.6188
G01 X36.5062 Y-11.6258
G01 X36.5132 Y-11.6334
G01 X36.5193 Y-11.6417
G01 X36.5246 Y-11.6505
G01 X36.5290 Y-11.6598
G01 X36.5325 Y-11.6695
G01 X36.5350 Y-11.6795
G01 X36.5365 Y-11.6897
G01 X36.5370 Y-11.7000
G00 X36.5370 Y-11.7000
G01 F60.00
G01 Z-2.4000
G01 F120.00
G01 X36.5365 Y-11.7103
G01 X36.5350 Y-11.7205
G01 X36.5325 Y-11.7305
G01 X36.5290 Y-11.7402
G01 X36.5246 Y-11.7495
G01 X36.5193 Y-11.7583
G01 X36.5132 Y-11.7666
G01 X36.5062 Y-11.7742
G01 X36.4986 Y-11.7812
G01 X36.4903 Y-11.7873
G01 X36.4815 Y-11.7926
G01 X36.4722 Y-11.7970
G01 X36.4625 Y-11.8005
G01 X36.4525 Y-11.8030
G01 X36.4423 Y-11.8045
G01 X36.4320 Y-11.8050
G01 X36.4217 Y-11.8045
G01 X36.4115 Y-11.8030
G01 X36.4015 Y-11.8005
G01 X36.3918 Y-11.7970
G01 X36.3825 Y-11.7926
G01 X36.3737 Y-11.7873
G01 X36.3654 Y-11.7812
G01 X36.3578 Y-11.7742
G01 X36.3508 Y-11.7666
G01 X36.3447 Y-11.7583
G01 X36.3394 Y-11.7495
G01 X36.3350 Y-11.7402
G01 X36.3315 Y-11.7305
G01 X36.3290 Y-11.7205
G01 X36.3275 Y-11.7103
G01 X36.3270 Y-11.7000
G01 X36.3275 Y-11.6897
G01 X36.3290 Y-11.6795
G01 X36.3315 Y-11.6695
G01 X36.3350 Y-11.6598
G01 X36.3394 Y-11.6505
G01 X36.3447 Y-11.6417
G01 X36.3508 Y-11.6334
G01 X36.3578 Y-11.6258
G01 X36.3654 Y-11.6188
G01 X36.3737 Y-11.6127
G01 X36.3825 Y-11.6074
G01 X36.3918 Y-11.6030
G01 X36.4015 Y-11.5995
G01 X36.4115 Y-11.5970
G01 X36.4217 Y-11.5955
G01 X36.4320 Y-11.5950
G01 X36.4423 Y-11.5955
G01 X36.4525 Y-11.5970
G01 X36.4625 Y-11.5995
G01 X36.4722 Y-11.6030
G01 X36.4815 Y-11.6074
G01 X36.4903 Y-11.6127
G01 X36.4986 Y-11.6188
G01 X36.5062 Y-11.6258
G01 X36.5132 Y-11.6334
G01 X36.5193 Y-11.6417
G01 X36.5246 Y-11.6505
G01 X36.5290 Y-11.6598
G01 X36.5325 Y-11.6695
G01 X36.5350 Y-11.6795
G01 X36.5365 Y-11.6897
G01 X36.5370 Y-11.7000
G00 Z2.0000
G00 X34.4550 Y-4.8000
G01 F60.00
G01 Z-0.8000
G01 F120.00
G01 X34.4538 Y-4.8250
G01 X34.4501 Y-4.8497
G01 X34.4440 Y-4.8740
G01 X34.4356 Y-4.8976
G01 X34.4249 Y-4.9202
G01 X34.4120 Y-4.9417
G01 X34.3971 Y-4.9618
G01 X34.3803 Y-4.9803
G01 X34.3618 Y-4.9971
G01 X34.3417 Y-5.0120
G01 X34.3202 Y-5.0249
G01 X34.2976 Y-5.0356
G01 X34.2740 Y-5.0440
G01 X34.2497 Y-5.0501
G01 X34.2250 Y-5.0538
G01 X34.2000 Y-5.0550
G01 X34.1750 Y-5.0538
G01 X34.1503 Y-5.0501
G01 X34.1260 Y-5.0440
G01 X34.1024 Y-5.0356
G01 X34.0798 Y-5.0249
G01 X34.0583 Y-5.0120
G01 X34.0382 Y-4.9971
G01 X34.0197 Y-4.9803
G01 X34.0029 Y-4.9618
G01 X33.9880 Y-4.9417
G01 X33.9751 Y-4.9202
G01 X33.9644 Y-4.8976
G01 X33.9560 Y-4.8740
G01 X33.9499 Y-4.8497
G01 X33.9462 Y-4.8250
G01 X33.9450 Y-4.8000
G01 X33.9462 Y-4.7750
G01 X33.9499 Y-4.7503
G01 X33.9560 Y-4.7260
G01 X33.9644 Y-4.7024
G01 X33.9751 Y-4.6798
G01 X33.9880 Y-4.6583
G01 X34.0029 Y-4.6382
G01 X34.0197 Y-4.6197
G01 X34.0382 Y-4.6029
G01 X34.0583 Y-4.5880
G01 X34.0798 Y-4.5751
G01 X34.1024 Y-4.5644
G01 X34.1260 Y-4.5560
G01 X34.1503 Y-4.5499
G01 X34.1750 Y-4.5462
G01 X34.2000 Y-4.5450
G01 X34.2250 Y-4.5462
G01 X34.2497 Y-4.5499
G01 X34.2740 Y-4.5560
G01 X34.2976 Y-4.5644
G01 X34.3202 Y-4.5751
G01 X34.3417 Y-4.5880
G01 X34.3618 Y-4.6029
G01 X34.3803 Y-4.6197
G01 X34.3971 Y-4.6382
G01 X34.4120 Y-4.6583
G01 X34.4249 Y-4.6798
G01 X34.4356 Y-4.7024
G01 X34.4440 Y-4.7260
G01 X34.4501 Y-4.7503
G01 X34.4538 Y-4.7750
G01 X34.4550 Y-4.8000
G00 X34.4550 Y-4.8000
G01 F60.00
G01 Z-1.6000
G01 F120.00
G01 X34.4538 Y-4.8250
G01 X34.4501 Y-4.8497
G01 X34.4440 Y-4.8740
G01 X34.4356 Y-4.8976
G01 X34.4249 Y-4.9202
G01 X34.4120 Y-4.9417
G01 X34.3971 Y-4.9618
G01 X34.3803 Y-4.9803
G01 X34.3618 Y-4.9971
G01 X34.3417 Y-5.0120
G01 X34.3202 Y-5.0249
G01 X34.2976 Y-5.0356
G01 X34.2740 Y-5.0440
G01 X34.2497 Y-5.0501
G01 X34.2250 Y-5.0538
G01 X34.2000 Y-5.0550
G01 X34.1750 Y-5.0538
G01 X34.1503 Y-5.0501
G01 X34.1260 Y-5.0440
G01 X34.1024 Y-5.0356
G01 X34.0798 Y-5.0249
G01 X34.0583 Y-5.0120
G01 X34.0382 Y-4.9971
G01 X34.0197 Y-4.9803
G01 X34.0029 Y-4.9618
G01 X33.9880 Y-4.9417
G01 X33.9751 Y-4.9202
G01 X33.9644 Y-4.8976
G01 X33.9560 Y-4.8740
G01 X33.9499 Y-4.8497
G01 X33.9462 Y-4.8250
G01 X33.9450 Y-4.8000
G01 X33.9462 Y-4.7750
G01 X33.9499 Y-4.7503
G01 X33.9560 Y-4.7260
G01 X33.9644 Y-4.7024
G01 X33.9751 Y-4.6798
G01 X33.9880 Y-4.6583
G01 X34.0029 Y-4.6382
G01 X34.0197 Y-4.6197
G01 X34.0382 Y-4.6029
G01 X34.0583 Y-4.5880
G01 X34.0798 Y-4.5751
G01 X34.1024 Y-4.5644
G01 X34.1260 Y-4.5560
G01 X34.1503 Y-4.5499
G01 X34.1750 Y-4.5462
G01 X34.2000 Y-4.5450
G01 X34.2250 Y-4.5462
G01 X34.2497 Y-4.5499
G01 X34.2740 Y-4.5560
G01 X34.2976 Y-4.5644
G01 X34.3202 Y-4.5751
G01 X34.3417 Y-4.5880
G01 X34.3618 Y-4.6029
G01 X34.3803 Y-4.6197
G01 X34.3971 Y-4.6382
G01 X34.4120 Y-4.6583
G01 X34.4249 Y-4.6798
G01 X34.4356 Y-4.7024
G01 X34.4440 Y-4.7260
G01 X34.4501 Y-4.7503
G01 X34.4538 Y-4.7750
G01 X34.4550 Y-4.8000
G00 X34.4550 Y-4.8000
G01 F60.00
G01 Z-2.4000
G01 F120.00
G01 X34.4538 Y-4.8250
G01 X34.4501 Y-4.8497
G01 X34.4440 Y-4.8740
G01 X34.4356 Y-4.8976
G01 X34.4249 Y-4.9202
G01 X34.4120 Y-4.9417
G01 X34.3971 Y-4.9618
G01 X34.3803 Y-4.9803
G01 X34.3618 Y-4.9971
G01 X34.3417 Y-5.0120
G01 X34.3202 Y-5.0249
G01 X34.2976 Y-5.0356
G01 X34.2740 Y-5.0440
G01 X34.2497 Y-5.0501
G01 X34.2250 Y-5.0538
G01 X34.2000 Y-5.0550
G01 X34.1750 Y-5.0538
G01 X34.1503 Y-5.0501
G01 X34.1260 Y-5.0440
G01 X34.1024 Y-5.0356
G01 X34.0798 Y-5.0249
G01 X34.0583 Y-5.0120
G01 X34.0382 Y-4.9971
G01 X34.0197 Y-4.9803
G01 X34.0029 Y-4.9618
G01 X33.9880 Y-4.9417
G01 X33.9751 Y-4.9202
G01 X33.9644 Y-4.8976
G01 X33.9560 Y-4.8740
G01 X33.9499 Y-4.8497
G01 X33.9462 Y-4.8250
G01 X33.9450 Y-4.8000
G01 X33.9462 Y-4.7750
G01 X33.9499 Y-4.7503
G01 X33.9560 Y-4.7260
G01 X33.9644 Y-4.7024
G01 X33.9751 Y-4.6798
G01 X33.9880 Y-4.6583
G01 X34.0029 Y-4.6382
G01 X34.0197 Y-4.6197
G01 X34.0382 Y-4.6029
G01 X34.0583 Y-4.5880
G01 X34.0798 Y-4.5751
G01 X34.1024 Y-4.5644
G01 X34.1260 Y-4.5560
G01 X34.1503 Y-4.5499
G01 X34.1750 Y-4.5462
G01 X34.2000 Y-4.5450
G01 X34.2250 Y-4.5462
G01 X34.2497 Y-4.5499
G01 X34.2740 Y-4.5560
G01 X34.2976 Y-4.5644
G01 X34.3202 Y-4.5751
G01 X34.3417 Y-4.5880
G01 X34.3618 Y-4.6029
G01 X34.3803 Y-4.6197
G01 X34.3971 Y-4.6382
G01 X34.4120 Y-4.6583
G01 X34.4249 Y-4.6798
G01 X34.4356 Y-4.7024
G01 X34.4440 Y-4.7260
G01 X34.4501 Y-4.7503
G01 X34.4538 Y-4.7750
G01 X34.4550 Y-4.8000
G00 Z2.0000
G00 X39.4550 Y-4.8000
G01 F60.00
G01 Z-0.8000
G01 F120.00
G01 X39.4538 Y-4.8250
G01 X39.4501 Y-4.8497
G01 X39.4440 Y-4.8740
G01 X39.4356 Y-4.8976
G01 X39.4249 Y-4.9202
G01 X39.4120 Y-4.9417
G01 X39.3971 Y-4.9618
G01 X39.3803 Y-4.9803
G01 X39.3618 Y-4.9971
G01 X39.3417 Y-5.0120
G01 X39.3202 Y-5.0249
G01 X39.2976 Y-5.0356
G01 X39.2740 Y-5.0440
G01 X39.2497 Y-5.0501
G01 X39.2250 Y-5.0538
G01 X39.2000 Y-5.0550
G01 X39.1750 Y-5.0538
G01 X39.1503 Y-5.0501
G01 X39.1260 Y-5.0440
G01 X39.1024 Y-5.0356
G01 X39.0798 Y-5.0249
G01 X39.0583 Y-5.0120
G01 X39.0382 Y-4.9971
G01 X39.0197 Y-4.9803
G01 X39.0029 Y-4.9618
G01 X38.9880 Y-4.9417
G01 X38.9751 Y-4.9202
G01 X38.9644 Y-4.8976
G01 X38.9560 Y-4.8740
G01 X38.9499 Y-4.8497
G01 X38.9462 Y-4.8250
G01 X38.9450 Y-4.8000
G01 X38.9462 Y-4.7750
G01 X38.9499 Y-4.7503
G01 X38.9560 Y-4.7260
G01 X38.9644 Y-4.7024
G01 X38.9751 Y-4.6798
G01 X38.9880 Y-4.6583
G01 X39.0029 Y-4.6382
G01 X39.0197 Y-4.6197
G01 X39.0382 Y-4.6029
G01 X39.0583 Y-4.5880
G01 X39.0798 Y-4.5751
G01 X39.1024 Y-4.5644
G01 X39.1260 Y-4.5560
G01 X39.1503 Y-4.5499
G01 X39.1750 Y-4.5462
G01 X39.2000 Y-4.5450
G01 X39.2250 Y-4.5462
G01 X39.2497 Y-4.5499
G01 X39.2740 Y-4.5560
G01 X39.2976 Y-4.5644
G01 X39.3202 Y-4.5751
G01 X39.3417 Y-4.5880
G01 X39.3618 Y-4.6029
G01 X39.3803 Y-4.6197
G01 X39.3971 Y-4.6382
G01 X39.4120 Y-4.6583
G01 X39.4249 Y-4.6798
G01 X39.4356 Y-4.7024
G01 X39.4440 Y-4.7260
G01 X39.4501 Y-4.7503
G01 X39.4538 Y-4.7750
G01 X39.4550 Y-4.8000
G00 X39.4550 Y-4.8000
G01 F60.00
G01 Z-1.6000
G01 F120.00
G01 X39.4538 Y-4.8250
G01 X39.4501 Y-4.8497
G01 X39.4440 Y-4.8740
G01 X39.4356 Y-4.8976
G01 X39.4249 Y-4.9202
G01 X39.4120 Y-4.9417
G01 X39.3971 Y-4.9618
G01 X39.3803 Y-4.9803
G01 X39.3618 Y-4.9971
G01 X39.3417 Y-5.0120
G01 X39.3202 Y-5.0249
G01 X39.2976 Y-5.0356
G01 X39.2740 Y-5.0440
G01 X39.2497 Y-5.0501
G01 X39.2250 Y-5.0538
G01 X39.2000 Y-5.0550
G01 X39.1750 Y-5.0538
G01 X39.1503 Y-5.0501
G01 X39.1260 Y-5.0440
G01 X39.1024 Y-5.0356
G01 X39.0798 Y-5.0249
G01 X39.0583 Y-5.0120
G01 X39.0382 Y-4.9971
G01 X39.0197 Y-4.9803
G01 X39.0029 Y-4.9618
G01 X38.9880 Y-4.9417
G01 X38.9751 Y-4.9202
G01 X38.9644 Y-4.8976
G01 X38.9560 Y-4.8740
G01 X38.9499 Y-4.8497
G01 X38.9462 Y-4.8250
G01 X38.9450 Y-4.8000
G01 X38.9462 Y-4.7750
G01 X38.9499 Y-4.7503
G01 X38.9560 Y-4.7260
G01 X38.9644 Y-4.7024
G01 X38.9751 Y-4.6798
G01 X38.9880 Y-4.6583
G01 X39.0029 Y-4.6382
G01 X39.0197 Y-4.6197
G01 X39.0382 Y-4.6029
G01 X39.0583 Y-4.5880
G01 X39.0798 Y-4.5751
G01 X39.1024 Y-4.5644
G01 X39.1260 Y-4.5560
G01 X39.1503 Y-4.5499
G01 X39.1750 Y-4.5462
G01 X39.2000 Y-4.5450
G01 X39.2250 Y-4.5462
G01 X39.2497 Y-4.5499
G01 X39.2740 Y-4.5560
G01 X39.2976 Y-4.5644
G01 X39.3202 Y-4.5751
G01 X39.3417 Y-4.5880
G01 X39.3618 Y-4.6029
G01 X39.3803 Y-4.6197
G01 X39.3971 Y-4.6382
G01 X39.4120 Y-4.6583
G01 X39.4249 Y-4.6798
G01 X39.4356 Y-4.7024
G01 X39.4440 Y-4.7260
G01 X39.4501 Y-4.7503
G01 X39.4538 Y-4.7750
G01 X39.4550 Y-4.8000
G00 X39.4550 Y-4.8000
G01 F60.00
G01 Z-2.4000
G01 F120.00
G01 X39.4538 Y-4.8250
G01 X39.4501 Y-4.8497
G01 X39.4440 Y-4.8740
G01 X39.4356 Y-4.8976
G01 X39.4249 Y-4.9202
G01 X39.4120 Y-4.9417
G01 X39.3971 Y-4.9618
G01 X39.3803 Y-4.9803
G01 X39.3618 Y-4.9971
G01 X39.3417 Y-5.0120
G01 X39.3202 Y-5.0249
G01 X39.2976 Y-5.0356
G01 X39.2740 Y-5.0440
G01 X39.2497 Y-5.0501
G01 X39.2250 Y-5.0538
G01 X39.2000 Y-5.0550
G01 X39.1750 Y-5.0538
G01 X39.1503 Y-5.0501
G01 X39.1260 Y-5.0440
G01 X39.1024 Y-5.0356
G01 X39.0798 Y-5.0249
G01 X39.0583 Y-5.0120
G01 X39.0382 Y-4.9971
G01 X39.0197 Y-4.9803
G01 X39.0029 Y-4.9618
G01 X38.9880 Y-4.9417
G01 X38.9751 Y-4.9202
G01 X38.9644 Y-4.8976
G01 X38.9560 Y-4.8740
G01 X38.9499 Y-4.8497
G01 X38.9462 Y-4.8250
G01 X38.9450 Y-4.8000
G01 X38.9462 Y-4.7750
G01 X38.9499 Y-4.7503
G01 X38.9560 Y-4.7260
G01 X38.9644 Y-4.7024
G01 X38.9751 Y-4.6798
G01 X38.9880 Y-4.6583
G01 X39.0029 Y-4.6382
G01 X39.0197 Y-4.6197
G01 X39.0382 Y-4.6029
G01 X39.0583 Y-4.5880
G01 X39.0798 Y-4.5751
G01 X39.1024 Y-4.5644
G01 X39.1260 Y-4.5560
G01 X39.1503 Y-4.5499
G01 X39.1750 Y-4.5462
G01 X39.2000 Y-4.5450
G01 X39.2250 Y-4.5462
G01 X39.2497 Y-4.5499
G01 X39.2740 Y-4.5560
G01 X39.2976 Y-4.5644
G01 X39.3202 Y-4.5751
G01 X39.3417 Y-4.5880
G01 X39.3618 Y-4.6029
G01 X39.3803 Y-4.6197
G01 X39.3971 Y-4.6382
G01 X39.4120 Y-4.6583
G01 X39.4249 Y-4.6798
G01 X39.4356 Y-4.7024
G01 X39.4440 Y-4.7260
G01 X39.4501 Y-4.7503
G01 X39.4538 Y-4.7750
G01 X39.4550 Y-4.8000
G00 Z2.0000
G00 X44.4550 Y-4.8000
G01 F60.00
G01 Z-0.8000
G01 F120.00
G01 X44.4538 Y-4.8250
G01 X44.4501 Y-4.8497
G01 X44.4440 Y-4.8740
G01 X44.4356 Y-4.8976
G01 X44.4249 Y-4.9202
G01 X44.4120 Y-4.9417
G01 X44.3971 Y-4.9618
G01 X44.3803 Y-4.9803
G01 X44.3618 Y-4.9971
G01 X44.3417 Y-5.0120
G01 X44.3202 Y-5.0249
G01 X44.2976 Y-5.0356
G01 X44.2740 Y-5.0440
G01 X44.2497 Y-5.0501
G01 X44.2250 Y-5.0538
G01 X44.2000 Y-5.0550
G01 X44.1750 Y-5.0538
G01 X44.1503 Y-5.0501
G01 X44.1260 Y-5.0440
G01 X44.1024 Y-5.0356
G01 X44.0798 Y-5.0249
G01 X44.0583 Y-5.0120
G01 X44.0382 Y-4.9971
G01 X44.0197 Y-4.9803
G01 X44.0029 Y-4.9618
G01 X43.9880 Y-4.9417
G01 X43.9751 Y-4.9202
G01 X43.9644 Y-4.8976
G01 X43.9560 Y-4.8740
G01 X43.9499 Y-4.8497
G01 X43.9462 Y-4.8250
G01 X43.9450 Y-4.8000
G01 X43.9462 Y-4.7750
G01 X43.9499 Y-4.7503
G01 X43.9560 Y-4.7260
G01 X43.9644 Y-4.7024
G01 X43.9751 Y-4.6798
G01 X43.9880 Y-4.6583
G01 X44.0029 Y-4.6382
G01 X44.0197 Y-4.6197
G01 X44.0382 Y-4.6029
G01 X44.0583 Y-4.5880
G01 X44.0798 Y-4.5751
G01 X44.1024 Y-4.5644
G01 X44.1260 Y-4.5560
G01 X44.1503 Y-4.5499
G01 X44.1750 Y-4.5462
G01 X44.2000 Y-4.5450
G01 X44.2250 Y-4.5462
G01 X44.2497 Y-4.5499
G01 X44.2740 Y-4.5560
G01 X44.2976 Y-4.5644
G01 X44.3202 Y-4.5751
G01 X44.3417 Y-4.5880
G01 X44.3618 Y-4.6029
G01 X44.3803 Y-4.6197
G01 X44.3971 Y-4.6382
G01 X44.4120 Y-4.6583
G01 X44.4249 Y-4.6798
G01 X44.4356 Y-4.7024
G01 X44.4440 Y-4.7260
G01 X44.4501 Y-4.7503
G01 X44.4538 Y-4.7750
G01 X44.4550 Y-4.8000
G00 X44.4550 Y-4.8000
G01 F60.00
G01 Z-1.6000
G01 F120.00
G01 X44.4538 Y-4.8250
G01 X44.4501 Y-4.8497
G01 X44.4440 Y-4.8740
G01 X44.4356 Y-4.8976
G01 X44.4249 Y-4.9202
G01 X44.4120 Y-4.9417
G01 X44.3971 Y-4.9618
G01 X44.3803 Y-4.9803
G01 X44.3618 Y-4.9971
G01 X44.3417 Y-5.0120
G01 X44.3202 Y-5.0249
G01 X44.2976 Y-5.0356
G01 X44.2740 Y-5.0440
G01 X44.2497 Y-5.0501
G01 X44.2250 Y-5.0538
G01 X44.2000 Y-5.0550
G01 X44.1750 Y-5.0538
G01 X44.1503 Y-5.0501
G01 X44.1260 Y-5.0440
G01 X44.1024 Y-5.0356
G01 X44.0798 Y-5.0249
G01 X44.0583 Y-5.0120
G01 X44.0382 Y-4.9971
G01 X44.0197 Y-4.9803
G01 X44.0029 Y-4.9618
G01 X43.9880 Y-4.9417
G01 X43.9751 Y-4.9202
G01 X43.9644 Y-4.8976
G01 X43.9560 Y-4.8740
G01 X43.9499 Y-4.8497
G01 X43.9462 Y-4.8250
G01 X43.9450 Y-4.8000
G01 X43.9462 Y-4.7750
G01 X43.9499 Y-4.7503
G01 X43.9560 Y-4.7260
G01 X43.9644 Y-4.7024
G01 X43.9751 Y-4.6798
G01 X43.9880 Y-4.6583
G01 X44.0029 Y-4.6382
G01 X44.0197 Y-4.6197
G01 X44.0382 Y-4.6029
G01 X44.0583 Y-4.5880
G01 X44.0798 Y-4.5751
G01 X44.1024 Y-4.5644
G01 X44.1260 Y-4.5560
G01 X44.1503 Y-4.5499
G01 X44.1750 Y-4.5462
G01 X44.2000 Y-4.5450
G01 X44.2250 Y-4.5462
G01 X44.2497 Y-4.5499
G01 X44.2740 Y-4.5560
G01 X44.2976 Y-4.5644
G01 X44.3202 Y-4.5751
G01 X44.3417 Y-4.5880
G01 X44.3618 Y-4.6029
G01 X44.3803 Y-4.6197
G01 X44.3971 Y-4.6382
G01 X44.4120 Y-4.6583
G01 X44.4249 Y-4.6798
G01 X44.4356 Y-4.7024
G01 X44.4440 Y-4.7260
G01 X44.4501 Y-4.7503
G01 X44.4538 Y-4.7750
G01 X44.4550 Y-4.8000
G00 X44.4550 Y-4.8000
G01 F60.00
G01 Z-2.4000
G01 F120.00
G01 X44.4538 Y-4.8250
G01 X44.4501 Y-4.8497
G01 X44.4440 Y-4.8740
G01 X44.4356 Y-4.8976
G01 X44.4249 Y-4.9202
G01 X44.4120 Y-4.9417
G01 X44.3971 Y-4.9618
G01 X44.3803 Y-4.9803
G01 X44.3618 Y-4.9971
G01 X44.3417 Y-5.0120
G01 X44.3202 Y-5.0249
G01 X44.2976 Y-5.0356
G01 X44.2740 Y-5.0440
G01 X44.2497 Y-5.0501
G01 X44.2250 Y-5.0538
G01 X44.2000 Y-5.0550
G01 X44.1750 Y-5.0538
G01 X44.1503 Y-5.0501
G01 X44.1260 Y-5.0440
G01 X44.1024 Y-5.0356
G01 X44.0798 Y-5.0249
G01 X44.0583 Y-5.0120
G01 X44.0382 Y-4.9971
G01 X44.0197 Y-4.9803
G01 X44.0029 Y-4.9618
G01 X43.9880 Y-4.9417
G01 X43.9751 Y-4.9202
G01 X43.9644 Y-4.8976
G01 X43.9560 Y-4.8740
G01 X43.9499 Y-4.8497
G01 X43.9462 Y-4.8250
G01 X43.9450 Y-4.8000
G01 X43.9462 Y-4.7750
G01 X43.9499 Y-4.7503
G01 X43.9560 Y-4.7260
G01 X43.9644 Y-4.7024
G01 X43.9751 Y-4.6798
G01 X43.9880 Y-4.6583
G01 X44.0029 Y-4.6382
G01 X44.0197 Y-4.6197
G01 X44.0382 Y-4.6029
G01 X44.0583 Y-4.5880
G01 X44.0798 Y-4.5751
G01 X44.1024 Y-4.5644
G01 X44.1260 Y-4.5560
G01 X44.1503 Y-4.5499
G01 X44.1750 Y-4.5462
G01 X44.2000 Y-4.5450
G01 X44.2250 Y-4.5462
G01 X44.2497 Y-4.5499
G01 X44.2740 Y-4.5560
G01 X44.2976 Y-4.5644
G01 X44.3202 Y-4.5751
G01 X44.3417 Y-4.5880
G01 X44.3618 Y-4.6029
G01 X44.3803 Y-4.6197
G01 X44.3971 Y-4.6382
G01 X44.4120 Y-4.6583
G01 X44.4249 Y-4.6798
G01 X44.4356 Y-4.7024
G01 X44.4440 Y-4.7260
G01 X44.4501 Y-4.7503
G01 X44.4538 Y-4.7750
G01 X44.4550 Y-4.8000
G00 Z2.0000
G00 X44.2050 Y-14.0000
G01 F60.00
G01 Z-0.8000
G01 F120.00
G01 X44.1992 Y-14.1181
G01 X44.1818 Y-14.2351
G01 X44.1531 Y-14.3498
G01 X44.1133 Y-14.4611
G01 X44.0627 Y-14.5680
G01 X44.0019 Y-14.6695
G01 X43.9315 Y-14.7644
G01 X43.8521 Y-14.8521
G01 X43.7644 Y-14.9315
G01 X43.6695 Y-15.0019
G01 X43.5680 Y-15.0627
G01 X43.4611 Y-15.1133
G01 X43.3498 Y-15.1531
G01 X43.2351 Y-15.1818
G01 X43.1181 Y-15.1992
G01 X43.0000 Y-15.2050
G01 X42.8819 Y-15.1992
G01 X42.7649 Y-15.1818
G01 X42.6502 Y-15.1531
G01 X42.5389 Y-15.1133
G01 X42.4320 Y-15.0627
G01 X42.3305 Y-15.0019
G01 X42.2356 Y-14.9315
G01 X42.1479 Y-14.8521
G01 X42.0685 Y-14.7644
G01 X41.9981 Y-14.6695
G01 X41.9373 Y-14.5680
G01 X41.8867 Y-14.4611
G01 X41.8469 Y-14.3498
G01 X41.8182 Y-14.2351
G01 X41.8008 Y-14.1181
G01 X41.7950 Y-14.0000
G01 X41.8008 Y-13.8819
G01 X41.8182 Y-13.7649
G01 X41.8469 Y-13.6502
G01 X41.8867 Y-13.5389
G01 X41.9373 Y-13.4320
G01 X41.9981 Y-13.3305
G01 X42.0685 Y-13.2356
G01 X42.1479 Y-13.1479
G01 X42.2356 Y-13.0685
G01 X42.3305 Y-12.9981
G01 X42.4320 Y-12.9373
G01 X42.5389 Y-12.8867
G01 X42.6502 Y-12.8469
G01 X42.7649 Y-12.8182
G01 X42.8819 Y-12.8008
G01 X43.0000 Y-12.7950
G01 X43.1181 Y-12.8008
G01 X43.2351 Y-12.8182
G01 X43.3498 Y-12.8469
G01 X43.4611 Y-12.8867
G01 X43.5680 Y-12.9373
G01 X43.6695 Y-12.9981
G01 X43.7644 Y-13.0685
G01 X43.8521 Y-13.1479
G01 X43.9315 Y-13.2356
G01 X44.0019 Y-13.3305
G01 X44.0627 Y-13.4320
G01 X44.1133 Y-13.5389
G01 X44.1531 Y-13.6502
G01 X44.1818 Y-13.7649
G01 X44.1992 Y-13.8819
G01 X44.2050 Y-14.0000
G00 X44.2050 Y-14.0000
G01 F60.00
G01 Z-1.6000
G01 F120.00
G01 X44.1992 Y-14.1181
G01 X44.1818 Y-14.2351
G01 X44.1531 Y-14.3498
G01 X44.1133 Y-14.4611
G01 X44.0627 Y-14.5680
G01 X44.0019 Y-14.6695
G01 X43.9315 Y-14.7644
G01 X43.8521 Y-14.8521
G01 X43.7644 Y-14.9315
G01 X43.6695 Y-15.0019
G01 X43.5680 Y-15.0627
G01 X43.4611 Y-15.1133
G01 X43.3498 Y-15.1531
G01 X43.2351 Y-15.1818
G01 X43.1181 Y-15.1992
G01 X43.0000 Y-15.2050
G01 X42.8819 Y-15.1992
G01 X42.7649 Y-15.1818
G01 X42.6502 Y-15.1531
G01 X42.5389 Y-15.1133
G01 X42.4320 Y-15.0627
G01 X42.3305 Y-15.0019
G01 X42.2356 Y-14.9315
G01 X42.1479 Y-14.8521
G01 X42.0685 Y-14.7644
G01 X41.9981 Y-14.6695
G01 X41.9373 Y-14.5680
G01 X41.8867 Y-14.4611
G01 X41.8469 Y-14.3498
G01 X41.8182 Y-14.2351
G01 X41.8008 Y-14.1181
G01 X41.7950 Y-14.0000
G01 X41.8008 Y-13.8819
G01 X41.8182 Y-13.7649
G01 X41.8469 Y-13.6502
G01 X41.8867 Y-13.5389
G01 X41.9373 Y-13.4320
G01 X41.9981 Y-13.3305
G01 X42.0685 Y-13.2356
G01 X42.1479 Y-13.1479
G01 X42.2356 Y-13.0685
G01 X42.3305 Y-12.9981
G01 X42.4320 Y-12.9373
G01 X42.5389 Y-12.8867
G01 X42.6502 Y-12.8469
G01 X42.7649 Y-12.8182
G01 X42.8819 Y-12.8008
G01 X43.0000 Y-12.7950
G01 X43.1181 Y-12.8008
G01 X43.2351 Y-12.8182
G01 X43.3498 Y-12.8469
G01 X43.4611 Y-12.8867
G01 X43.5680 Y-12.9373
G01 X43.6695 Y-12.9981
G01 X43.7644 Y-13.0685
G01 X43.8521 Y-13.1479
G01 X43.9315 Y-13.2356
G01 X44.0019 Y-13.3305
G01 X44.0627 Y-13.4320
G01 X44.1133 Y-13.5389
G01 X44.1531 Y-13.6502
G01 X44.1818 Y-13.7649
G01 X44.1992 Y-13.8819
G01 X44.2050 Y-14.0000
G00 X44.2050 Y-14.0000
G01 F60.00
G01 Z-2.4000
G01 F120.00
G01 X44.1992 Y-14.1181
G01 X44.1818 Y-14.2351
G01 X44.1531 Y-14.3498
G01 X44.1133 Y-14.4611
G01 X44.0627 Y-14.5680
G01 X44.0019 Y-14.6695
G01 X43.9315 Y-14.7644
G01 X43.8521 Y-14.8521
G01 X43.7644 Y-14.9315
G01 X43.6695 Y-15.0019
G01 X43.5680 Y-15.0627
G01 X43.4611 Y-15.1133
G01 X43.3498 Y-15.1531
G01 X43.2351 Y-15.1818
G01 X43.1181 Y-15.1992
G01 X43.0000 Y-15.2050
G01 X42.8819 Y-15.1992
G01 X42.7649 Y-15.1818
G01 X42.6502 Y-15.1531
G01 X42.5389 Y-15.1133
G01 X42.4320 Y-15.0627
G01 X42.3305 Y-15.0019
G01 X42.2356 Y-14.9315
G01 X42.1479 Y-14.8521
G01 X42.0685 Y-14.7644
G01 X41.9981 Y-14.6695
G01 X41.9373 Y-14.5680
G01 X41.8867 Y-14.4611
G01 X41.8469 Y-14.3498
G01 X41.8182 Y-14.2351
G01 X41.8008 Y-14.1181
G01 X41.7950 Y-14.0000
G01 X41.8008 Y-13.8819
G01 X41.8182 Y-13.7649
G01 X41.8469 Y-13.6502
G01 X41.8867 Y-13.5389
G01 X41.9373 Y-13.4320
G01 X41.9981 Y-13.3305
G01 X42.0685 Y-13.2356
G01 X42.1479 Y-13.1479
G01 X42.2356 Y-13.0685
G01 X42.3305 Y-12.9981
G01 X42.4320 Y-12.9373
G01 X42.5389 Y-12.8867
G01 X42.6502 Y-12.8469
G01 X42.7649 Y-12.8182
G01 X42.8819 Y-12.8008
G01 X43.0000 Y-12.7950
G01 X43.1181 Y-12.8008
G01 X43.2351 Y-12.8182
G01 X43.3498 Y-12.8469
G01 X43.4611 Y-12.8867
G01 X43.5680 Y-12.9373
G01 X43.6695 Y-12.9981
G01 X43.7644 Y-13.0685
G01 X43.8521 Y-13.1479
G01 X43.9315 Y-13.2356
G01 X44.0019 Y-13.3305
G01 X44.0627 Y-13.4320
G01 X44.1133 Y-13.5389
G01 X44.1531 Y-13.6502
G01 X44.1818 Y-13.7649
G01 X44.1992 Y-13.8819
G01 X44.2050 Y-14.0000
G00 Z2.0000
G00 X45.5050 Y-19.0000
G01 F60.00
G01 Z-0.8000
G01 F120.00
G01 X45.5046 Y-19.0019
G01 X45.5035 Y-19.0035
G01 X45.5019 Y-19.0046
G01 X45.5000 Y-19.0050
G01 X45.4981 Y-19.0046
G01 X45.4965 Y-19.0035
G01 X45.4954 Y-19.0019
G01 X45.4950 Y-19.0000
G01 X45.4954 Y-18.9981
G01 X45.4965 Y-18.9965
G01 X45.4981 Y-18.9954
G01 X45.5000 Y-18.9950
G01 X45.5019 Y-18.9954
G01 X45.5035 Y-18.9965
G01 X45.5046 Y-18.9981
G01 X45.5050 Y-19.0000
G00 X45.5050 Y-19.0000
G01 F60.00
G01 Z-1.6000
G01 F120.00
G01 X45.5046 Y-19.0019
G01 X45.5035 Y-19.0035
G01 X45.5019 Y-19.0046
G01 X45.5000 Y-19.0050
G01 X45.4981 Y-19.0046
G01 X45.4965 Y-19.0035
G01 X45.4954 Y-19.0019
G01 X45.4950 Y-19.0000
G01 X45.4954 Y-18.9981
G01 X45.4965 Y-18.9965
G01 X45.4981 Y-18.9954
G01 X45.5000 Y-18.9950
G01 X45.5019 Y-18.9954
G01 X45.5035 Y-18.9965
G01 X45.5046 Y-18.9981
G01 X45.5050 Y-19.0000
G00 X45.5050 Y-19.0000
G01 F60.00
G01 Z-2.4000
G01 F120.00
G01 X45.5046 Y-19.0019
G01 X45.5035 Y-19.0035
G01 X45.5019 Y-19.0046
G01 X45.5000 Y-19.0050
G01 X45.4981 Y-19.0046
G01 X45.4965 Y-19.0035
G01 X45.4954 Y-19.0019
G01 X45.4950 Y-19.0000
G01 X45.4954 Y-18.9981
G01 X45.4965 Y-18.9965
G01 X45.4981 Y-18.9954
G01 X45.5000 Y-18.9950
G01 X45.5019 Y-18.9954
G01 X45.5035 Y-18.9965
G01 X45.5046 Y-18.9981
G01 X45.5050 Y-19.0000
G00 Z2.0000
G00 X29.4550 Y-4.8000
G01 F60.00
G01 Z-0.8000
G01 F120.00
G01 X29.4538 Y-4.8250
G01 X29.4501 Y-4.8497
G01 X29.4440 Y-4.8740
G01 X29.4356 Y-4.8976
G01 X29.4249 Y-4.9202
G01 X29.4120 Y-4.9417
G01 X29.3971 Y-4.9618
G01 X29.3803 Y-4.9803
G01 X29.3618 Y-4.9971
G01 X29.3417 Y-5.0120
G01 X29.3202 Y-5.0249
G01 X29.2976 Y-5.0356
G01 X29.2740 Y-5.0440
G01 X29.2497 Y-5.0501
G01 X29.2250 Y-5.0538
G01 X29.2000 Y-5.0550
G01 X29.1750 Y-5.0538
G01 X29.1503 Y-5.0501
G01 X29.1260 Y-5.0440
G01 X29.1024 Y-5.0356
G01 X29.0798 Y-5.0249
G01 X29.0583 Y-5.0120
G01 X29.0382 Y-4.9971
G01 X29.0197 Y-4.9803
G01 X29.0029 Y-4.9618
G01 X28.9880 Y-4.9417
G01 X28.9751 Y-4.9202
G01 X28.9644 Y-4.8976
G01 X28.9560 Y-4.8740
G01 X28.9499 Y-4.8497
G01 X28.9462 Y-4.8250
G01 X28.9450 Y-4.8000
G01 X28.9462 Y-4.7750
G01 X28.9499 Y-4.7503
G01 X28.9560 Y-4.7260
G01 X28.9644 Y-4.7024
G01 X28.9751 Y-4.6798
G01 X28.9880 Y-4.6583
G01 X29.0029 Y-4.6382
G01 X29.0197 Y-4.6197
G01 X29.0382 Y-4.6029
G01 X29.0583 Y-4.5880
G01 X29.0798 Y-4.5751
G01 X29.1024 Y-4.5644
G01 X29.1260 Y-4.5560
G01 X29.1503 Y-4.5499
G01 X29.1750 Y-4.5462
G01 X29.2000 Y-4.5450
G01 X29.2250 Y-4.5462
G01 X29.2497 Y-4.5499
G01 X29.2740 Y-4.5560
G01 X29.2976 Y-4.5644
G01 X29.3202 Y-4.5751
G01 X29.3417 Y-4.5880
G01 X29.3618 Y-4.6029
G01 X29.3803 Y-4.6197
G01 X29.3971 Y-4.6382
G01 X29.4120 Y-4.6583
G01 X29.4249 Y-4.6798
G01 X29.4356 Y-4.7024
G01 X29.4440 Y-4.7260
G01 X29.4501 Y-4.7503
G01 X29.4538 Y-4.7750
G01 X29.4550 Y-4.8000
G00 X29.4550 Y-4.8000
G01 F60.00
G01 Z-1.6000
G01 F120.00
G01 X29.4538 Y-4.8250
G01 X29.4501 Y-4.8497
G01 X29.4440 Y-4.8740
G01 X29.4356 Y-4.8976
G01 X29.4249 Y-4.9202
G01 X29.4120 Y-4.9417
G01 X29.3971 Y-4.9618
G01 X29.3803 Y-4.9803
G01 X29.3618 Y-4.9971
G01 X29.3417 Y-5.0120
G01 X29.3202 Y-5.0249
G01 X29.2976 Y-5.0356
G01 X29.2740 Y-5.0440
G01 X29.2497 Y-5.0501
G01 X29.2250 Y-5.0538
G01 X29.2000 Y-5.0550
G01 X29.1750 Y-5.0538
G01 X29.1503 Y-5.0501
G01 X29.1260 Y-5.0440
G01 X29.1024 Y-5.0356
G01 X29.0798 Y-5.0249
G01 X29.0583 Y-5.0120
G01 X29.0382 Y-4.9971
G01 X29.0197 Y-4.9803
G01 X29.0029 Y-4.9618
G01 X28.9880 Y-4.9417
G01 X28.9751 Y-4.9202
G01 X28.9644 Y-4.8976
G01 X28.9560 Y-4.8740
G01 X28.9499 Y-4.8497
G01 X28.9462 Y-4.8250
G01 X28.9450 Y-4.8000
G01 X28.9462 Y-4.7750
G01 X28.9499 Y-4.7503
G01 X28.9560 Y-4.7260
G01 X28.9644 Y-4.7024
G01 X28.9751 Y-4.6798
G01 X28.9880 Y-4.6583
G01 X29.0029 Y-4.6382
G01 X29.0197 Y-4.6197
G01 X29.0382 Y-4.6029
G01 X29.0583 Y-4.5880
G01 X29.0798 Y-4.5751
G01 X29.1024 Y-4.5644
G01 X29.1260 Y-4.5560
G01 X29.1503 Y-4.5499
G01 X29.1750 Y-4.5462
G01 X29.2000 Y-4.5450
G01 X29.2250 Y-4.5462
G01 X29.2497 Y-4.5499
G01 X29.2740 Y-4.5560
G01 X29.2976 Y-4.5644
G01 X29.3202 Y-4.5751
G01 X29.3417 Y-4.5880
G01 X29.3618 Y-4.6029
G01 X29.3803 Y-4.6197
G01 X29.3971 Y-4.6382
G01 X29.4120 Y-4.6583
G01 X29.4249 Y-4.6798
G01 X29.4356 Y-4.7024
G01 X29.4440 Y-4.7260
G01 X29.4501 Y-4.7503
G01 X29.4538 Y-4.7750
G01 X29.4550 Y-4.8000
G00 X29.4550 Y-4.8000
G01 F60.00
G01 Z-2.4000
G01 F120.00
G01 X29.4538 Y-4.8250
G01 X29.4501 Y-4.8497
G01 X29.4440 Y-4.8740
G01 X29.4356 Y-4.8976
G01 X29.4249 Y-4.9202
G01 X29.4120 Y-4.9417
G01 X29.3971 Y-4.9618
G01 X29.3803 Y-4.9803
G01 X29.3618 Y-4.9971
G01 X29.3417 Y-5.0120
G01 X29.3202 Y-5.0249
G01 X29.2976 Y-5.0356
G01 X29.2740 Y-5.0440
G01 X29.2497 Y-5.0501
G01 X29.2250 Y-5.0538
G01 X29.2000 Y-5.0550
G01 X29.1750 Y-5.0538
G01 X29.1503 Y-5.0501
G01 X29.1260 Y-5.0440
G01 X29.1024 Y-5.0356
G01 X29.0798 Y-5.0249
G01 X29.0583 Y-5.0120
G01 X29.0382 Y-4.9971
G01 X29.0197 Y-4.9803
G01 X29.0029 Y-4.9618
G01 X28.9880 Y-4.9417
G01 X28.9751 Y-4.9202
G01 X28.9644 Y-4.8976
G01 X28.9560 Y-4.8740
G01 X28.9499 Y-4.8497
G01 X28.9462 Y-4.8250
G01 X28.9450 Y-4.8000
G01 X28.9462 Y-4.7750
G01 X28.9499 Y-4.7503
G01 X28.9560 Y-4.7260
G01 X28.9644 Y-4.7024
G01 X28.9751 Y-4.6798
G01 X28.9880 Y-4.6583
G01 X29.0029 Y-4.6382
G01 X29.0197 Y-4.6197
G01 X29.0382 Y-4.6029
G01 X29.0583 Y-4.5880
G01 X29.0798 Y-4.5751
G01 X29.1024 Y-4.5644
G01 X29.1260 Y-4.5560
G01 X29.1503 Y-4.5499
G01 X29.1750 Y-4.5462
G01 X29.2000 Y-4.5450
G01 X29.2250 Y-4.5462
G01 X29.2497 Y-4.5499
G01 X29.2740 Y-4.5560
G01 X29.2976 Y-4.5644
G01 X29.3202 Y-4.5751
G01 X29.3417 Y-4.5880
G01 X29.3618 Y-4.6029
G01 X29.3803 Y-4.6197
G01 X29.3971 Y-4.6382
G01 X29.4120 Y-4.6583
G01 X29.4249 Y-4.6798
G01 X29.4356 Y-4.7024
G01 X29.4440 Y-4.7260
G01 X29.4501 Y-4.7503
G01 X29.4538 Y-4.7750
G01 X29.4550 Y-4.8000
G00 Z2.0000
M05
G00 Z2.0000
G00 Z15.00


