(G-CODE GENERATED BY FLATCAM v8.994 - www.flatcam.org - Version Date: 2020/11/7)

(Name: buck_regulator-F_Cu.gbr_iso_combined_cnc)
(Type: G-code from Geometry)
(Units: MM)

(Created on perjantai, 10 helmikuu 2023 at 21:17)

(This preprocessor is the default preprocessor used by FlatCAM.)
(It is made to work with MACH3 compatible motion controllers.)

(TOOL DIAMETER: 0.1 mm)
(Feedrate_XY: 120.0 mm/min)
(Feedrate_Z: 60.0 mm/min)
(Feedrate rapids 1500.0 mm/min)

(Z_Cut: 0.0 mm)
(Z_Move: 2.0 mm)
(Z Start: None mm)
(Z End: 15.0 mm)
(X,Y End: None mm)
(Steps per circle: 64)
(Preprocessor Geometry: default)

(X range:   -0.1095 ...   47.6315  mm)
(Y range:  -32.1095 ...    0.1095  mm)

(Spindle Speed: 24000.0 RPM)
G21
G90
G94

G01 F120.00

M5
G00 Z15.0000
G00 X0.0000 Y0.0000
T1
M6    
(MSG, Change to Tool Dia = 0.1000)
M0
G00 Z15.0000

M03 S24000.0
G01 F120.00
G00 X0.2505 Y-1.0393
G01 F60.00
G01 Z0.0000
G01 F120.00
G01 X0.2505 Y-30.9618
G01 X0.2531 Y-30.9920
G01 X0.2544 Y-31.0000
G01 X0.2533 Y-31.0066
G01 X0.2529 Y-31.0116
G01 X0.2538 Y-31.0363
G01 X0.2629 Y-31.1280
G01 X0.2700 Y-31.1638
G01 X0.3020 Y-31.2693
G01 X0.3145 Y-31.2998
G01 X0.3692 Y-31.4024
G01 X0.3883 Y-31.4307
G01 X0.4574 Y-31.5150
G01 X0.4841 Y-31.5418
G01 X0.5723 Y-31.6139
G01 X0.5997 Y-31.6320
G01 X0.6969 Y-31.6840
G01 X0.7318 Y-31.6984
G01 X0.8362 Y-31.7300
G01 X0.8684 Y-31.7365
G01 X0.9650 Y-31.7463
G01 X0.9884 Y-31.7471
G01 X0.9934 Y-31.7467
G01 X1.0000 Y-31.7456
G01 X1.0091 Y-31.7470
G01 X1.0393 Y-31.7495
G01 X9.5613 Y-31.7495
G01 X9.5678 Y-31.7491
G01 X9.6076 Y-31.7438
G01 X9.6136 Y-31.7425
G01 X9.6205 Y-31.7400
G01 X9.6937 Y-31.6979
G01 X9.6978 Y-31.6950
G01 X9.7024 Y-31.6908
G01 X9.7086 Y-31.6830
G01 X9.7502 Y-31.6108
G01 X9.7526 Y-31.6050
G01 X9.7539 Y-31.6002
G01 X9.7548 Y-31.5953
G01 X9.7552 Y-31.5891
G01 X9.7552 Y-31.5107
G01 X9.7546 Y-31.5045
G01 X9.7533 Y-31.4984
G01 X9.7517 Y-31.4937
G01 X9.7491 Y-31.4880
G01 X9.7087 Y-31.4181
G01 X9.7059 Y-31.4142
G01 X9.7020 Y-31.4098
G01 X8.8628 Y-30.5706
G01 X8.8396 Y-30.5508
G01 X8.8292 Y-30.5433
G01 X8.8072 Y-30.5162
G01 X8.7959 Y-30.5037
G01 X8.7702 Y-30.4776
G01 X8.7641 Y-30.4670
G01 X8.7487 Y-30.4441
G01 X8.7429 Y-30.4367
G01 X8.7277 Y-30.4019
G01 X8.7210 Y-30.3883
G01 X8.7033 Y-30.3561
G01 X8.7011 Y-30.3469
G01 X8.6924 Y-30.3207
G01 X8.6884 Y-30.3109
G01 X8.6834 Y-30.2745
G01 X8.6806 Y-30.2595
G01 X8.6720 Y-30.2225
G01 X8.6731 Y-30.1969
G01 X8.6721 Y-30.1702
G01 X8.6711 Y-30.1617
G01 X8.6686 Y-30.1535
G01 X8.6399 Y-30.0819
G01 X8.6367 Y-30.0755
G01 X8.6335 Y-30.0705
G01 X8.5758 Y-29.9936
G01 X8.5302 Y-29.8719
G01 X8.5245 Y-29.8197
G01 X8.5245 Y-29.1803
G01 X8.5302 Y-29.1281
G01 X8.5758 Y-29.0064
G01 X8.6532 Y-28.9032
G01 X8.6948 Y-28.8719
G01 X8.6996 Y-28.8678
G01 X8.7419 Y-28.8204
G01 X8.7457 Y-28.8156
G01 X8.7499 Y-28.8082
G01 X8.7525 Y-28.8013
G01 X8.7731 Y-28.7245
G01 X8.7741 Y-28.7186
G01 X8.7745 Y-28.7127
G01 X8.7745 Y-28.3893
G01 X8.7738 Y-28.3771
G01 X8.7724 Y-28.3694
G01 X8.7744 Y-28.3194
G01 X8.7744 Y-28.2721
G01 X8.7731 Y-28.2627
G01 X8.7528 Y-28.1871
G01 X8.7509 Y-28.1812
G01 X8.7487 Y-28.1766
G01 X8.7455 Y-28.1713
G01 X8.7416 Y-28.1664
G01 X8.6854 Y-28.1101
G01 X8.6776 Y-28.1038
G01 X8.6711 Y-28.1001
G01 X8.6641 Y-28.0975
G01 X8.5850 Y-28.0764
G01 X8.5755 Y-28.0755
G01 X8.1803 Y-28.0755
G01 X8.1281 Y-28.0698
G01 X8.0064 Y-28.0242
G01 X7.9032 Y-27.9468
G01 X7.8258 Y-27.8436
G01 X7.7802 Y-27.7219
G01 X7.7745 Y-27.6697
G01 X7.7745 Y-27.1803
G01 X7.7802 Y-27.1281
G01 X7.8258 Y-27.0064
G01 X7.9032 Y-26.9032
G01 X8.0064 Y-26.8258
G01 X8.1149 Y-26.7850
G01 X8.1636 Y-26.7570
G01 X8.1705 Y-26.7517
G01 X8.1756 Y-26.7461
G01 X8.2227 Y-26.6803
G01 X8.2259 Y-26.6750
G01 X8.2288 Y-26.6681
G01 X8.2309 Y-26.6584
G01 X8.2386 Y-26.5791
G01 X8.2385 Y-26.5704
G01 X8.2372 Y-26.5631
G01 X8.2343 Y-26.5548
G01 X8.2018 Y-26.4835
G01 X8.1966 Y-26.4750
G01 X8.1898 Y-26.4677
G01 X8.1232 Y-26.4198
G01 X8.1171 Y-26.4161
G01 X8.1116 Y-26.4137
G01 X8.0064 Y-26.3742
G01 X7.9032 Y-26.2968
G01 X7.8258 Y-26.1936
G01 X7.7802 Y-26.0719
G01 X7.7745 Y-26.0197
G01 X7.7744 Y-25.8371
G01 X7.7684 Y-25.7910
G01 X7.7664 Y-25.7840
G01 X7.7633 Y-25.7772
G01 X7.7223 Y-25.7064
G01 X7.7162 Y-25.6990
G01 X7.0878 Y-25.0706
G01 X7.0646 Y-25.0508
G01 X7.0542 Y-25.0433
G01 X7.0322 Y-25.0162
G01 X7.0209 Y-25.0037
G01 X6.9952 Y-24.9776
G01 X6.9891 Y-24.9670
G01 X6.9737 Y-24.9441
G01 X6.9679 Y-24.9367
G01 X6.9527 Y-24.9019
G01 X6.9460 Y-24.8883
G01 X6.9283 Y-24.8560
G01 X6.9261 Y-24.8469
G01 X6.9174 Y-24.8207
G01 X6.9134 Y-24.8109
G01 X6.9093 Y-24.7831
G01 X6.8984 Y-24.7431
G01 X6.8963 Y-24.7374
G01 X6.8935 Y-24.7319
G01 X6.8900 Y-24.7269
G01 X6.8405 Y-24.6632
G01 X6.8344 Y-24.6575
G01 X6.8106 Y-24.6394
G01 X6.7318 Y-24.5356
G01 X6.6837 Y-24.4141
G01 X6.6745 Y-24.3378
G01 X6.6745 Y-23.8122
G01 X6.6837 Y-23.7359
G01 X6.7318 Y-23.6144
G01 X6.8106 Y-23.5106
G01 X6.8152 Y-23.5069
G01 X6.8196 Y-23.5025
G01 X6.8319 Y-23.4885
G01 X6.8368 Y-23.4812
G01 X6.8697 Y-23.4033
G01 X6.8712 Y-23.3985
G01 X6.8723 Y-23.3924
G01 X6.8727 Y-23.3874
G01 X6.8725 Y-23.3812
G01 X6.8623 Y-23.3009
G01 X6.8596 Y-23.2914
G01 X6.8550 Y-23.2825
G01 X6.8032 Y-23.2144
G01 X6.7989 Y-23.2102
G01 X6.7904 Y-23.2036
G01 X6.6964 Y-23.1096
G01 X6.6889 Y-23.0999
G01 X6.6213 Y-22.9855
G01 X6.6164 Y-22.9742
G01 X6.5786 Y-22.8444
G01 X6.5768 Y-22.8345
G01 X6.5761 Y-22.8250
G01 X6.8856 Y-22.8250
G01 X6.8872 Y-22.8310
G01 X6.8959 Y-22.8552
G01 X6.9087 Y-22.8818
G01 X6.9213 Y-22.9028
G01 X6.9359 Y-22.9225
G01 X6.9573 Y-22.9461
G01 X6.9755 Y-22.9626
G01 X6.9952 Y-22.9772
G01 X7.0204 Y-22.9925
G01 X7.0471 Y-23.0050
G01 X7.0702 Y-23.0132
G01 X7.0964 Y-23.0197
G01 X7.1230 Y-23.0237
G01 X7.1500 Y-23.0250
G01 X7.6500 Y-23.0250
G01 X7.6770 Y-23.0237
G01 X7.7012 Y-23.0201
G01 X7.7322 Y-23.0124
G01 X7.7552 Y-23.0041
G01 X7.7796 Y-22.9925
G01 X7.8028 Y-22.9787
G01 X7.8225 Y-22.9641
G01 X7.8461 Y-22.9427
G01 X7.8626 Y-22.9245
G01 X7.8787 Y-22.9028
G01 X7.8925 Y-22.8796
G01 X7.9031 Y-22.8575
G01 X7.9124 Y-22.8322
G01 X7.9144 Y-22.8250
G01 X8.2105 Y-22.8250
G01 X8.2157 Y-22.8247
G01 X8.2568 Y-22.8193
G01 X8.2616 Y-22.8183
G01 X8.2674 Y-22.8164
G01 X8.2740 Y-22.8132
G01 X8.3394 Y-22.7755
G01 X8.3407 Y-22.7751
G01 X8.3961 Y-22.7751
G01 X8.4045 Y-22.7928
G01 X8.4158 Y-22.8118
G01 X8.4317 Y-22.8336
G01 X8.4500 Y-22.8535
G01 X8.4664 Y-22.8683
G01 X8.4841 Y-22.8815
G01 X8.5072 Y-22.8955
G01 X8.5316 Y-22.9069
G01 X8.5524 Y-22.9142
G01 X8.5738 Y-22.9197
G01 X8.6017 Y-22.9239
G01 X8.6250 Y-22.9250
G01 X9.1750 Y-22.9250
G01 X9.2007 Y-22.9237
G01 X9.2262 Y-22.9197
G01 X9.2476 Y-22.9142
G01 X9.2684 Y-22.9069
G01 X9.2928 Y-22.8955
G01 X9.3159 Y-22.8815
G01 X9.3336 Y-22.8683
G01 X9.3500 Y-22.8535
G01 X9.3683 Y-22.8336
G01 X9.3842 Y-22.8118
G01 X9.3955 Y-22.7928
G01 X9.4039 Y-22.7751
G01 X9.8961 Y-22.7751
G01 X9.9045 Y-22.7928
G01 X9.9158 Y-22.8118
G01 X9.9302 Y-22.8317
G01 X9.9482 Y-22.8518
G01 X9.9664 Y-22.8683
G01 X9.9861 Y-22.8829
G01 X10.0093 Y-22.8966
G01 X10.0293 Y-22.9060
G01 X10.0501 Y-22.9135
G01 X10.0762 Y-22.9202
G01 X10.1005 Y-22.9238
G01 X10.1250 Y-22.9250
G01 X10.6750 Y-22.9250
G01 X10.7019 Y-22.9235
G01 X10.7238 Y-22.9202
G01 X10.7476 Y-22.9142
G01 X10.7707 Y-22.9060
G01 X10.7907 Y-22.8966
G01 X10.8139 Y-22.8829
G01 X10.8355 Y-22.8666
G01 X10.8518 Y-22.8518
G01 X10.8683 Y-22.8336
G01 X10.8842 Y-22.8118
G01 X10.8955 Y-22.7928
G01 X10.9040 Y-22.7750
G01 X11.2166 Y-22.7750
G01 X11.2117 Y-22.8122
G01 X11.2084 Y-22.8245
G01 X11.1579 Y-22.9464
G01 X11.1515 Y-22.9575
G01 X11.0712 Y-23.0621
G01 X11.0621 Y-23.0712
G01 X10.9575 Y-23.1515
G01 X10.9464 Y-23.1579
G01 X10.9140 Y-23.1714
G01 X10.8914 Y-23.1829
G01 X10.8853 Y-23.1867
G01 X10.8789 Y-23.1923
G01 X10.8248 Y-23.2490
G01 X10.8216 Y-23.2529
G01 X10.8182 Y-23.2581
G01 X10.8155 Y-23.2637
G01 X10.8139 Y-23.2684
G01 X10.7950 Y-23.3457
G01 X10.7936 Y-23.3544
G01 X10.7938 Y-23.3631
G01 X10.7955 Y-23.3716
G01 X10.8176 Y-23.4468
G01 X10.8204 Y-23.4538
G01 X10.8242 Y-23.4602
G01 X10.8306 Y-23.4678
G01 X10.8854 Y-23.5198
G01 X10.9968 Y-23.6032
G01 X11.0742 Y-23.7064
G01 X11.1198 Y-23.8281
G01 X11.1255 Y-23.8803
G01 X11.1255 Y-24.3697
G01 X11.1198 Y-24.4219
G01 X11.0742 Y-24.5436
G01 X10.9968 Y-24.6468
G01 X10.8936 Y-24.7242
G01 X10.7719 Y-24.7698
G01 X10.7197 Y-24.7755
G01 X10.5995 Y-24.7755
G01 X10.5936 Y-24.7759
G01 X10.5866 Y-24.7772
G01 X10.5121 Y-24.7972
G01 X10.5062 Y-24.7991
G01 X10.5016 Y-24.8013
G01 X10.4953 Y-24.8052
G01 X10.4896 Y-24.8101
G01 X10.4342 Y-24.8655
G01 X10.4310 Y-24.8693
G01 X10.4275 Y-24.8745
G01 X10.4246 Y-24.8800
G01 X10.4222 Y-24.8871
G01 X10.4022 Y-24.9616
G01 X10.4007 Y-24.9697
G01 X10.4005 Y-25.2010
G01 X10.4009 Y-25.2069
G01 X10.4019 Y-25.2128
G01 X10.4225 Y-25.2896
G01 X10.4246 Y-25.2955
G01 X10.4275 Y-25.3010
G01 X10.4310 Y-25.3062
G01 X10.4351 Y-25.3109
G01 X10.4896 Y-25.3654
G01 X10.4943 Y-25.3695
G01 X10.5016 Y-25.3742
G01 X10.5109 Y-25.3780
G01 X10.5866 Y-25.3983
G01 X10.5959 Y-25.3999
G01 X10.9500 Y-25.4000
G01 X10.9500 Y-25.7000
G01 X10.6250 Y-25.7000
G01 X10.6152 Y-25.7004
G01 X10.6006 Y-25.7024
G01 X10.5864 Y-25.7062
G01 X10.5772 Y-25.7095
G01 X10.5683 Y-25.7137
G01 X10.5556 Y-25.7211
G01 X10.5457 Y-25.7284
G01 X10.5366 Y-25.7366
G01 X10.5284 Y-25.7457
G01 X10.5211 Y-25.7556
G01 X10.5148 Y-25.7661
G01 X10.5095 Y-25.7772
G01 X10.5054 Y-25.7887
G01 X10.5024 Y-25.8006
G01 X10.5006 Y-25.8127
G01 X10.5000 Y-25.8250
G01 X10.5000 Y-25.9750
G01 X10.5006 Y-25.9873
G01 X10.5020 Y-25.9970
G01 X10.5062 Y-26.0136
G01 X10.5095 Y-26.0228
G01 X10.5148 Y-26.0339
G01 X10.5211 Y-26.0444
G01 X10.5269 Y-26.0524
G01 X10.5384 Y-26.0651
G01 X10.5457 Y-26.0716
G01 X10.5556 Y-26.0789
G01 X10.5661 Y-26.0852
G01 X10.5760 Y-26.0900
G01 X10.5911 Y-26.0953
G01 X10.6018 Y-26.0978
G01 X10.6140 Y-26.0995
G01 X10.6250 Y-26.1000
G01 X12.0820 Y-26.1001
G01 X12.0541 Y-26.1746
G01 X12.0474 Y-26.1868
G01 X12.0394 Y-26.1976
G01 X12.0281 Y-26.2147
G01 X12.0237 Y-26.2236
G01 X12.0014 Y-26.3062
G01 X12.0005 Y-26.3157
G01 X12.0005 Y-26.5070
G01 X11.9915 Y-26.5688
G01 X11.9878 Y-26.5769
G01 X11.9829 Y-26.5928
G01 X11.9816 Y-26.6000
G01 X11.9814 Y-26.6077
G01 X11.9759 Y-26.6284
G01 X11.9748 Y-26.6371
G01 X11.9749 Y-26.6421
G01 X11.9754 Y-26.6471
G01 X11.9823 Y-26.6832
G01 X11.9811 Y-26.6920
G01 X11.9817 Y-26.7018
G01 X11.9830 Y-26.7078
G01 X11.9872 Y-26.7213
G01 X11.9913 Y-26.7306
G01 X12.0005 Y-26.7931
G01 X12.0005 Y-27.0070
G01 X11.9915 Y-27.0688
G01 X11.9878 Y-27.0769
G01 X11.9826 Y-27.0940
G01 X11.9815 Y-27.1013
G01 X11.9814 Y-27.1077
G01 X11.9759 Y-27.1284
G01 X11.9749 Y-27.1346
G01 X11.9748 Y-27.1396
G01 X11.9754 Y-27.1471
G01 X11.9823 Y-27.1832
G01 X11.9811 Y-27.1920
G01 X11.9817 Y-27.2018
G01 X11.9830 Y-27.2078
G01 X11.9872 Y-27.2213
G01 X11.9913 Y-27.2306
G01 X12.0005 Y-27.2931
G01 X12.0005 Y-27.5070
G01 X11.9915 Y-27.5688
G01 X11.9878 Y-27.5769
G01 X11.9826 Y-27.5940
G01 X11.9815 Y-27.6013
G01 X11.9814 Y-27.6077
G01 X11.9759 Y-27.6284
G01 X11.9749 Y-27.6346
G01 X11.9748 Y-27.6396
G01 X11.9754 Y-27.6471
G01 X11.9823 Y-27.6832
G01 X11.9811 Y-27.6920
G01 X11.9817 Y-27.7018
G01 X11.9830 Y-27.7078
G01 X11.9872 Y-27.7213
G01 X11.9913 Y-27.7306
G01 X12.0005 Y-27.7931
G01 X12.0005 Y-28.0070
G01 X11.9915 Y-28.0688
G01 X11.9437 Y-28.1666
G01 X11.8671 Y-28.2433
G01 X11.7694 Y-28.2913
G01 X11.7069 Y-28.3005
G01 X11.2264 Y-28.3005
G01 X11.2199 Y-28.3009
G01 X11.1777 Y-28.3066
G01 X11.1694 Y-28.3091
G01 X11.1628 Y-28.3123
G01 X11.0950 Y-28.3515
G01 X11.0908 Y-28.3543
G01 X11.0861 Y-28.3583
G01 X11.0812 Y-28.3640
G01 X11.0777 Y-28.3691
G01 X11.0392 Y-28.4359
G01 X11.0355 Y-28.4438
G01 X11.0335 Y-28.4510
G01 X11.0325 Y-28.4597
G01 X11.0325 Y-28.5393
G01 X11.0330 Y-28.5455
G01 X11.0340 Y-28.5504
G01 X11.0364 Y-28.5575
G01 X11.0392 Y-28.5631
G01 X11.0784 Y-28.6309
G01 X11.0844 Y-28.6389
G01 X11.0899 Y-28.6440
G01 X11.0950 Y-28.6475
G01 X11.1507 Y-28.6797
G01 X11.1549 Y-28.6827
G01 X11.1592 Y-28.6851
G01 X11.1681 Y-28.6894
G01 X11.1745 Y-28.6916
G01 X11.2964 Y-28.7421
G01 X11.3075 Y-28.7485
G01 X11.4121 Y-28.8288
G01 X11.4212 Y-28.8379
G01 X11.5015 Y-28.9425
G01 X11.5079 Y-28.9536
G01 X11.5584 Y-29.0755
G01 X11.5617 Y-29.0878
G01 X11.5746 Y-29.1857
G01 X11.5750 Y-29.2000
G01 X11.2737 Y-29.2000
G01 X11.2702 Y-29.1762
G01 X11.2642 Y-29.1524
G01 X11.2560 Y-29.1293
G01 X11.2466 Y-29.1093
G01 X11.2315 Y-29.0841
G01 X11.2183 Y-29.0664
G01 X11.2018 Y-29.0482
G01 X11.1836 Y-29.0317
G01 X11.1639 Y-29.0171
G01 X11.1428 Y-29.0045
G01 X11.1229 Y-28.9950
G01 X11.0952 Y-28.9851
G01 X11.0738 Y-28.9798
G01 X11.0483 Y-28.9761
G01 X11.0250 Y-28.9750
G01 X10.6250 Y-28.9750
G01 X10.6005 Y-28.9762
G01 X10.5762 Y-28.9798
G01 X10.5524 Y-28.9858
G01 X10.5293 Y-28.9940
G01 X10.5072 Y-29.0045
G01 X10.4841 Y-29.0185
G01 X10.4645 Y-29.0334
G01 X10.4482 Y-29.0482
G01 X10.4334 Y-29.0645
G01 X10.4171 Y-29.0861
G01 X10.4045 Y-29.1072
G01 X10.3940 Y-29.1293
G01 X10.3851 Y-29.1548
G01 X10.3794 Y-29.1786
G01 X10.3762 Y-29.2005
G01 X10.3751 Y-29.2225
G01 X10.3750 Y-29.7750
G01 X10.3762 Y-29.7995
G01 X10.3803 Y-29.8262
G01 X10.3858 Y-29.8476
G01 X10.3931 Y-29.8684
G01 X10.4045 Y-29.8928
G01 X10.4185 Y-29.9159
G01 X10.4317 Y-29.9336
G01 X10.4465 Y-29.9500
G01 X10.4664 Y-29.9683
G01 X10.4882 Y-29.9842
G01 X10.5072 Y-29.9955
G01 X10.5250 Y-30.0040
G01 X10.5250 Y-30.3168
G01 X10.4607 Y-30.3208
G01 X10.4547 Y-30.3217
G01 X10.4478 Y-30.3237
G01 X10.4402 Y-30.3273
G01 X10.3723 Y-30.3665
G01 X10.3662 Y-30.3708
G01 X10.3609 Y-30.3761
G01 X10.3551 Y-30.3841
G01 X10.3165 Y-30.4509
G01 X10.3137 Y-30.4565
G01 X10.3117 Y-30.4624
G01 X10.3104 Y-30.4685
G01 X10.3098 Y-30.4747
G01 X10.3099 Y-30.5556
G01 X10.3106 Y-30.5617
G01 X10.3117 Y-30.5666
G01 X10.3153 Y-30.5759
G01 X10.3551 Y-30.6449
G01 X10.3598 Y-30.6517
G01 X10.4500 Y-30.7421
G01 X10.4848 Y-30.7692
G01 X10.4899 Y-30.7726
G01 X10.4965 Y-30.7759
G01 X10.5023 Y-30.7778
G01 X10.5780 Y-30.7981
G01 X10.5838 Y-30.7991
G01 X10.5897 Y-30.7995
G01 X19.5467 Y-30.7995
G01 X19.5514 Y-30.7991
G01 X19.5573 Y-30.7981
G01 X19.6353 Y-30.7771
G01 X19.6411 Y-30.7749
G01 X19.6466 Y-30.7719
G01 X19.6517 Y-30.7682
G01 X19.6554 Y-30.7649
G01 X19.7108 Y-30.7095
G01 X19.7148 Y-30.7047
G01 X19.7181 Y-30.6995
G01 X19.7209 Y-30.6938
G01 X19.7228 Y-30.6879
G01 X19.7428 Y-30.6134
G01 X19.7441 Y-30.6064
G01 X19.7445 Y-30.6005
G01 X19.7445 Y-30.5141
G01 X19.7442 Y-30.5091
G01 X19.7435 Y-30.5041
G01 X19.7284 Y-30.4381
G01 X19.7266 Y-30.4321
G01 X19.6876 Y-30.3509
G01 X19.6495 Y-30.1857
G01 X19.6493 Y-30.0960
G01 X19.6483 Y-30.0899
G01 X19.6338 Y-30.0257
G01 X19.6316 Y-30.0188
G01 X19.6285 Y-30.0122
G01 X19.6238 Y-30.0052
G01 X19.5721 Y-29.9447
G01 X19.5647 Y-29.9380
G01 X19.5584 Y-29.9340
G01 X19.5528 Y-29.9314
G01 X19.4789 Y-29.9055
G01 X19.4695 Y-29.9041
G01 X19.4598 Y-29.9021
G01 X19.4463 Y-29.9010
G01 X19.4327 Y-29.9005
G01 X19.3598 Y-29.9006
G01 X19.3523 Y-29.9015
G01 X19.2937 Y-29.9135
G01 X19.2844 Y-29.9164
G01 X19.2789 Y-29.9191
G01 X19.2738 Y-29.9224
G01 X19.2086 Y-29.9739
G01 X19.2031 Y-29.9802
G01 X19.1718 Y-30.0218
G01 X19.0686 Y-30.0992
G01 X18.9469 Y-30.1448
G01 X18.8947 Y-30.1505
G01 X17.7053 Y-30.1505
G01 X17.6531 Y-30.1448
G01 X17.5314 Y-30.0992
G01 X17.4282 Y-30.0218
G01 X17.3508 Y-29.9186
G01 X17.3052 Y-29.7969
G01 X17.2995 Y-29.7447
G01 X17.2995 Y-29.2553
G01 X17.3052 Y-29.2031
G01 X17.3508 Y-29.0814
G01 X17.4174 Y-28.9924
G01 X17.4377 Y-28.9575
G01 X17.4402 Y-28.9522
G01 X17.4421 Y-28.9465
G01 X17.4433 Y-28.9407
G01 X17.4544 Y-28.8631
G01 X17.4547 Y-28.8569
G01 X17.4545 Y-28.8519
G01 X17.4534 Y-28.8457
G01 X17.4516 Y-28.8398
G01 X17.4210 Y-28.7638
G01 X17.4160 Y-28.7557
G01 X17.3549 Y-28.6741
G01 X17.3301 Y-28.6472
G01 X17.3226 Y-28.6409
G01 X17.3163 Y-28.6372
G01 X17.2462 Y-28.6031
G01 X17.2334 Y-28.5992
G01 X17.2241 Y-28.5979
G01 X17.1710 Y-28.5793
G01 X17.1218 Y-28.5637
G01 X17.1158 Y-28.5602
G01 X17.1105 Y-28.5580
G01 X17.0690 Y-28.5273
G01 X17.0227 Y-28.4953
G01 X17.0063 Y-28.4744
G01 X16.9916 Y-28.4580
G01 X16.5907 Y-28.0571
G01 X16.5862 Y-28.0531
G01 X16.5434 Y-28.0225
G01 X16.5380 Y-28.0193
G01 X16.5334 Y-28.0173
G01 X16.5250 Y-28.0148
G01 X16.4493 Y-28.0000
G01 X16.4418 Y-27.9992
G01 X16.4331 Y-27.9996
G01 X16.4246 Y-28.0014
G01 X16.3493 Y-28.0273
G01 X16.3404 Y-28.0317
G01 X16.3343 Y-28.0361
G01 X16.3299 Y-28.0404
G01 X16.2776 Y-28.1004
G01 X16.2747 Y-28.1042
G01 X16.2717 Y-28.1093
G01 X16.2437 Y-28.1666
G01 X16.2302 Y-28.1805
G01 X16.2050 Y-28.2133
G01 X16.2001 Y-28.2217
G01 X16.1972 Y-28.2298
G01 X16.1772 Y-28.3043
G01 X16.1762 Y-28.3090
G01 X16.1756 Y-28.3149
G01 X16.1755 Y-28.6887
G01 X16.1765 Y-28.6973
G01 X16.1881 Y-28.7550
G01 X16.1897 Y-28.7609
G01 X16.1925 Y-28.7676
G01 X16.1969 Y-28.7748
G01 X16.2449 Y-28.8367
G01 X16.2488 Y-28.8412
G01 X16.2542 Y-28.8459
G01 X16.3394 Y-28.9106
G01 X16.4182 Y-29.0144
G01 X16.4663 Y-29.1359
G01 X16.4755 Y-29.2122
G01 X16.4755 Y-29.7878
G01 X16.4663 Y-29.8641
G01 X16.4182 Y-29.9856
G01 X16.3394 Y-30.0894
G01 X16.2356 Y-30.1682
G01 X16.1141 Y-30.2163
G01 X16.0378 Y-30.2255
G01 X15.5122 Y-30.2255
G01 X15.4359 Y-30.2163
G01 X15.3144 Y-30.1682
G01 X15.2106 Y-30.0894
G01 X15.2069 Y-30.0848
G01 X15.2035 Y-30.0812
G01 X15.1894 Y-30.0689
G01 X15.1844 Y-30.0652
G01 X15.1767 Y-30.0611
G01 X15.1033 Y-30.0303
G01 X15.0936 Y-30.0278
G01 X15.0874 Y-30.0273
G01 X15.0824 Y-30.0274
G01 X15.0034 Y-30.0373
G01 X14.9985 Y-30.0382
G01 X14.9925 Y-30.0400
G01 X14.9868 Y-30.0425
G01 X14.9825 Y-30.0450
G01 X14.9162 Y-30.0952
G01 X14.9110 Y-30.1002
G01 X14.9036 Y-30.1096
G01 X14.8096 Y-30.2036
G01 X14.7999 Y-30.2111
G01 X14.6855 Y-30.2787
G01 X14.6742 Y-30.2836
G01 X14.5444 Y-30.3214
G01 X14.5345 Y-30.3232
G01 X14.5250 Y-30.3239
G01 X14.5250 Y-30.0144
G01 X14.5310 Y-30.0128
G01 X14.5552 Y-30.0041
G01 X14.5818 Y-29.9913
G01 X14.6028 Y-29.9787
G01 X14.6225 Y-29.9641
G01 X14.6461 Y-29.9427
G01 X14.6626 Y-29.9245
G01 X14.6772 Y-29.9048
G01 X14.6925 Y-29.8796
G01 X14.7050 Y-29.8529
G01 X14.7132 Y-29.8298
G01 X14.7197 Y-29.8036
G01 X14.7237 Y-29.7770
G01 X14.7250 Y-29.7500
G01 X14.7250 Y-29.2500
G01 X14.7237 Y-29.2230
G01 X14.7201 Y-29.1988
G01 X14.7124 Y-29.1678
G01 X14.7041 Y-29.1448
G01 X14.6925 Y-29.1204
G01 X14.6787 Y-29.0972
G01 X14.6641 Y-29.0775
G01 X14.6427 Y-29.0539
G01 X14.6245 Y-29.0374
G01 X14.6028 Y-29.0213
G01 X14.5796 Y-29.0075
G01 X14.5575 Y-28.9969
G01 X14.5322 Y-28.9876
G01 X14.5250 Y-28.9856
G01 X14.5250 Y-28.6761
G01 X14.5345 Y-28.6768
G01 X14.5444 Y-28.6786
G01 X14.6742 Y-28.7164
G01 X14.6855 Y-28.7213
G01 X14.7999 Y-28.7889
G01 X14.8096 Y-28.7964
G01 X14.9036 Y-28.8904
G01 X14.9107 Y-28.8995
G01 X14.9240 Y-28.9144
G01 X14.9285 Y-28.9187
G01 X14.9356 Y-28.9238
G01 X15.0057 Y-28.9641
G01 X15.0103 Y-28.9660
G01 X15.0163 Y-28.9678
G01 X15.0262 Y-28.9690
G01 X15.1045 Y-28.9690
G01 X15.1145 Y-28.9680
G01 X15.1216 Y-28.9660
G01 X15.1285 Y-28.9629
G01 X15.1952 Y-28.9244
G01 X15.2014 Y-28.9202
G01 X15.2060 Y-28.9160
G01 X15.2106 Y-28.9106
G01 X15.2996 Y-28.8427
G01 X15.3428 Y-28.7941
G01 X15.3483 Y-28.7861
G01 X15.3509 Y-28.7806
G01 X15.3528 Y-28.7749
G01 X15.3728 Y-28.7004
G01 X15.3743 Y-28.6922
G01 X15.3745 Y-28.4983
G01 X15.3741 Y-28.4936
G01 X15.3731 Y-28.4877
G01 X15.3528 Y-28.4121
G01 X15.3504 Y-28.4050
G01 X15.3475 Y-28.3995
G01 X15.3448 Y-28.3953
G01 X15.3408 Y-28.3905
G01 X15.2854 Y-28.3351
G01 X15.2807 Y-28.3310
G01 X15.2745 Y-28.3269
G01 X15.2688 Y-28.3241
G01 X15.2629 Y-28.3222
G01 X15.1884 Y-28.3022
G01 X15.1791 Y-28.3006
G01 X14.8930 Y-28.3005
G01 X14.8312 Y-28.2915
G01 X14.7334 Y-28.2437
G01 X14.6567 Y-28.1671
G01 X14.6087 Y-28.0694
G01 X14.5995 Y-28.0069
G01 X14.5995 Y-27.7930
G01 X14.6085 Y-27.7312
G01 X14.6122 Y-27.7231
G01 X14.6174 Y-27.7060
G01 X14.6185 Y-27.6987
G01 X14.6186 Y-27.6923
G01 X14.6241 Y-27.6716
G01 X14.6251 Y-27.6654
G01 X14.6252 Y-27.6604
G01 X14.6246 Y-27.6529
G01 X14.6177 Y-27.6168
G01 X14.6189 Y-27.6080
G01 X14.6183 Y-27.5982
G01 X14.6170 Y-27.5922
G01 X14.6128 Y-27.5787
G01 X14.6087 Y-27.5694
G01 X14.5995 Y-27.5069
G01 X14.5993 Y-27.4616
G01 X14.5954 Y-27.4257
G01 X14.5940 Y-27.4197
G01 X14.5924 Y-27.4150
G01 X14.5542 Y-27.3410
G01 X14.5494 Y-27.3337
G01 X14.5433 Y-27.3275
G01 X14.5373 Y-27.3230
G01 X14.4682 Y-27.2791
G01 X14.4616 Y-27.2763
G01 X14.4218 Y-27.2637
G01 X14.4158 Y-27.2602
G01 X14.4105 Y-27.2580
G01 X14.3690 Y-27.2273
G01 X14.3227 Y-27.1953
G01 X14.3063 Y-27.1744
G01 X14.2927 Y-27.1591
G01 X14.2613 Y-27.1277
G01 X14.2532 Y-27.1205
G01 X14.2468 Y-27.1161
G01 X14.2128 Y-27.0793
G01 X14.1900 Y-27.0564
G01 X14.1899 Y-25.9575
G01 X14.1893 Y-25.9515
G01 X14.1878 Y-25.9455
G01 X14.1852 Y-25.9386
G01 X14.1822 Y-25.9333
G01 X14.1787 Y-25.9283
G01 X14.1745 Y-25.9238
G01 X14.1688 Y-25.9191
G01 X14.1636 Y-25.9159
G01 X14.1545 Y-25.9122
G01 X14.1449 Y-25.9102
G01 X14.0995 Y-25.9100
G01 X14.0995 Y-25.2172
G01 X14.0985 Y-25.2085
G01 X14.0853 Y-25.1453
G01 X14.0821 Y-25.1374
G01 X14.0776 Y-25.1301
G01 X14.0293 Y-25.0685
G01 X14.0224 Y-25.0613
G01 X14.0142 Y-25.0556
G01 X14.0086 Y-25.0529
G01 X13.9326 Y-25.0226
G01 X13.9256 Y-25.0211
G01 X13.8859 Y-25.0163
G01 X13.7644 Y-24.9682
G01 X13.6606 Y-24.8894
G01 X13.6001 Y-24.8097
G01 X13.6001 Y-23.7903
G01 X13.6606 Y-23.7106
G01 X13.7418 Y-23.6489
G01 X13.7598 Y-23.6333
G01 X13.7642 Y-23.6287
G01 X13.7693 Y-23.6215
G01 X13.8090 Y-23.5525
G01 X13.8127 Y-23.5432
G01 X13.8140 Y-23.5371
G01 X13.8145 Y-23.5322
G01 X13.8145 Y-23.4501
G01 X13.8130 Y-23.4402
G01 X13.8111 Y-23.4343
G01 X13.8090 Y-23.4298
G01 X13.7686 Y-23.3597
G01 X13.7626 Y-23.3518
G01 X13.7571 Y-23.3467
G01 X13.7520 Y-23.3431
G01 X13.7000 Y-23.3130
G01 X13.7000 Y-23.0000
G01 X14.3037 Y-22.9999
G01 X14.3121 Y-22.9985
G01 X14.3191 Y-22.9962
G01 X14.3267 Y-22.9922
G01 X14.3336 Y-22.9870
G01 X14.3387 Y-22.9817
G01 X14.3435 Y-22.9746
G01 X14.3471 Y-22.9668
G01 X14.3493 Y-22.9585
G01 X14.3500 Y-22.9500
G01 X14.3500 Y-20.4500
G01 X14.3496 Y-20.4439
G01 X14.3485 Y-20.4379
G01 X14.3462 Y-20.4309
G01 X14.3435 Y-20.4254
G01 X14.3394 Y-20.4192
G01 X14.3354 Y-20.4146
G01 X14.3308 Y-20.4106
G01 X14.3246 Y-20.4065
G01 X14.3180 Y-20.4034
G01 X14.3121 Y-20.4015
G01 X14.3061 Y-20.4004
G01 X14.3000 Y-20.4000
G01 X12.5000 Y-20.4000
G01 X12.4939 Y-20.4004
G01 X12.4890 Y-20.4012
G01 X12.4797 Y-20.4043
G01 X12.4733 Y-20.4078
G01 X12.4683 Y-20.4113
G01 X12.4630 Y-20.4164
G01 X12.4584 Y-20.4222
G01 X12.4553 Y-20.4275
G01 X12.4525 Y-20.4343
G01 X12.4507 Y-20.4415
G01 X12.4500 Y-20.4488
G01 X12.4500 Y-21.4000
G01 X12.1500 Y-21.4000
G01 X12.1499 Y-20.9521
G01 X12.1486 Y-20.9427
G01 X12.1280 Y-20.8659
G01 X12.1259 Y-20.8600
G01 X12.1236 Y-20.8555
G01 X12.1203 Y-20.8503
G01 X12.1171 Y-20.8465
G01 X12.0609 Y-20.7901
G01 X12.0531 Y-20.7838
G01 X12.0466 Y-20.7801
G01 X12.0396 Y-20.7775
G01 X11.9593 Y-20.7562
G01 X11.9510 Y-20.7555
G01 X8.5650 Y-20.7555
G01 X8.4924 Y-20.7459
G01 X8.4258 Y-20.7281
G01 X8.3278 Y-20.6797
G01 X8.3021 Y-20.6601
G01 X8.2745 Y-20.6359
G01 X6.8968 Y-19.2581
G01 X6.8928 Y-19.2546
G01 X6.8661 Y-19.2331
G01 X6.8588 Y-19.2287
G01 X6.8519 Y-19.2259
G01 X6.7773 Y-19.2020
G01 X6.7675 Y-19.2002
G01 X6.7600 Y-19.2001
G01 X6.7538 Y-19.2009
G01 X6.6724 Y-19.2188
G01 X6.6644 Y-19.2222
G01 X6.6561 Y-19.2277
G01 X6.5946 Y-19.2837
G01 X6.5894 Y-19.2902
G01 X6.5600 Y-19.3358
G01 X6.3419 Y-19.1177
G01 X6.3906 Y-19.0364
G01 X6.4472 Y-18.9166
G01 X6.4919 Y-18.7919
G01 X6.5235 Y-18.6658
G01 X6.5437 Y-18.5299
G01 X6.5500 Y-18.4000
G01 X6.5436 Y-18.2689
G01 X6.5235 Y-18.1342
G01 X6.4919 Y-18.0081
G01 X6.4472 Y-17.8834
G01 X6.3906 Y-17.7636
G01 X6.3238 Y-17.6521
G01 X6.2420 Y-17.5417
G01 X6.1546 Y-17.4454
G01 X6.0564 Y-17.3564
G01 X5.9500 Y-17.2775
G01 X5.8385 Y-17.2106
G01 X5.7143 Y-17.1519
G01 X5.5919 Y-17.1081
G01 X5.4622 Y-17.0757
G01 X5.3323 Y-17.0565
G01 X5.2000 Y-17.0500
G01 X5.0677 Y-17.0565
G01 X4.9378 Y-17.0757
G01 X4.8081 Y-17.1081
G01 X4.6834 Y-17.1528
G01 X4.5636 Y-17.2094
G01 X4.4823 Y-17.2581
G01 X4.2645 Y-17.0402
G01 X4.3123 Y-17.0088
G01 X4.3389 Y-16.9872
G01 X4.3441 Y-16.9821
G01 X4.3498 Y-16.9742
G01 X4.3883 Y-16.9074
G01 X4.3916 Y-16.9007
G01 X4.3935 Y-16.8948
G01 X4.3946 Y-16.8886
G01 X4.3950 Y-16.8824
G01 X4.3950 Y-16.8040
G01 X4.3945 Y-16.7978
G01 X4.3935 Y-16.7930
G01 X4.3916 Y-16.7870
G01 X4.3889 Y-16.7814
G01 X4.3498 Y-16.7135
G01 X4.3458 Y-16.7076
G01 X4.3418 Y-16.7031
G01 X2.8653 Y-15.2266
G01 X2.8207 Y-15.1686
G01 X2.7863 Y-15.1089
G01 X2.7511 Y-15.0053
G01 X2.7469 Y-14.9733
G01 X2.7445 Y-14.9366
G01 X2.7445 Y-10.1523
G01 X2.7541 Y-10.0797
G01 X2.7720 Y-10.0128
G01 X2.8156 Y-9.9217
G01 X2.8407 Y-9.8925
G01 X2.8906 Y-9.8426
G01 X2.9739 Y-9.7855
G01 X3.0102 Y-9.7727
G01 X3.0797 Y-9.7541
G01 X3.1523 Y-9.7445
G01 X14.3477 Y-9.7445
G01 X14.4203 Y-9.7541
G01 X14.4872 Y-9.7720
G01 X14.5783 Y-9.8156
G01 X14.6075 Y-9.8407
G01 X14.6574 Y-9.8906
G01 X14.7145 Y-9.9739
G01 X14.7273 Y-10.0102
G01 X14.7459 Y-10.0797
G01 X14.7555 Y-10.1523
G01 X14.7555 Y-13.5467
G01 X14.7560 Y-13.5526
G01 X14.7569 Y-13.5573
G01 X14.7772 Y-13.6329
G01 X14.7791 Y-13.6388
G01 X14.7825 Y-13.6455
G01 X14.7860 Y-13.6507
G01 X14.7901 Y-13.6554
G01 X14.8455 Y-13.7108
G01 X14.8503 Y-13.7148
G01 X14.8545 Y-13.7175
G01 X14.8612 Y-13.7209
G01 X14.8671 Y-13.7228
G01 X14.9427 Y-13.7431
G01 X14.9486 Y-13.7441
G01 X14.9545 Y-13.7445
G01 X20.8477 Y-13.7445
G01 X20.9203 Y-13.7541
G01 X20.9872 Y-13.7720
G01 X21.0783 Y-13.8156
G01 X21.1075 Y-13.8407
G01 X21.1574 Y-13.8906
G01 X21.2145 Y-13.9739
G01 X21.2273 Y-14.0102
G01 X21.2459 Y-14.0797
G01 X21.2555 Y-14.1523
G01 X21.2555 Y-14.7028
G01 X21.2568 Y-14.7249
G01 X21.2577 Y-14.7310
G01 X21.2597 Y-14.7382
G01 X21.2894 Y-14.8120
G01 X21.2943 Y-14.8207
G01 X21.3007 Y-14.8283
G01 X21.3662 Y-14.8799
G01 X21.3714 Y-14.8833
G01 X21.3758 Y-14.8856
G01 X21.3817 Y-14.8877
G01 X21.3878 Y-14.8891
G01 X21.4689 Y-14.9006
G01 X21.4760 Y-14.9006
G01 X21.4852 Y-14.8995
G01 X22.2148 Y-14.8995
G01 X22.2951 Y-14.9092
G01 X22.4230 Y-14.9599
G01 X22.5322 Y-15.0428
G01 X22.6151 Y-15.1520
G01 X22.6658 Y-15.2799
G01 X22.6755 Y-15.3602
G01 X22.6755 Y-17.6398
G01 X22.6658 Y-17.7201
G01 X22.6151 Y-17.8480
G01 X22.5322 Y-17.9572
G01 X22.5222 Y-17.9654
G01 X22.4937 Y-17.9936
G01 X22.4876 Y-18.0013
G01 X22.4836 Y-18.0089
G01 X22.4533 Y-18.0812
G01 X22.4506 Y-18.0908
G01 X22.4498 Y-18.1007
G01 X22.4603 Y-18.1847
G01 X22.4625 Y-18.1931
G01 X22.4669 Y-18.2020
G01 X22.5075 Y-18.2560
G01 X22.5107 Y-18.2611
G01 X22.5145 Y-18.2659
G01 X22.5210 Y-18.2729
G01 X22.5250 Y-18.2765
G01 X22.6235 Y-18.3749
G01 X22.6310 Y-18.3847
G01 X22.7019 Y-18.5045
G01 X22.7068 Y-18.5158
G01 X22.7462 Y-18.6517
G01 X22.7481 Y-18.6616
G01 X22.7500 Y-18.6883
G01 X22.7500 Y-18.9498
G01 X22.4500 Y-18.9498
G01 X22.4500 Y-18.7500
G01 X22.4486 Y-18.7206
G01 X22.4442 Y-18.6915
G01 X22.4371 Y-18.6629
G01 X22.4272 Y-18.6352
G01 X22.4146 Y-18.6086
G01 X22.3980 Y-18.5813
G01 X22.3819 Y-18.5597
G01 X22.3638 Y-18.5396
G01 X22.3403 Y-18.5181
G01 X22.3167 Y-18.5006
G01 X22.2914 Y-18.4854
G01 X22.2625 Y-18.4720
G01 X22.2371 Y-18.4629
G01 X22.2109 Y-18.4563
G01 X22.1806 Y-18.4516
G01 X22.1500 Y-18.4500
G01 X21.4988 Y-18.4500
G01 X21.4706 Y-18.4514
G01 X21.4439 Y-18.4553
G01 X21.4129 Y-18.4629
G01 X21.3852 Y-18.4728
G01 X21.3608 Y-18.4843
G01 X21.3333 Y-18.5006
G01 X21.3097 Y-18.5181
G01 X21.2896 Y-18.5362
G01 X21.2666 Y-18.5616
G01 X21.2506 Y-18.5833
G01 X21.2354 Y-18.6086
G01 X21.2228 Y-18.6352
G01 X21.2137 Y-18.6606
G01 X21.2053 Y-18.6939
G01 X21.2014 Y-18.7206
G01 X21.2001 Y-18.7475
G01 X21.2000 Y-20.0500
G01 X21.2013 Y-20.0782
G01 X21.2058 Y-20.1085
G01 X21.2129 Y-20.1371
G01 X21.2228 Y-20.1648
G01 X21.2366 Y-20.1936
G01 X21.2520 Y-20.2187
G01 X21.2681 Y-20.2403
G01 X21.2862 Y-20.2604
G01 X21.3097 Y-20.2819
G01 X21.3323 Y-20.2987
G01 X21.3608 Y-20.3157
G01 X21.3852 Y-20.3272
G01 X21.4129 Y-20.3371
G01 X21.4439 Y-20.3447
G01 X21.4706 Y-20.3486
G01 X21.4975 Y-20.3499
G01 X22.1512 Y-20.3500
G01 X22.1794 Y-20.3486
G01 X22.2061 Y-20.3447
G01 X22.2371 Y-20.3371
G01 X22.2648 Y-20.3272
G01 X22.2914 Y-20.3146
G01 X22.3167 Y-20.2994
G01 X22.3422 Y-20.2803
G01 X22.3638 Y-20.2604
G01 X22.3819 Y-20.2403
G01 X22.3980 Y-20.2187
G01 X22.4146 Y-20.1914
G01 X22.4267 Y-20.1659
G01 X22.4371 Y-20.1371
G01 X22.4437 Y-20.1109
G01 X22.4487 Y-20.0782
G01 X22.4500 Y-20.0500
G01 X22.4500 Y-19.8502
G01 X22.7500 Y-19.8502
G01 X22.7500 Y-20.1117
G01 X22.7481 Y-20.1384
G01 X22.7462 Y-20.1483
G01 X22.7068 Y-20.2842
G01 X22.7019 Y-20.2955
G01 X22.6310 Y-20.4153
G01 X22.6235 Y-20.4251
G01 X22.5251 Y-20.5235
G01 X22.5112 Y-20.5343
G01 X22.4964 Y-20.5473
G01 X22.4928 Y-20.5508
G01 X22.4889 Y-20.5556
G01 X22.4464 Y-20.6288
G01 X22.4439 Y-20.6345
G01 X22.4424 Y-20.6393
G01 X22.4413 Y-20.6454
G01 X22.4409 Y-20.6504
G01 X22.4409 Y-20.7312
G01 X22.4421 Y-20.7399
G01 X22.4448 Y-20.7482
G01 X22.4476 Y-20.7538
G01 X22.4887 Y-20.8246
G01 X22.4924 Y-20.8292
G01 X22.4995 Y-20.8363
G01 X22.5072 Y-20.8428
G01 X22.5901 Y-20.9520
G01 X22.6408 Y-21.0799
G01 X22.6505 Y-21.1602
G01 X22.6505 Y-23.4398
G01 X22.6408 Y-23.5201
G01 X22.5901 Y-23.6480
G01 X22.5072 Y-23.7572
G01 X22.3980 Y-23.8401
G01 X22.3444 Y-23.8614
G01 X22.3226 Y-23.8720
G01 X22.3155 Y-23.8764
G01 X22.3101 Y-23.8811
G01 X22.2547 Y-23.9365
G01 X22.2485 Y-23.9444
G01 X22.2446 Y-23.9522
G01 X22.2426 Y-23.9581
G01 X22.2226 Y-24.0326
G01 X22.2214 Y-24.0387
G01 X22.2209 Y-24.0449
G01 X22.2212 Y-24.0511
G01 X22.2223 Y-24.0572
G01 X22.2433 Y-24.1353
G01 X22.2456 Y-24.1411
G01 X22.2479 Y-24.1455
G01 X22.2514 Y-24.1507
G01 X22.2555 Y-24.1554
G01 X22.3119 Y-24.2116
G01 X22.3157 Y-24.2148
G01 X22.3210 Y-24.2181
G01 X22.3301 Y-24.2221
G01 X22.4081 Y-24.2431
G01 X22.4140 Y-24.2441
G01 X22.4187 Y-24.2445
G01 X23.9732 Y-24.2445
G01 X23.9817 Y-24.2436
G01 X24.0380 Y-24.2325
G01 X24.0438 Y-24.2310
G01 X24.0493 Y-24.2288
G01 X24.0536 Y-24.2266
G01 X24.0586 Y-24.2233
G01 X24.1200 Y-24.1767
G01 X24.1247 Y-24.1726
G01 X24.1311 Y-24.1649
G01 X24.1354 Y-24.1573
G01 X24.1662 Y-24.0839
G01 X24.1681 Y-24.0780
G01 X24.1691 Y-24.0731
G01 X24.1697 Y-24.0657
G01 X24.1693 Y-24.0595
G01 X24.1594 Y-23.9817
G01 X24.1584 Y-23.9768
G01 X24.1565 Y-23.9709
G01 X24.1539 Y-23.9652
G01 X24.1506 Y-23.9600
G01 X24.1001 Y-23.8939
G01 X24.0949 Y-23.8890
G01 X24.0750 Y-23.8735
G01 X23.9765 Y-23.7751
G01 X23.9690 Y-23.7653
G01 X23.8981 Y-23.6455
G01 X23.8932 Y-23.6342
G01 X23.8538 Y-23.4983
G01 X23.8519 Y-23.4884
G01 X23.8500 Y-23.4617
G01 X23.8500 Y-22.7502
G01 X24.1500 Y-22.7502
G01 X24.1500 Y-23.4012
G01 X24.1517 Y-23.4318
G01 X24.1558 Y-23.4585
G01 X24.1626 Y-23.4859
G01 X24.1738 Y-23.5170
G01 X24.1854 Y-23.5414
G01 X24.2006 Y-23.5667
G01 X24.2181 Y-23.5903
G01 X24.2362 Y-23.6104
G01 X24.2597 Y-23.6319
G01 X24.2854 Y-23.6508
G01 X24.3086 Y-23.6646
G01 X24.3352 Y-23.6772
G01 X24.3629 Y-23.6871
G01 X24.3891 Y-23.6937
G01 X24.4230 Y-23.6987
G01 X24.4500 Y-23.7000
G01 X25.1000 Y-23.7000
G01 X25.1270 Y-23.6987
G01 X25.1585 Y-23.6942
G01 X25.1894 Y-23.6863
G01 X25.2148 Y-23.6772
G01 X25.2392 Y-23.6657
G01 X25.2667 Y-23.6494
G01 X25.2903 Y-23.6319
G01 X25.3121 Y-23.6121
G01 X25.3319 Y-23.5903
G01 X25.3494 Y-23.5667
G01 X25.3646 Y-23.5414
G01 X25.3772 Y-23.5148
G01 X25.3871 Y-23.4871
G01 X25.3945 Y-23.4573
G01 X25.3986 Y-23.4294
G01 X25.4000 Y-23.4000
G01 X25.4000 Y-22.8502
G01 X25.7000 Y-22.8502
G01 X25.7000 Y-23.4617
G01 X25.6981 Y-23.4884
G01 X25.6962 Y-23.4983
G01 X25.6568 Y-23.6342
G01 X25.6519 Y-23.6455
G01 X25.5810 Y-23.7653
G01 X25.5735 Y-23.7751
G01 X25.4750 Y-23.8735
G01 X25.4550 Y-23.8890
G01 X25.4514 Y-23.8923
G01 X25.4112 Y-23.9381
G01 X25.4076 Y-23.9429
G01 X25.4040 Y-23.9491
G01 X25.4010 Y-23.9569
G01 X25.3807 Y-24.0326
G01 X25.3792 Y-24.0411
G01 X25.3791 Y-24.0486
G01 X25.3804 Y-24.0572
G01 X25.4010 Y-24.1341
G01 X25.4026 Y-24.1388
G01 X25.4053 Y-24.1445
G01 X25.4087 Y-24.1497
G01 X25.4127 Y-24.1545
G01 X25.4690 Y-24.2108
G01 X25.4738 Y-24.2148
G01 X25.4790 Y-24.2181
G01 X25.4846 Y-24.2209
G01 X25.4905 Y-24.2228
G01 X25.5650 Y-24.2428
G01 X25.5744 Y-24.2444
G01 X41.1730 Y-24.2443
G01 X41.2154 Y-24.2388
G01 X41.2214 Y-24.2375
G01 X41.2272 Y-24.2355
G01 X41.2327 Y-24.2327
G01 X41.2995 Y-24.1942
G01 X41.3066 Y-24.1892
G01 X41.3128 Y-24.1830
G01 X41.3171 Y-24.1769
G01 X41.3569 Y-24.1080
G01 X41.3596 Y-24.1023
G01 X41.3615 Y-24.0964
G01 X41.3625 Y-24.0915
G01 X41.3630 Y-24.0853
G01 X41.3630 Y-24.0057
G01 X41.3620 Y-23.9970
G01 X41.3596 Y-23.9887
G01 X41.3563 Y-23.9819
G01 X41.3152 Y-23.9111
G01 X41.3098 Y-23.9048
G01 X41.2688 Y-23.8638
G01 X41.2598 Y-23.8514
G01 X41.2165 Y-23.7664
G01 X41.2118 Y-23.7519
G01 X41.2006 Y-23.6814
G01 X41.2000 Y-23.6737
G01 X41.2000 Y-22.8502
G01 X41.5000 Y-22.8502
G01 X41.5001 Y-23.6525
G01 X41.5012 Y-23.6610
G01 X41.5034 Y-23.6680
G01 X41.5065 Y-23.6746
G01 X41.5113 Y-23.6817
G01 X41.5173 Y-23.6879
G01 X41.5243 Y-23.6929
G01 X41.5320 Y-23.6966
G01 X41.5390 Y-23.6988
G01 X41.5451 Y-23.6998
G01 X41.5500 Y-23.7000
G01 X44.8525 Y-23.6999
G01 X44.8621 Y-23.6985
G01 X44.8703 Y-23.6957
G01 X44.8788 Y-23.6909
G01 X44.8854 Y-23.6854
G01 X44.8909 Y-23.6788
G01 X44.8957 Y-23.6703
G01 X44.8988 Y-23.6610
G01 X44.8999 Y-23.6525
G01 X44.9000 Y-22.7000
G01 X45.2000 Y-22.7000
G01 X45.2000 Y-23.6737
G01 X45.1994 Y-23.6814
G01 X45.1882 Y-23.7519
G01 X45.1835 Y-23.7664
G01 X45.1402 Y-23.8514
G01 X45.1312 Y-23.8638
G01 X45.0902 Y-23.9048
G01 X45.0867 Y-23.9087
G01 X45.0608 Y-23.9425
G01 X45.0565 Y-23.9500
G01 X45.0539 Y-23.9569
G01 X45.0333 Y-24.0338
G01 X45.0321 Y-24.0411
G01 X45.0320 Y-24.0486
G01 X45.0336 Y-24.0584
G01 X45.0543 Y-24.1353
G01 X45.0566 Y-24.1411
G01 X45.0589 Y-24.1455
G01 X45.0616 Y-24.1497
G01 X45.0656 Y-24.1545
G01 X45.1219 Y-24.2108
G01 X45.1267 Y-24.2148
G01 X45.1319 Y-24.2181
G01 X45.1376 Y-24.2209
G01 X45.1435 Y-24.2228
G01 X45.2180 Y-24.2428
G01 X45.2262 Y-24.2443
G01 X46.1005 Y-24.2445
G01 X46.1064 Y-24.2441
G01 X46.1123 Y-24.2431
G01 X46.1879 Y-24.2228
G01 X46.1950 Y-24.2204
G01 X46.2005 Y-24.2175
G01 X46.2057 Y-24.2140
G01 X46.2095 Y-24.2108
G01 X46.2649 Y-24.1554
G01 X46.2705 Y-24.1487
G01 X46.2743 Y-24.1423
G01 X46.2778 Y-24.1329
G01 X46.2978 Y-24.0584
G01 X46.2991 Y-24.0514
G01 X46.2995 Y-24.0455
G01 X46.2995 Y-19.0114
G01 X46.3000 Y-19.0000
G01 X46.2995 Y-18.9886
G01 X46.2995 Y-11.0897
G01 X46.2992 Y-11.0845
G01 X46.2938 Y-11.0434
G01 X46.2925 Y-11.0374
G01 X46.2905 Y-11.0317
G01 X46.2877 Y-11.0262
G01 X46.2492 Y-10.9594
G01 X46.2459 Y-10.9544
G01 X46.2420 Y-10.9499
G01 X44.8510 Y-9.5588
G01 X44.8461 Y-9.5545
G01 X44.8152 Y-9.5308
G01 X44.8069 Y-9.5256
G01 X44.7977 Y-9.5222
G01 X44.7232 Y-9.5022
G01 X44.7162 Y-9.5009
G01 X44.7103 Y-9.5005
G01 X35.0209 Y-9.5006
G01 X35.0116 Y-9.5022
G01 X34.9371 Y-9.5222
G01 X34.9312 Y-9.5241
G01 X34.9255 Y-9.5269
G01 X34.9193 Y-9.5310
G01 X34.9146 Y-9.5351
G01 X34.8601 Y-9.5896
G01 X34.8545 Y-9.5963
G01 X34.8507 Y-9.6027
G01 X34.8475 Y-9.6109
G01 X34.8262 Y-9.6912
G01 X34.8255 Y-9.6983
G01 X34.8255 Y-9.7378
G01 X34.8163 Y-9.8141
G01 X34.7682 Y-9.9356
G01 X34.6894 Y-10.0394
G01 X34.5856 Y-10.1182
G01 X34.4641 Y-10.1663
G01 X34.3878 Y-10.1755
G01 X33.8863 Y-10.1755
G01 X33.8781 Y-10.1762
G01 X33.8060 Y-10.1933
G01 X33.8001 Y-10.1953
G01 X33.7935 Y-10.1986
G01 X33.7855 Y-10.2044
G01 X33.7271 Y-10.2568
G01 X33.7206 Y-10.2643
G01 X33.7157 Y-10.2730
G01 X33.6893 Y-10.3533
G01 X33.6876 Y-10.3632
G01 X33.6878 Y-10.3719
G01 X33.7054 Y-10.4557
G01 X33.7088 Y-10.4646
G01 X33.7145 Y-10.4739
G01 X33.7273 Y-10.5102
G01 X33.7459 Y-10.5797
G01 X33.7555 Y-10.6523
G01 X33.7556 Y-12.3144
G01 X33.7612 Y-12.3580
G01 X33.7625 Y-12.3640
G01 X33.7645 Y-12.3698
G01 X33.7673 Y-12.3753
G01 X33.8064 Y-12.4431
G01 X33.8098 Y-12.4480
G01 X33.8138 Y-12.4525
G01 X36.0475 Y-14.6862
G01 X36.0525 Y-14.6905
G01 X36.0843 Y-14.7149
G01 X36.0895 Y-14.7182
G01 X36.0950 Y-14.7209
G01 X36.1008 Y-14.7228
G01 X36.1765 Y-14.7431
G01 X36.1823 Y-14.7441
G01 X36.1883 Y-14.7445
G01 X39.3477 Y-14.7445
G01 X39.4203 Y-14.7541
G01 X39.4872 Y-14.7720
G01 X39.5783 Y-14.8156
G01 X39.6075 Y-14.8407
G01 X39.6574 Y-14.8906
G01 X39.7145 Y-14.9739
G01 X39.7273 Y-15.0102
G01 X39.7459 Y-15.0797
G01 X39.7555 Y-15.1523
G01 X39.7555 Y-17.8110
G01 X39.7570 Y-17.8342
G01 X39.7591 Y-17.8440
G01 X39.7895 Y-17.9189
G01 X39.7929 Y-17.9256
G01 X39.7980 Y-17.9327
G01 X39.8042 Y-17.9387
G01 X39.8671 Y-17.9875
G01 X39.8723 Y-17.9909
G01 X39.8768 Y-17.9931
G01 X39.8839 Y-17.9956
G01 X39.8900 Y-17.9968
G01 X39.9664 Y-18.0073
G01 X39.9763 Y-18.0076
G01 X39.9837 Y-18.0066
G01 X39.9909 Y-18.0045
G01 X40.0635 Y-17.9749
G01 X40.0688 Y-17.9723
G01 X40.0748 Y-17.9684
G01 X40.1520 Y-17.9099
G01 X40.2799 Y-17.8592
G01 X40.3602 Y-17.8495
G01 X41.0898 Y-17.8495
G01 X41.1701 Y-17.8592
G01 X41.2980 Y-17.9099
G01 X41.4072 Y-17.9928
G01 X41.4901 Y-18.1020
G01 X41.5408 Y-18.2299
G01 X41.5505 Y-18.3102
G01 X41.5505 Y-19.6898
G01 X41.5408 Y-19.7701
G01 X41.4901 Y-19.8980
G01 X41.4072 Y-20.0072
G01 X41.2980 Y-20.0901
G01 X41.1701 Y-20.1408
G01 X41.1083 Y-20.1483
G01 X41.1003 Y-20.1501
G01 X41.0363 Y-20.1722
G01 X41.0311 Y-20.1749
G01 X40.9915 Y-20.1986
G01 X40.8410 Y-20.2449
G01 X40.6839 Y-20.2540
G01 X40.5290 Y-20.2253
G01 X40.3888 Y-20.1621
G01 X40.3381 Y-20.1480
G01 X40.2799 Y-20.1408
G01 X40.1520 Y-20.0901
G01 X40.1466 Y-20.0862
G01 X40.1328 Y-20.0775
G01 X40.1250 Y-20.0737
G01 X40.0411 Y-20.0512
G01 X40.0328 Y-20.0505
G01 X39.9545 Y-20.0505
G01 X39.9474 Y-20.0510
G01 X39.9416 Y-20.0522
G01 X39.8659 Y-20.0725
G01 X39.8589 Y-20.0751
G01 X39.8524 Y-20.0788
G01 X39.8446 Y-20.0851
G01 X39.7901 Y-20.1396
G01 X39.7860 Y-20.1443
G01 X39.7825 Y-20.1495
G01 X39.7796 Y-20.1550
G01 X39.7775 Y-20.1609
G01 X39.7572 Y-20.2366
G01 X39.7560 Y-20.2424
G01 X39.7555 Y-20.2495
G01 X39.7555 Y-20.8477
G01 X39.7459 Y-20.9203
G01 X39.7280 Y-20.9872
G01 X39.6844 Y-21.0783
G01 X39.6593 Y-21.1075
G01 X39.6094 Y-21.1574
G01 X39.5261 Y-21.2145
G01 X39.4898 Y-21.2273
G01 X39.4203 Y-21.2459
G01 X39.3477 Y-21.2555
G01 X26.1523 Y-21.2555
G01 X26.0797 Y-21.2459
G01 X26.0128 Y-21.2280
G01 X25.9838 Y-21.2141
G01 X25.9768 Y-21.2116
G01 X25.9089 Y-21.1961
G01 X25.9029 Y-21.1953
G01 X25.8968 Y-21.1952
G01 X25.8872 Y-21.1966
G01 X25.8092 Y-21.2175
G01 X25.8034 Y-21.2198
G01 X25.7990 Y-21.2221
G01 X25.7948 Y-21.2249
G01 X25.7900 Y-21.2289
G01 X25.7337 Y-21.2852
G01 X25.7297 Y-21.2900
G01 X25.7270 Y-21.2941
G01 X25.7241 Y-21.2997
G01 X25.7220 Y-21.3055
G01 X25.7017 Y-21.3812
G01 X25.7005 Y-21.3870
G01 X25.7000 Y-21.3942
G01 X25.7000 Y-21.9498
G01 X25.4000 Y-21.9498
G01 X25.4000 Y-21.2000
G01 X25.3986 Y-21.1706
G01 X25.3942 Y-21.1415
G01 X25.3877 Y-21.1153
G01 X25.3762 Y-21.0830
G01 X25.3646 Y-21.0586
G01 X25.3494 Y-21.0333
G01 X25.3319 Y-21.0097
G01 X25.3138 Y-20.9896
G01 X25.2903 Y-20.9681
G01 X25.2687 Y-20.9520
G01 X25.2392 Y-20.9343
G01 X25.2148 Y-20.9228
G01 X25.1871 Y-20.9129
G01 X25.1585 Y-20.9058
G01 X25.1294 Y-20.9014
G01 X25.1000 Y-20.9000
G01 X24.4475 Y-20.9001
G01 X24.4206 Y-20.9014
G01 X24.3939 Y-20.9053
G01 X24.3629 Y-20.9129
G01 X24.3330 Y-20.9238
G01 X24.3086 Y-20.9354
G01 X24.2854 Y-20.9492
G01 X24.2597 Y-20.9681
G01 X24.2362 Y-20.9896
G01 X24.2181 Y-21.0097
G01 X24.2020 Y-21.0313
G01 X24.1843 Y-21.0608
G01 X24.1720 Y-21.0875
G01 X24.1629 Y-21.1129
G01 X24.1563 Y-21.1391
G01 X24.1514 Y-21.1706
G01 X24.1501 Y-21.1975
G01 X24.1500 Y-21.8498
G01 X23.9865 Y-21.8498
G01 X23.8500 Y-21.7133
G01 X23.8500 Y-21.1383
G01 X23.8519 Y-21.1116
G01 X23.8538 Y-21.1017
G01 X23.8932 Y-20.9658
G01 X23.8981 Y-20.9545
G01 X23.9690 Y-20.8347
G01 X23.9765 Y-20.8249
G01 X24.0749 Y-20.7265
G01 X24.0888 Y-20.7157
G01 X24.1045 Y-20.7018
G01 X24.1080 Y-20.6983
G01 X24.1139 Y-20.6902
G01 X24.1536 Y-20.6212
G01 X24.1561 Y-20.6155
G01 X24.1576 Y-20.6107
G01 X24.1591 Y-20.6009
G01 X24.1591 Y-20.5212
G01 X24.1587 Y-20.5150
G01 X24.1576 Y-20.5089
G01 X24.1557 Y-20.5030
G01 X24.1536 Y-20.4984
G01 X24.1120 Y-20.4264
G01 X24.1076 Y-20.4208
G01 X24.1005 Y-20.4137
G01 X24.0928 Y-20.4072
G01 X24.0099 Y-20.2980
G01 X23.9592 Y-20.1701
G01 X23.9495 Y-20.0898
G01 X23.9495 Y-18.7102
G01 X23.9592 Y-18.6299
G01 X24.0099 Y-18.5020
G01 X24.0928 Y-18.3928
G01 X24.1028 Y-18.3846
G01 X24.1313 Y-18.3564
G01 X24.1374 Y-18.3487
G01 X24.1414 Y-18.3411
G01 X24.1717 Y-18.2688
G01 X24.1744 Y-18.2592
G01 X24.1752 Y-18.2493
G01 X24.1649 Y-18.1666
G01 X24.1629 Y-18.1581
G01 X24.1594 Y-18.1501
G01 X24.1553 Y-18.1439
G01 X24.1175 Y-18.0940
G01 X24.1143 Y-18.0889
G01 X24.1105 Y-18.0841
G01 X24.1040 Y-18.0771
G01 X24.1000 Y-18.0735
G01 X24.0015 Y-17.9751
G01 X23.9940 Y-17.9653
G01 X23.9231 Y-17.8455
G01 X23.9182 Y-17.8342
G01 X23.8788 Y-17.6983
G01 X23.8769 Y-17.6884
G01 X23.8750 Y-17.6617
G01 X23.8750 Y-16.9502
G01 X24.1750 Y-16.9502
G01 X24.1750 Y-17.6000
G01 X24.1764 Y-17.6294
G01 X24.1805 Y-17.6573
G01 X24.1879 Y-17.6871
G01 X24.1978 Y-17.7148
G01 X24.2104 Y-17.7414
G01 X24.2270 Y-17.7687
G01 X24.2431 Y-17.7903
G01 X24.2612 Y-17.8104
G01 X24.2828 Y-17.8303
G01 X24.3083 Y-17.8494
G01 X24.3325 Y-17.8640
G01 X24.3602 Y-17.8772
G01 X24.3903 Y-17.8877
G01 X24.4165 Y-17.8942
G01 X24.4432 Y-17.8983
G01 X24.4725 Y-17.8999
G01 X25.1250 Y-17.9000
G01 X25.1532 Y-17.8987
G01 X25.1835 Y-17.8942
G01 X25.2121 Y-17.8871
G01 X25.2398 Y-17.8772
G01 X25.2664 Y-17.8646
G01 X25.2917 Y-17.8494
G01 X25.3153 Y-17.8319
G01 X25.3371 Y-17.8121
G01 X25.3569 Y-17.7903
G01 X25.3744 Y-17.7667
G01 X25.3884 Y-17.7436
G01 X25.4030 Y-17.7125
G01 X25.4121 Y-17.6871
G01 X25.4192 Y-17.6585
G01 X25.4236 Y-17.6294
G01 X25.4250 Y-17.6012
G01 X25.4250 Y-15.4000
G01 X25.4237 Y-15.3718
G01 X25.4192 Y-15.3415
G01 X25.4121 Y-15.3129
G01 X25.4022 Y-15.2852
G01 X25.3896 Y-15.2586
G01 X25.3744 Y-15.2333
G01 X25.3569 Y-15.2097
G01 X25.3371 Y-15.1879
G01 X25.3153 Y-15.1681
G01 X25.2917 Y-15.1506
G01 X25.2664 Y-15.1354
G01 X25.2398 Y-15.1228
G01 X25.2121 Y-15.1129
G01 X25.1835 Y-15.1058
G01 X25.1556 Y-15.1016
G01 X25.1262 Y-15.1000
G01 X25.1000 Y-15.1000
G01 X25.1000 Y-14.8000
G01 X25.1867 Y-14.8000
G01 X25.2134 Y-14.8019
G01 X25.2233 Y-14.8038
G01 X25.3592 Y-14.8432
G01 X25.3705 Y-14.8481
G01 X25.4442 Y-14.8917
G01 X25.4530 Y-14.8958
G01 X25.5335 Y-14.9179
G01 X25.5430 Y-14.9193
G01 X25.5514 Y-14.9191
G01 X25.5584 Y-14.9177
G01 X25.6329 Y-14.8977
G01 X25.6388 Y-14.8958
G01 X25.6445 Y-14.8931
G01 X25.6497 Y-14.8897
G01 X25.6545 Y-14.8857
G01 X25.7099 Y-14.8303
G01 X25.7132 Y-14.8266
G01 X25.7169 Y-14.8215
G01 X25.7199 Y-14.8160
G01 X25.7221 Y-14.8102
G01 X25.7428 Y-14.7334
G01 X25.7443 Y-14.7252
G01 X25.7445 Y-9.8523
G01 X25.7546 Y-9.7752
G01 X25.7548 Y-9.7675
G01 X25.7563 Y-9.7520
G01 X25.7563 Y-9.7460
G01 X25.7547 Y-9.7366
G01 X25.7347 Y-9.6621
G01 X25.7327 Y-9.6562
G01 X25.7300 Y-9.6505
G01 X25.7259 Y-9.6443
G01 X25.7218 Y-9.6396
G01 X25.6672 Y-9.5851
G01 X25.6606 Y-9.5795
G01 X25.6530 Y-9.5751
G01 X25.6460 Y-9.5725
G01 X25.5703 Y-9.5522
G01 X25.5633 Y-9.5509
G01 X25.5574 Y-9.5505
G01 X25.4083 Y-9.5505
G01 X25.3930 Y-9.5487
G01 X25.3060 Y-9.5103
G01 X25.2400 Y-9.4443
G01 X25.2014 Y-9.3574
G01 X25.1995 Y-9.3417
G01 X25.1995 Y-7.4583
G01 X25.2013 Y-7.4430
G01 X25.2397 Y-7.3560
G01 X25.3057 Y-7.2900
G01 X25.3926 Y-7.2514
G01 X25.4083 Y-7.2495
G01 X25.5598 Y-7.2494
G01 X25.5938 Y-7.2461
G01 X25.5996 Y-7.2449
G01 X25.6053 Y-7.2429
G01 X25.6789 Y-7.2068
G01 X25.6842 Y-7.2035
G01 X25.6900 Y-7.1988
G01 X25.6965 Y-7.1913
G01 X25.7407 Y-7.1251
G01 X25.7452 Y-7.1162
G01 X25.7478 Y-7.1066
G01 X25.7519 Y-7.0470
G01 X25.7542 Y-7.0382
G01 X25.7549 Y-7.0297
G01 X25.7545 Y-7.0235
G01 X25.7445 Y-6.9477
G01 X25.7444 Y-4.2821
G01 X25.7431 Y-4.2727
G01 X25.7221 Y-4.1947
G01 X25.7204 Y-4.1900
G01 X25.7175 Y-4.1845
G01 X25.7140 Y-4.1793
G01 X25.7099 Y-4.1746
G01 X25.6545 Y-4.1192
G01 X25.6497 Y-4.1152
G01 X25.6445 Y-4.1119
G01 X25.6388 Y-4.1091
G01 X25.6329 Y-4.1072
G01 X25.5584 Y-4.0872
G01 X25.5491 Y-4.0856
G01 X23.1471 Y-4.0855
G01 X23.1471 Y-0.4483
G01 X23.1468 Y-0.4436
G01 X23.1457 Y-0.4377
G01 X23.1255 Y-0.3621
G01 X23.1235 Y-0.3562
G01 X23.1208 Y-0.3505
G01 X23.1174 Y-0.3453
G01 X23.1134 Y-0.3405
G01 X23.0552 Y-0.2826
G01 X23.0471 Y-0.2769
G01 X23.0415 Y-0.2741
G01 X23.0368 Y-0.2725
G01 X22.9599 Y-0.2519
G01 X22.9541 Y-0.2509
G01 X22.9481 Y-0.2505
G01 X1.0371 Y-0.2505
G01 X1.0080 Y-0.2531
G01 X1.0000 Y-0.2544
G01 X0.9934 Y-0.2533
G01 X0.9884 Y-0.2529
G01 X0.9650 Y-0.2537
G01 X0.8696 Y-0.2632
G01 X0.8362 Y-0.2700
G01 X0.7272 Y-0.3033
G01 X0.6969 Y-0.3160
G01 X0.5965 Y-0.3699
G01 X0.5693 Y-0.3883
G01 X0.4850 Y-0.4574
G01 X0.4607 Y-0.4814
G01 X0.3883 Y-0.5693
G01 X0.3692 Y-0.5976
G01 X0.3160 Y-0.6969
G01 X0.3028 Y-0.7284
G01 X0.2700 Y-0.8362
G01 X0.2632 Y-0.8696
G01 X0.2537 Y-0.9650
G01 X0.2529 Y-0.9884
G01 X0.2533 Y-0.9934
G01 X0.2544 Y-1.0000
G01 X0.2530 Y-1.0091
G01 X0.2505 Y-1.0393
G00 Z2.0000
G00 X4.7645 Y-3.4402
G01 F60.00
G01 Z0.0000
G01 F120.00
G01 X4.9823 Y-3.6581
G01 X5.0636 Y-3.6094
G01 X5.1811 Y-3.5538
G01 X5.3093 Y-3.5078
G01 X5.4366 Y-3.4759
G01 X5.5652 Y-3.4568
G01 X5.7000 Y-3.4500
G01 X5.8348 Y-3.4568
G01 X5.9634 Y-3.4759
G01 X6.0907 Y-3.5078
G01 X6.2189 Y-3.5538
G01 X6.3364 Y-3.6094
G01 X6.4177 Y-3.6581
G01 X6.6352 Y-3.4405
G01 X6.5428 Y-3.3764
G01 X6.5365 Y-3.3727
G01 X6.3231 Y-3.2675
G01 X6.3163 Y-3.2647
G01 X6.0898 Y-3.1922
G01 X6.0826 Y-3.1905
G01 X5.8478 Y-3.1523
G01 X5.8405 Y-3.1516
G01 X5.6027 Y-3.1485
G01 X5.5954 Y-3.1490
G01 X5.3596 Y-3.1810
G01 X5.3525 Y-3.1826
G01 X5.1241 Y-3.2491
G01 X5.1172 Y-3.2517
G01 X4.9012 Y-3.3513
G01 X4.8948 Y-3.3548
G01 X4.7645 Y-3.4402
G00 Z2.0000
G00 X4.9064 Y-3.4548
G01 F60.00
G01 Z0.0000
G01 F120.00
G01 X4.9963 Y-3.5448
G01 X5.0152 Y-3.5334
G01 X5.0242 Y-3.5285
G01 X5.1489 Y-3.4696
G01 X5.2755 Y-3.4242
G01 X5.2886 Y-3.4202
G01 X5.4191 Y-3.3877
G01 X5.5520 Y-3.3678
G01 X5.5657 Y-3.3664
G01 X5.7000 Y-3.3600
G01 X5.8343 Y-3.3664
G01 X5.8480 Y-3.3678
G01 X5.9809 Y-3.3877
G01 X6.1114 Y-3.4202
G01 X6.1245 Y-3.4242
G01 X6.2511 Y-3.4696
G01 X6.3758 Y-3.5285
G01 X6.3848 Y-3.5334
G01 X6.4037 Y-3.5448
G01 X6.4954 Y-3.4531
G01 X6.4937 Y-3.4519
G01 X6.2863 Y-3.3497
G01 X6.0655 Y-3.2789
G01 X5.8367 Y-3.2416
G01 X5.6048 Y-3.2385
G01 X5.3751 Y-3.2698
G01 X5.1525 Y-3.3346
G01 X4.9419 Y-3.4316
G01 X4.9064 Y-3.4548
G00 Z2.0000
G00 X4.1362 Y-4.7594
G01 F60.00
G01 Z0.0000
G01 F120.00
G01 X4.1473 Y-4.9903
G01 X4.1925 Y-5.2177
G01 X4.2708 Y-5.4360
G01 X4.3552 Y-5.5933
G01 X4.4448 Y-5.5037
G01 X4.4334 Y-5.4848
G01 X4.4285 Y-5.4758
G01 X4.3696 Y-5.3511
G01 X4.3242 Y-5.2245
G01 X4.3202 Y-5.2114
G01 X4.2877 Y-5.0809
G01 X4.2678 Y-4.9480
G01 X4.2664 Y-4.9343
G01 X4.2600 Y-4.8000
G01 X4.2664 Y-4.6657
G01 X4.2678 Y-4.6520
G01 X4.2877 Y-4.5191
G01 X4.3202 Y-4.3886
G01 X4.3242 Y-4.3755
G01 X4.3696 Y-4.2489
G01 X4.4285 Y-4.1242
G01 X4.4334 Y-4.1152
G01 X4.4448 Y-4.0963
G01 X4.3560 Y-4.0076
G01 X4.3060 Y-4.0901
G01 X4.2164 Y-4.3039
G01 X4.1594 Y-4.5287
G01 X4.1362 Y-4.7594
G00 Z2.0000
G00 X4.0461 Y-4.7604
G01 F60.00
G01 Z0.0000
G01 F120.00
G01 X4.0575 Y-4.9980
G01 X4.0584 Y-5.0052
G01 X4.1048 Y-5.2386
G01 X4.1068 Y-5.2456
G01 X4.1872 Y-5.4695
G01 X4.1902 Y-5.4762
G01 X4.3028 Y-5.6858
G01 X4.3067 Y-5.6920
G01 X4.3396 Y-5.7361
G01 X4.5581 Y-5.5177
G01 X4.5094 Y-5.4364
G01 X4.4538 Y-5.3189
G01 X4.4078 Y-5.1907
G01 X4.3759 Y-5.0634
G01 X4.3568 Y-4.9348
G01 X4.3500 Y-4.8000
G01 X4.3568 Y-4.6652
G01 X4.3759 Y-4.5366
G01 X4.4078 Y-4.4093
G01 X4.4538 Y-4.2811
G01 X4.5094 Y-4.1636
G01 X4.5581 Y-4.0823
G01 X4.3386 Y-3.8628
G01 X4.2276 Y-4.0457
G01 X4.2243 Y-4.0522
G01 X4.1323 Y-4.2716
G01 X4.1300 Y-4.2785
G01 X4.0714 Y-4.5091
G01 X4.0701 Y-4.5163
G01 X4.0463 Y-4.7530
G01 X4.0461 Y-4.7604
G00 Z2.0000
G00 X4.7643 Y-6.1600
G01 F60.00
G01 Z0.0000
G01 F120.00
G01 X4.8202 Y-6.2010
G01 X4.8264 Y-6.2049
G01 X5.0370 Y-6.3157
G01 X5.0437 Y-6.3186
G01 X5.2683 Y-6.3970
G01 X5.2754 Y-6.3989
G01 X5.5091 Y-6.4433
G01 X5.5164 Y-6.4441
G01 X5.7541 Y-6.4535
G01 X5.7614 Y-6.4532
G01 X5.9979 Y-6.4273
G01 X6.0051 Y-6.4260
G01 X6.2352 Y-6.3654
G01 X6.2421 Y-6.3630
G01 X6.4607 Y-6.2691
G01 X6.4671 Y-6.2657
G01 X6.6366 Y-6.1609
G01 X6.4177 Y-5.9419
G01 X6.3364 Y-5.9906
G01 X6.2189 Y-6.0462
G01 X6.0907 Y-6.0922
G01 X5.9634 Y-6.1241
G01 X5.8348 Y-6.1432
G01 X5.7000 Y-6.1500
G01 X5.5652 Y-6.1432
G01 X5.4366 Y-6.1241
G01 X5.3093 Y-6.0922
G01 X5.1811 Y-6.0462
G01 X5.0636 Y-5.9906
G01 X4.9823 Y-5.9419
G01 X4.7643 Y-6.1600
G00 Z2.0000
G00 X4.9063 Y-6.1452
G01 F60.00
G01 Z0.0000
G01 F120.00
G01 X5.0765 Y-6.2347
G01 X5.2954 Y-6.3111
G01 X5.5232 Y-6.3543
G01 X5.7543 Y-6.3634
G01 X5.9848 Y-6.3382
G01 X6.2090 Y-6.2792
G01 X6.4221 Y-6.1878
G01 X6.4926 Y-6.1441
G01 X6.4037 Y-6.0552
G01 X6.3848 Y-6.0666
G01 X6.3758 Y-6.0715
G01 X6.2511 Y-6.1304
G01 X6.1245 Y-6.1758
G01 X6.1114 Y-6.1798
G01 X5.9809 Y-6.2123
G01 X5.8480 Y-6.2322
G01 X5.8343 Y-6.2336
G01 X5.7000 Y-6.2400
G01 X5.5657 Y-6.2336
G01 X5.5520 Y-6.2322
G01 X5.4191 Y-6.2123
G01 X5.2886 Y-6.1798
G01 X5.2755 Y-6.1758
G01 X5.1489 Y-6.1304
G01 X5.0242 Y-6.0715
G01 X5.0152 Y-6.0666
G01 X4.9963 Y-6.0552
G01 X4.9063 Y-6.1452
G00 Z2.0000
G00 X6.8419 Y-5.5177
G01 F60.00
G01 Z0.0000
G01 F120.00
G01 X7.0600 Y-5.7358
G01 X7.1521 Y-5.5926
G01 X7.1556 Y-5.5862
G01 X7.2533 Y-5.3693
G01 X7.2558 Y-5.3624
G01 X7.3204 Y-5.1334
G01 X7.3219 Y-5.1262
G01 X7.3522 Y-4.8879
G01 X7.3547 Y-4.8037
G01 X7.3367 Y-4.5591
G01 X7.3356 Y-4.5518
G01 X7.2831 Y-4.3198
G01 X7.2810 Y-4.3128
G01 X7.1948 Y-4.0911
G01 X7.1916 Y-4.0845
G01 X7.0736 Y-3.8779
G01 X7.0695 Y-3.8719
G01 X7.0620 Y-3.8623
G01 X6.8419 Y-4.0823
G01 X6.8906 Y-4.1636
G01 X6.9462 Y-4.2811
G01 X6.9922 Y-4.4093
G01 X7.0241 Y-4.5366
G01 X7.0432 Y-4.6652
G01 X7.0500 Y-4.8000
G01 X7.0432 Y-4.9348
G01 X7.0241 Y-5.0634
G01 X6.9922 Y-5.1907
G01 X6.9462 Y-5.3189
G01 X6.8906 Y-5.4364
G01 X6.8419 Y-5.5177
G00 Z2.0000
G00 X6.9552 Y-5.5037
G01 F60.00
G01 Z0.0000
G01 F120.00
G01 X7.0447 Y-5.5932
G01 X7.0749 Y-5.5462
G01 X7.1701 Y-5.3347
G01 X7.2330 Y-5.1116
G01 X7.2627 Y-4.8783
G01 X7.2646 Y-4.8031
G01 X7.2472 Y-4.5691
G01 X7.1961 Y-4.3429
G01 X7.1121 Y-4.1268
G01 X7.0440 Y-4.0076
G01 X6.9552 Y-4.0963
G01 X6.9666 Y-4.1152
G01 X6.9715 Y-4.1242
G01 X7.0276 Y-4.2427
G01 X7.0317 Y-4.2521
G01 X7.0780 Y-4.3820
G01 X7.1116 Y-4.5157
G01 X7.1135 Y-4.5258
G01 X7.1322 Y-4.6520
G01 X7.1336 Y-4.6657
G01 X7.1400 Y-4.8000
G01 X7.1336 Y-4.9343
G01 X7.1322 Y-4.9480
G01 X7.1123 Y-5.0809
G01 X7.0780 Y-5.2180
G01 X7.0329 Y-5.3447
G01 X7.0290 Y-5.3542
G01 X6.9715 Y-5.4758
G01 X6.9666 Y-5.4848
G01 X6.9552 Y-5.5037
G00 Z2.0000
G00 X9.0461 Y-4.7604
G01 F60.00
G01 Z0.0000
G01 F120.00
G01 X9.0575 Y-4.9980
G01 X9.0584 Y-5.0052
G01 X9.1048 Y-5.2386
G01 X9.1068 Y-5.2456
G01 X9.1872 Y-5.4695
G01 X9.1902 Y-5.4762
G01 X9.3028 Y-5.6858
G01 X9.3067 Y-5.6920
G01 X9.3396 Y-5.7361
G01 X9.5581 Y-5.5177
G01 X9.5094 Y-5.4364
G01 X9.4538 Y-5.3189
G01 X9.4078 Y-5.1907
G01 X9.3759 Y-5.0634
G01 X9.3568 Y-4.9348
G01 X9.3500 Y-4.8000
G01 X9.3568 Y-4.6652
G01 X9.3759 Y-4.5366
G01 X9.4078 Y-4.4093
G01 X9.4538 Y-4.2811
G01 X9.5094 Y-4.1636
G01 X9.5581 Y-4.0823
G01 X9.3386 Y-3.8628
G01 X9.2276 Y-4.0457
G01 X9.2243 Y-4.0522
G01 X9.1323 Y-4.2716
G01 X9.1300 Y-4.2785
G01 X9.0714 Y-4.5091
G01 X9.0701 Y-4.5163
G01 X9.0463 Y-4.7530
G01 X9.0461 Y-4.7604
G00 Z2.0000
G00 X9.1362 Y-4.7594
G01 F60.00
G01 Z0.0000
G01 F120.00
G01 X9.1473 Y-4.9903
G01 X9.1925 Y-5.2177
G01 X9.2708 Y-5.4360
G01 X9.3552 Y-5.5933
G01 X9.4448 Y-5.5037
G01 X9.4334 Y-5.4848
G01 X9.4285 Y-5.4758
G01 X9.3696 Y-5.3511
G01 X9.3242 Y-5.2245
G01 X9.3202 Y-5.2114
G01 X9.2877 Y-5.0809
G01 X9.2678 Y-4.9480
G01 X9.2664 Y-4.9343
G01 X9.2600 Y-4.8000
G01 X9.2664 Y-4.6657
G01 X9.2678 Y-4.6520
G01 X9.2877 Y-4.5191
G01 X9.3202 Y-4.3886
G01 X9.3242 Y-4.3755
G01 X9.3696 Y-4.2489
G01 X9.4285 Y-4.1242
G01 X9.4334 Y-4.1152
G01 X9.4448 Y-4.0963
G01 X9.3560 Y-4.0076
G01 X9.3060 Y-4.0901
G01 X9.2164 Y-4.3039
G01 X9.1594 Y-4.5287
G01 X9.1362 Y-4.7594
G00 Z2.0000
G00 X9.7645 Y-3.4402
G01 F60.00
G01 Z0.0000
G01 F120.00
G01 X9.9823 Y-3.6581
G01 X10.0636 Y-3.6094
G01 X10.1811 Y-3.5538
G01 X10.3093 Y-3.5078
G01 X10.4366 Y-3.4759
G01 X10.5652 Y-3.4568
G01 X10.7000 Y-3.4500
G01 X10.8348 Y-3.4568
G01 X10.9634 Y-3.4759
G01 X11.0907 Y-3.5078
G01 X11.2189 Y-3.5538
G01 X11.3364 Y-3.6094
G01 X11.4177 Y-3.6581
G01 X11.6352 Y-3.4405
G01 X11.5428 Y-3.3764
G01 X11.5365 Y-3.3727
G01 X11.3231 Y-3.2675
G01 X11.3163 Y-3.2647
G01 X11.0898 Y-3.1922
G01 X11.0826 Y-3.1905
G01 X10.8478 Y-3.1523
G01 X10.8405 Y-3.1516
G01 X10.6027 Y-3.1485
G01 X10.5954 Y-3.1490
G01 X10.3596 Y-3.1810
G01 X10.3525 Y-3.1826
G01 X10.1241 Y-3.2491
G01 X10.1172 Y-3.2517
G01 X9.9012 Y-3.3513
G01 X9.8948 Y-3.3548
G01 X9.7645 Y-3.4402
G00 Z2.0000
G00 X9.9064 Y-3.4548
G01 F60.00
G01 Z0.0000
G01 F120.00
G01 X9.9963 Y-3.5448
G01 X10.0152 Y-3.5334
G01 X10.0242 Y-3.5285
G01 X10.1489 Y-3.4696
G01 X10.2755 Y-3.4242
G01 X10.2886 Y-3.4202
G01 X10.4191 Y-3.3877
G01 X10.5520 Y-3.3678
G01 X10.5657 Y-3.3664
G01 X10.7000 Y-3.3600
G01 X10.8343 Y-3.3664
G01 X10.8480 Y-3.3678
G01 X10.9809 Y-3.3877
G01 X11.1114 Y-3.4202
G01 X11.1245 Y-3.4242
G01 X11.2511 Y-3.4696
G01 X11.3758 Y-3.5285
G01 X11.3848 Y-3.5334
G01 X11.4037 Y-3.5448
G01 X11.4954 Y-3.4531
G01 X11.4937 Y-3.4519
G01 X11.2863 Y-3.3497
G01 X11.0655 Y-3.2789
G01 X10.8367 Y-3.2416
G01 X10.6048 Y-3.2385
G01 X10.3751 Y-3.2698
G01 X10.1525 Y-3.3346
G01 X9.9419 Y-3.4316
G01 X9.9064 Y-3.4548
G00 Z2.0000
G00 X9.9063 Y-6.1452
G01 F60.00
G01 Z0.0000
G01 F120.00
G01 X10.0765 Y-6.2347
G01 X10.2954 Y-6.3111
G01 X10.5232 Y-6.3543
G01 X10.7543 Y-6.3634
G01 X10.9848 Y-6.3382
G01 X11.2090 Y-6.2792
G01 X11.4221 Y-6.1878
G01 X11.4926 Y-6.1441
G01 X11.4037 Y-6.0552
G01 X11.3848 Y-6.0666
G01 X11.3758 Y-6.0715
G01 X11.2511 Y-6.1304
G01 X11.1245 Y-6.1758
G01 X11.1114 Y-6.1798
G01 X10.9809 Y-6.2123
G01 X10.8480 Y-6.2322
G01 X10.8343 Y-6.2336
G01 X10.7000 Y-6.2400
G01 X10.5657 Y-6.2336
G01 X10.5520 Y-6.2322
G01 X10.4191 Y-6.2123
G01 X10.2886 Y-6.1798
G01 X10.2755 Y-6.1758
G01 X10.1489 Y-6.1304
G01 X10.0242 Y-6.0715
G01 X10.0152 Y-6.0666
G01 X9.9963 Y-6.0552
G01 X9.9063 Y-6.1452
G00 Z2.0000
G00 X9.7643 Y-6.1600
G01 F60.00
G01 Z0.0000
G01 F120.00
G01 X9.8202 Y-6.2010
G01 X9.8264 Y-6.2049
G01 X10.0370 Y-6.3157
G01 X10.0437 Y-6.3186
G01 X10.2683 Y-6.3970
G01 X10.2754 Y-6.3989
G01 X10.5091 Y-6.4433
G01 X10.5164 Y-6.4441
G01 X10.7541 Y-6.4535
G01 X10.7614 Y-6.4532
G01 X10.9979 Y-6.4273
G01 X11.0051 Y-6.4260
G01 X11.2352 Y-6.3654
G01 X11.2421 Y-6.3630
G01 X11.4607 Y-6.2691
G01 X11.4671 Y-6.2657
G01 X11.6366 Y-6.1609
G01 X11.4177 Y-5.9419
G01 X11.3364 Y-5.9906
G01 X11.2189 Y-6.0462
G01 X11.0907 Y-6.0922
G01 X10.9634 Y-6.1241
G01 X10.8348 Y-6.1432
G01 X10.7000 Y-6.1500
G01 X10.5652 Y-6.1432
G01 X10.4366 Y-6.1241
G01 X10.3093 Y-6.0922
G01 X10.1811 Y-6.0462
G01 X10.0636 Y-5.9906
G01 X9.9823 Y-5.9419
G01 X9.7643 Y-6.1600
G00 Z2.0000
G00 X11.8419 Y-5.5177
G01 F60.00
G01 Z0.0000
G01 F120.00
G01 X12.0600 Y-5.7358
G01 X12.1521 Y-5.5926
G01 X12.1556 Y-5.5862
G01 X12.2533 Y-5.3693
G01 X12.2558 Y-5.3624
G01 X12.3204 Y-5.1334
G01 X12.3219 Y-5.1262
G01 X12.3522 Y-4.8879
G01 X12.3547 Y-4.8037
G01 X12.3367 Y-4.5591
G01 X12.3356 Y-4.5518
G01 X12.2831 Y-4.3198
G01 X12.2810 Y-4.3128
G01 X12.1948 Y-4.0911
G01 X12.1916 Y-4.0845
G01 X12.0736 Y-3.8779
G01 X12.0695 Y-3.8719
G01 X12.0620 Y-3.8623
G01 X11.8419 Y-4.0823
G01 X11.8906 Y-4.1636
G01 X11.9462 Y-4.2811
G01 X11.9922 Y-4.4093
G01 X12.0241 Y-4.5366
G01 X12.0432 Y-4.6652
G01 X12.0500 Y-4.8000
G01 X12.0432 Y-4.9348
G01 X12.0241 Y-5.0634
G01 X11.9922 Y-5.1907
G01 X11.9462 Y-5.3189
G01 X11.8906 Y-5.4364
G01 X11.8419 Y-5.5177
G00 Z2.0000
G00 X11.9552 Y-5.5037
G01 F60.00
G01 Z0.0000
G01 F120.00
G01 X12.0447 Y-5.5932
G01 X12.0749 Y-5.5462
G01 X12.1701 Y-5.3347
G01 X12.2330 Y-5.1116
G01 X12.2627 Y-4.8783
G01 X12.2646 Y-4.8031
G01 X12.2472 Y-4.5691
G01 X12.1961 Y-4.3429
G01 X12.1121 Y-4.1268
G01 X12.0440 Y-4.0076
G01 X11.9552 Y-4.0963
G01 X11.9666 Y-4.1152
G01 X11.9715 Y-4.1242
G01 X12.0276 Y-4.2427
G01 X12.0317 Y-4.2521
G01 X12.0780 Y-4.3820
G01 X12.1116 Y-4.5157
G01 X12.1135 Y-4.5258
G01 X12.1322 Y-4.6520
G01 X12.1336 Y-4.6657
G01 X12.1400 Y-4.8000
G01 X12.1336 Y-4.9343
G01 X12.1322 Y-4.9480
G01 X12.1123 Y-5.0809
G01 X12.0780 Y-5.2180
G01 X12.0329 Y-5.3447
G01 X12.0290 Y-5.3542
G01 X11.9715 Y-5.4758
G01 X11.9666 Y-5.4848
G01 X11.9552 Y-5.5037
G00 Z2.0000
G00 X14.0461 Y-4.7604
G01 F60.00
G01 Z0.0000
G01 F120.00
G01 X14.0575 Y-4.9980
G01 X14.0584 Y-5.0052
G01 X14.1048 Y-5.2386
G01 X14.1068 Y-5.2456
G01 X14.1872 Y-5.4695
G01 X14.1902 Y-5.4762
G01 X14.3028 Y-5.6858
G01 X14.3067 Y-5.6920
G01 X14.3396 Y-5.7361
G01 X14.5581 Y-5.5177
G01 X14.5094 Y-5.4364
G01 X14.4538 Y-5.3189
G01 X14.4078 Y-5.1907
G01 X14.3759 Y-5.0634
G01 X14.3568 Y-4.9348
G01 X14.3500 Y-4.8000
G01 X14.3568 Y-4.6652
G01 X14.3759 Y-4.5366
G01 X14.4078 Y-4.4093
G01 X14.4538 Y-4.2811
G01 X14.5094 Y-4.1636
G01 X14.5581 Y-4.0823
G01 X14.3386 Y-3.8628
G01 X14.2276 Y-4.0457
G01 X14.2243 Y-4.0522
G01 X14.1323 Y-4.2716
G01 X14.1300 Y-4.2785
G01 X14.0714 Y-4.5091
G01 X14.0701 Y-4.5163
G01 X14.0463 Y-4.7530
G01 X14.0461 Y-4.7604
G00 Z2.0000
G00 X14.1362 Y-4.7594
G01 F60.00
G01 Z0.0000
G01 F120.00
G01 X14.1473 Y-4.9903
G01 X14.1925 Y-5.2177
G01 X14.2708 Y-5.4360
G01 X14.3552 Y-5.5933
G01 X14.4448 Y-5.5037
G01 X14.4334 Y-5.4848
G01 X14.4285 Y-5.4758
G01 X14.3696 Y-5.3511
G01 X14.3242 Y-5.2245
G01 X14.3202 Y-5.2114
G01 X14.2877 Y-5.0809
G01 X14.2678 Y-4.9480
G01 X14.2664 Y-4.9343
G01 X14.2600 Y-4.8000
G01 X14.2664 Y-4.6657
G01 X14.2678 Y-4.6520
G01 X14.2877 Y-4.5191
G01 X14.3202 Y-4.3886
G01 X14.3242 Y-4.3755
G01 X14.3696 Y-4.2489
G01 X14.4285 Y-4.1242
G01 X14.4334 Y-4.1152
G01 X14.4448 Y-4.0963
G01 X14.3560 Y-4.0076
G01 X14.3060 Y-4.0901
G01 X14.2164 Y-4.3039
G01 X14.1594 Y-4.5287
G01 X14.1362 Y-4.7594
G00 Z2.0000
G00 X14.7645 Y-3.4402
G01 F60.00
G01 Z0.0000
G01 F120.00
G01 X14.9823 Y-3.6581
G01 X15.0636 Y-3.6094
G01 X15.1811 Y-3.5538
G01 X15.3093 Y-3.5078
G01 X15.4366 Y-3.4759
G01 X15.5652 Y-3.4568
G01 X15.7000 Y-3.4500
G01 X15.8348 Y-3.4568
G01 X15.9634 Y-3.4759
G01 X16.0907 Y-3.5078
G01 X16.2189 Y-3.5538
G01 X16.3364 Y-3.6094
G01 X16.4177 Y-3.6581
G01 X16.6352 Y-3.4405
G01 X16.5428 Y-3.3764
G01 X16.5365 Y-3.3727
G01 X16.3231 Y-3.2675
G01 X16.3163 Y-3.2647
G01 X16.0898 Y-3.1922
G01 X16.0826 Y-3.1905
G01 X15.8478 Y-3.1523
G01 X15.8405 Y-3.1516
G01 X15.6027 Y-3.1485
G01 X15.5954 Y-3.1490
G01 X15.3596 Y-3.1810
G01 X15.3525 Y-3.1826
G01 X15.1241 Y-3.2491
G01 X15.1172 Y-3.2517
G01 X14.9012 Y-3.3513
G01 X14.8948 Y-3.3548
G01 X14.7645 Y-3.4402
G00 Z2.0000
G00 X14.9064 Y-3.4548
G01 F60.00
G01 Z0.0000
G01 F120.00
G01 X14.9963 Y-3.5448
G01 X15.0152 Y-3.5334
G01 X15.0242 Y-3.5285
G01 X15.1489 Y-3.4696
G01 X15.2755 Y-3.4242
G01 X15.2886 Y-3.4202
G01 X15.4191 Y-3.3877
G01 X15.5520 Y-3.3678
G01 X15.5657 Y-3.3664
G01 X15.7000 Y-3.3600
G01 X15.8343 Y-3.3664
G01 X15.8480 Y-3.3678
G01 X15.9809 Y-3.3877
G01 X16.1114 Y-3.4202
G01 X16.1245 Y-3.4242
G01 X16.2511 Y-3.4696
G01 X16.3758 Y-3.5285
G01 X16.3848 Y-3.5334
G01 X16.4037 Y-3.5448
G01 X16.4954 Y-3.4531
G01 X16.4937 Y-3.4519
G01 X16.2863 Y-3.3497
G01 X16.0655 Y-3.2789
G01 X15.8367 Y-3.2416
G01 X15.6048 Y-3.2385
G01 X15.3751 Y-3.2698
G01 X15.1525 Y-3.3346
G01 X14.9419 Y-3.4316
G01 X14.9064 Y-3.4548
G00 Z2.0000
G00 X14.9063 Y-6.1452
G01 F60.00
G01 Z0.0000
G01 F120.00
G01 X15.0765 Y-6.2347
G01 X15.2954 Y-6.3111
G01 X15.5232 Y-6.3543
G01 X15.7543 Y-6.3634
G01 X15.9848 Y-6.3382
G01 X16.2090 Y-6.2792
G01 X16.4221 Y-6.1878
G01 X16.4926 Y-6.1441
G01 X16.4037 Y-6.0552
G01 X16.3848 Y-6.0666
G01 X16.3758 Y-6.0715
G01 X16.2511 Y-6.1304
G01 X16.1245 Y-6.1758
G01 X16.1114 Y-6.1798
G01 X15.9809 Y-6.2123
G01 X15.8480 Y-6.2322
G01 X15.8343 Y-6.2336
G01 X15.7000 Y-6.2400
G01 X15.5657 Y-6.2336
G01 X15.5520 Y-6.2322
G01 X15.4191 Y-6.2123
G01 X15.2886 Y-6.1798
G01 X15.2755 Y-6.1758
G01 X15.1489 Y-6.1304
G01 X15.0242 Y-6.0715
G01 X15.0152 Y-6.0666
G01 X14.9963 Y-6.0552
G01 X14.9063 Y-6.1452
G00 Z2.0000
G00 X14.7643 Y-6.1600
G01 F60.00
G01 Z0.0000
G01 F120.00
G01 X14.8202 Y-6.2010
G01 X14.8264 Y-6.2049
G01 X15.0370 Y-6.3157
G01 X15.0437 Y-6.3186
G01 X15.2683 Y-6.3970
G01 X15.2754 Y-6.3989
G01 X15.5091 Y-6.4433
G01 X15.5164 Y-6.4441
G01 X15.7541 Y-6.4535
G01 X15.7614 Y-6.4532
G01 X15.9979 Y-6.4273
G01 X16.0051 Y-6.4260
G01 X16.2352 Y-6.3654
G01 X16.2421 Y-6.3630
G01 X16.4607 Y-6.2691
G01 X16.4671 Y-6.2657
G01 X16.6366 Y-6.1609
G01 X16.4177 Y-5.9419
G01 X16.3364 Y-5.9906
G01 X16.2189 Y-6.0462
G01 X16.0907 Y-6.0922
G01 X15.9634 Y-6.1241
G01 X15.8348 Y-6.1432
G01 X15.7000 Y-6.1500
G01 X15.5652 Y-6.1432
G01 X15.4366 Y-6.1241
G01 X15.3093 Y-6.0922
G01 X15.1811 Y-6.0462
G01 X15.0636 Y-5.9906
G01 X14.9823 Y-5.9419
G01 X14.7643 Y-6.1600
G00 Z2.0000
G00 X16.8419 Y-5.5177
G01 F60.00
G01 Z0.0000
G01 F120.00
G01 X17.0600 Y-5.7358
G01 X17.1521 Y-5.5926
G01 X17.1556 Y-5.5862
G01 X17.2533 Y-5.3693
G01 X17.2558 Y-5.3624
G01 X17.3204 Y-5.1334
G01 X17.3219 Y-5.1262
G01 X17.3522 Y-4.8879
G01 X17.3547 Y-4.8037
G01 X17.3367 Y-4.5591
G01 X17.3356 Y-4.5518
G01 X17.2831 Y-4.3198
G01 X17.2810 Y-4.3128
G01 X17.1948 Y-4.0911
G01 X17.1916 Y-4.0845
G01 X17.0736 Y-3.8779
G01 X17.0695 Y-3.8719
G01 X17.0620 Y-3.8623
G01 X16.8419 Y-4.0823
G01 X16.8906 Y-4.1636
G01 X16.9462 Y-4.2811
G01 X16.9922 Y-4.4093
G01 X17.0241 Y-4.5366
G01 X17.0432 Y-4.6652
G01 X17.0500 Y-4.8000
G01 X17.0432 Y-4.9348
G01 X17.0241 Y-5.0634
G01 X16.9922 Y-5.1907
G01 X16.9462 Y-5.3189
G01 X16.8906 Y-5.4364
G01 X16.8419 Y-5.5177
G00 Z2.0000
G00 X16.9552 Y-5.5037
G01 F60.00
G01 Z0.0000
G01 F120.00
G01 X17.0447 Y-5.5932
G01 X17.0749 Y-5.5462
G01 X17.1701 Y-5.3347
G01 X17.2330 Y-5.1116
G01 X17.2627 Y-4.8783
G01 X17.2646 Y-4.8031
G01 X17.2472 Y-4.5691
G01 X17.1961 Y-4.3429
G01 X17.1121 Y-4.1268
G01 X17.0440 Y-4.0076
G01 X16.9552 Y-4.0963
G01 X16.9666 Y-4.1152
G01 X16.9715 Y-4.1242
G01 X17.0276 Y-4.2427
G01 X17.0317 Y-4.2521
G01 X17.0780 Y-4.3820
G01 X17.1116 Y-4.5157
G01 X17.1135 Y-4.5258
G01 X17.1322 Y-4.6520
G01 X17.1336 Y-4.6657
G01 X17.1400 Y-4.8000
G01 X17.1336 Y-4.9343
G01 X17.1322 Y-4.9480
G01 X17.1123 Y-5.0809
G01 X17.0780 Y-5.2180
G01 X17.0329 Y-5.3447
G01 X17.0290 Y-5.3542
G01 X16.9715 Y-5.4758
G01 X16.9666 Y-5.4848
G01 X16.9552 Y-5.5037
G00 Z2.0000
G00 X19.0500 Y-5.1000
G01 F60.00
G01 Z0.0000
G01 F120.00
G01 X19.0500 Y-6.1237
G01 X19.0506 Y-6.1314
G01 X19.0618 Y-6.2019
G01 X19.0665 Y-6.2164
G01 X19.1098 Y-6.3014
G01 X19.1188 Y-6.3138
G01 X19.1862 Y-6.3812
G01 X19.1986 Y-6.3902
G01 X19.2836 Y-6.4335
G01 X19.2981 Y-6.4382
G01 X19.3686 Y-6.4494
G01 X19.3763 Y-6.4500
G01 X20.4000 Y-6.4500
G01 X20.4000 Y-6.1500
G01 X19.3988 Y-6.1500
G01 X19.3890 Y-6.1488
G01 X19.3809 Y-6.1462
G01 X19.3722 Y-6.1416
G01 X19.3646 Y-6.1354
G01 X19.3584 Y-6.1278
G01 X19.3538 Y-6.1191
G01 X19.3512 Y-6.1110
G01 X19.3500 Y-6.1012
G01 X19.3500 Y-5.1000
G01 X19.0500 Y-5.1000
G00 Z2.0000
G00 X19.1400 Y-5.1900
G01 F60.00
G01 Z0.0000
G01 F120.00
G01 X19.1400 Y-6.1201
G01 X19.1499 Y-6.1819
G01 X19.1874 Y-6.2551
G01 X19.2458 Y-6.3132
G01 X19.3181 Y-6.3501
G01 X19.3792 Y-6.3599
G01 X20.3100 Y-6.3600
G01 X20.3100 Y-6.2400
G01 X19.3931 Y-6.2398
G01 X19.3795 Y-6.2385
G01 X19.3660 Y-6.2358
G01 X19.3528 Y-6.2318
G01 X19.3433 Y-6.2280
G01 X19.3310 Y-6.2218
G01 X19.3194 Y-6.2145
G01 X19.3112 Y-6.2082
G01 X19.3010 Y-6.1990
G01 X19.2940 Y-6.1914
G01 X19.2855 Y-6.1806
G01 X19.2782 Y-6.1690
G01 X19.2720 Y-6.1567
G01 X19.2671 Y-6.1439
G01 X19.2634 Y-6.1307
G01 X19.2611 Y-6.1171
G01 X19.2602 Y-6.1069
G01 X19.2600 Y-5.1900
G01 X19.1400 Y-5.1900
G00 Z2.0000
G00 X19.0500 Y-4.5000
G01 F60.00
G01 Z0.0000
G01 F120.00
G01 X19.3500 Y-4.5000
G01 X19.3500 Y-3.4988
G01 X19.3512 Y-3.4890
G01 X19.3543 Y-3.4797
G01 X19.3591 Y-3.4712
G01 X19.3646 Y-3.4646
G01 X19.3722 Y-3.4584
G01 X19.3809 Y-3.4538
G01 X19.3902 Y-3.4510
G01 X19.3988 Y-3.4500
G01 X20.4000 Y-3.4500
G01 X20.4000 Y-3.1500
G01 X19.3763 Y-3.1500
G01 X19.3686 Y-3.1506
G01 X19.2981 Y-3.1618
G01 X19.2836 Y-3.1665
G01 X19.1986 Y-3.2098
G01 X19.1862 Y-3.2188
G01 X19.1188 Y-3.2862
G01 X19.1098 Y-3.2986
G01 X19.0665 Y-3.3836
G01 X19.0618 Y-3.3981
G01 X19.0506 Y-3.4686
G01 X19.0500 Y-3.4763
G01 X19.0500 Y-4.5000
G00 Z2.0000
G00 X19.1400 Y-4.4100
G01 F60.00
G01 Z0.0000
G01 F120.00
G01 X19.2600 Y-4.4100
G01 X19.2602 Y-3.4931
G01 X19.2615 Y-3.4795
G01 X19.2642 Y-3.4660
G01 X19.2682 Y-3.4528
G01 X19.2720 Y-3.4433
G01 X19.2782 Y-3.4310
G01 X19.2855 Y-3.4194
G01 X19.2918 Y-3.4112
G01 X19.3010 Y-3.4010
G01 X19.3112 Y-3.3918
G01 X19.3194 Y-3.3855
G01 X19.3310 Y-3.3782
G01 X19.3433 Y-3.3720
G01 X19.3528 Y-3.3682
G01 X19.3660 Y-3.3642
G01 X19.3795 Y-3.3615
G01 X19.3931 Y-3.3602
G01 X20.3100 Y-3.3600
G01 X20.3100 Y-3.2400
G01 X19.3799 Y-3.2400
G01 X19.3181 Y-3.2499
G01 X19.2449 Y-3.2874
G01 X19.1868 Y-3.3458
G01 X19.1499 Y-3.4181
G01 X19.1401 Y-3.4792
G01 X19.1400 Y-4.4100
G00 Z2.0000
G00 X21.0000 Y-3.4500
G01 F60.00
G01 Z0.0000
G01 F120.00
G01 X22.0000 Y-3.4500
G01 X22.0073 Y-3.4505
G01 X22.0145 Y-3.4522
G01 X22.0214 Y-3.4548
G01 X22.0278 Y-3.4584
G01 X22.0327 Y-3.4621
G01 X22.0370 Y-3.4664
G01 X22.0409 Y-3.4712
G01 X22.0441 Y-3.4764
G01 X22.0462 Y-3.4809
G01 X22.0482 Y-3.4867
G01 X22.0495 Y-3.4927
G01 X22.0500 Y-3.4988
G01 X22.0500 Y-4.3498
G01 X22.3500 Y-4.3498
G01 X22.3500 Y-3.4763
G01 X22.3494 Y-3.4686
G01 X22.3382 Y-3.3981
G01 X22.3335 Y-3.3836
G01 X22.2902 Y-3.2986
G01 X22.2812 Y-3.2862
G01 X22.2138 Y-3.2188
G01 X22.2014 Y-3.2098
G01 X22.1164 Y-3.1665
G01 X22.1019 Y-3.1618
G01 X22.0314 Y-3.1506
G01 X22.0237 Y-3.1500
G01 X21.0000 Y-3.1500
G01 X21.0000 Y-3.4500
G00 Z2.0000
G00 X21.0900 Y-3.2400
G01 F60.00
G01 Z0.0000
G01 F120.00
G01 X21.0900 Y-3.3600
G01 X22.0034 Y-3.3600
G01 X22.0171 Y-3.3611
G01 X22.0273 Y-3.3627
G01 X22.0373 Y-3.3651
G01 X22.0504 Y-3.3694
G01 X22.0599 Y-3.3734
G01 X22.0720 Y-3.3799
G01 X22.0834 Y-3.3876
G01 X22.0914 Y-3.3940
G01 X22.1014 Y-3.4035
G01 X22.1104 Y-3.4139
G01 X22.1183 Y-3.4251
G01 X22.1251 Y-3.4371
G01 X22.1306 Y-3.4496
G01 X22.1329 Y-3.4561
G01 X22.1358 Y-3.4660
G01 X22.1385 Y-3.4795
G01 X22.1398 Y-3.4931
G01 X22.1400 Y-4.2598
G01 X22.2600 Y-4.2598
G01 X22.2599 Y-3.4792
G01 X22.2501 Y-3.4181
G01 X22.2132 Y-3.3458
G01 X22.1551 Y-3.2874
G01 X22.0819 Y-3.2499
G01 X22.0201 Y-3.2400
G01 X21.0900 Y-3.2400
G00 Z2.0000
G00 X23.5071 Y-3.1208
G01 F60.00
G01 Z0.0000
G01 F120.00
G01 X23.5071 Y-3.7255
G01 X25.5455 Y-3.7255
G01 X25.5650 Y-3.7260
G01 X25.5942 Y-3.7284
G01 X25.6135 Y-3.7312
G01 X25.6327 Y-3.7349
G01 X25.6516 Y-3.7395
G01 X25.7261 Y-3.7594
G01 X25.7457 Y-3.7652
G01 X25.7650 Y-3.7720
G01 X25.7745 Y-3.7757
G01 X25.7840 Y-3.7797
G01 X25.8025 Y-3.7883
G01 X25.8116 Y-3.7930
G01 X25.8294 Y-3.8030
G01 X25.8472 Y-3.8142
G01 X25.8651 Y-3.8030
G01 X25.8829 Y-3.7930
G01 X25.8920 Y-3.7883
G01 X25.9105 Y-3.7797
G01 X25.9200 Y-3.7757
G01 X25.9391 Y-3.7685
G01 X25.9488 Y-3.7652
G01 X25.9684 Y-3.7594
G01 X26.0429 Y-3.7395
G01 X26.0618 Y-3.7349
G01 X26.0907 Y-3.7297
G01 X26.1100 Y-3.7274
G01 X26.1295 Y-3.7260
G01 X26.1490 Y-3.7255
G01 X27.4329 Y-3.7256
G01 X27.4524 Y-3.7265
G01 X27.4718 Y-3.7284
G01 X27.4911 Y-3.7312
G01 X27.5103 Y-3.7349
G01 X27.5293 Y-3.7395
G01 X27.6038 Y-3.7594
G01 X27.6234 Y-3.7652
G01 X27.6427 Y-3.7720
G01 X27.6616 Y-3.7797
G01 X27.6801 Y-3.7883
G01 X27.6982 Y-3.7979
G01 X27.7158 Y-3.8083
G01 X27.7328 Y-3.8196
G01 X27.7493 Y-3.8317
G01 X27.7651 Y-3.8447
G01 X27.7755 Y-3.8540
G01 X27.7898 Y-3.8335
G01 X27.8658 Y-3.7311
G01 X27.8782 Y-3.7152
G01 X27.8913 Y-3.6999
G01 X27.9770 Y-3.6054
G01 X27.9908 Y-3.5908
G01 X28.0054 Y-3.5770
G01 X28.0999 Y-3.4913
G01 X28.1152 Y-3.4782
G01 X28.1323 Y-3.4648
G01 X28.0238 Y-3.4648
G01 X28.0037 Y-3.4643
G01 X27.9689 Y-3.4621
G01 X27.9489 Y-3.4597
G01 X27.9244 Y-3.4559
G01 X27.8949 Y-3.4497
G01 X27.8709 Y-3.4435
G01 X27.8516 Y-3.4377
G01 X27.8283 Y-3.4294
G01 X27.8095 Y-3.4222
G01 X27.7911 Y-3.4140
G01 X27.7687 Y-3.4033
G01 X27.7510 Y-3.3939
G01 X27.7296 Y-3.3812
G01 X27.7126 Y-3.3704
G01 X27.6962 Y-3.3589
G01 X27.6764 Y-3.3440
G01 X27.6608 Y-3.3312
G01 X27.6424 Y-3.3147
G01 X27.6278 Y-3.3008
G01 X27.6139 Y-3.2862
G01 X27.5909 Y-3.2601
G01 X27.5785 Y-3.2442
G01 X27.5638 Y-3.2242
G01 X27.5526 Y-3.2075
G01 X27.5398 Y-3.1863
G01 X27.5299 Y-3.1688
G01 X27.5213 Y-3.1517
G01 X27.4607 Y-3.2122
G01 X27.4363 Y-3.2344
G01 X27.4217 Y-3.2465
G01 X27.3954 Y-3.2663
G01 X27.3717 Y-3.2822
G01 X27.3435 Y-3.2991
G01 X27.3142 Y-3.3141
G01 X27.2882 Y-3.3259
G01 X27.2664 Y-3.3344
G01 X27.2485 Y-3.3409
G01 X26.9628 Y-3.4361
G01 X26.9524 Y-3.4394
G01 X26.9263 Y-3.4467
G01 X26.9156 Y-3.4495
G01 X26.8942 Y-3.4542
G01 X26.8675 Y-3.4587
G01 X26.8457 Y-3.4616
G01 X26.8238 Y-3.4634
G01 X26.7967 Y-3.4647
G01 X26.7857 Y-3.4648
G01 X26.5952 Y-3.4648
G01 X26.5842 Y-3.4647
G01 X26.5572 Y-3.4634
G01 X26.5353 Y-3.4616
G01 X26.5244 Y-3.4603
G01 X26.4976 Y-3.4561
G01 X26.4760 Y-3.4520
G01 X26.4653 Y-3.4495
G01 X26.4392 Y-3.4425
G01 X26.4181 Y-3.4361
G01 X26.1324 Y-3.3409
G01 X26.1145 Y-3.3344
G01 X26.0927 Y-3.3259
G01 X26.0668 Y-3.3141
G01 X26.0458 Y-3.3036
G01 X26.0292 Y-3.2944
G01 X26.0092 Y-3.2822
G01 X25.9933 Y-3.2718
G01 X25.9779 Y-3.2607
G01 X25.9592 Y-3.2465
G01 X25.9375 Y-3.2281
G01 X25.9135 Y-3.2056
G01 X25.7230 Y-3.0151
G01 X25.7153 Y-3.0072
G01 X25.6971 Y-2.9872
G01 X25.6829 Y-2.9704
G01 X25.6696 Y-2.9529
G01 X25.6539 Y-2.9309
G01 X25.6420 Y-2.9124
G01 X25.6285 Y-2.8889
G01 X25.6181 Y-2.8695
G01 X25.5476 Y-2.7286
G01 X25.4771 Y-2.8695
G01 X25.4668 Y-2.8889
G01 X25.4533 Y-2.9124
G01 X25.4414 Y-2.9309
G01 X25.4257 Y-2.9529
G01 X25.4123 Y-2.9704
G01 X25.4053 Y-2.9789
G01 X25.3873 Y-2.9991
G01 X25.3722 Y-3.0151
G01 X25.1817 Y-3.2056
G01 X25.1680 Y-3.2187
G01 X25.1506 Y-3.2344
G01 X25.1285 Y-3.2523
G01 X25.1019 Y-3.2718
G01 X25.0860 Y-3.2822
G01 X25.0660 Y-3.2944
G01 X25.0494 Y-3.3036
G01 X25.0285 Y-3.3141
G01 X25.0113 Y-3.3222
G01 X24.9937 Y-3.3294
G01 X24.9628 Y-3.3409
G01 X24.6771 Y-3.4361
G01 X24.6666 Y-3.4394
G01 X24.6406 Y-3.4467
G01 X24.6192 Y-3.4520
G01 X24.6084 Y-3.4542
G01 X24.5817 Y-3.4587
G01 X24.5600 Y-3.4616
G01 X24.5380 Y-3.4634
G01 X24.5110 Y-3.4647
G01 X24.0137 Y-3.4647
G01 X23.9890 Y-3.4636
G01 X23.9689 Y-3.4621
G01 X23.9344 Y-3.4575
G01 X23.9047 Y-3.4520
G01 X23.8806 Y-3.4461
G01 X23.8612 Y-3.4407
G01 X23.8283 Y-3.4294
G01 X23.8095 Y-3.4222
G01 X23.7778 Y-3.4078
G01 X23.7510 Y-3.3939
G01 X23.7211 Y-3.3759
G01 X23.7044 Y-3.3648
G01 X23.6764 Y-3.3440
G01 X23.6533 Y-3.3246
G01 X23.6278 Y-3.3008
G01 X23.6040 Y-3.2753
G01 X23.5846 Y-3.2522
G01 X23.5638 Y-3.2242
G01 X23.5474 Y-3.1989
G01 X23.5299 Y-3.1688
G01 X23.5208 Y-3.1508
G01 X23.5071 Y-3.1208
G00 Z2.0000
G00 X23.6440 Y-2.9160
G01 F60.00
G01 Z0.0000
G01 F120.00
G01 X23.6456 Y-2.9420
G01 X23.6500 Y-2.9734
G01 X23.6522 Y-2.9844
G01 X23.6571 Y-3.0042
G01 X23.6618 Y-3.0205
G01 X23.6727 Y-3.0502
G01 X23.6860 Y-3.0789
G01 X23.6913 Y-3.0889
G01 X23.7017 Y-3.1064
G01 X23.7110 Y-3.1206
G01 X23.7300 Y-3.1459
G01 X23.7473 Y-3.1653
G01 X23.7591 Y-3.1775
G01 X23.7827 Y-3.1986
G01 X23.8080 Y-3.2176
G01 X23.8222 Y-3.2268
G01 X23.8397 Y-3.2372
G01 X23.8497 Y-3.2426
G01 X23.8784 Y-3.2559
G01 X23.8889 Y-3.2600
G01 X23.9135 Y-3.2685
G01 X23.9441 Y-3.2764
G01 X23.9552 Y-3.2786
G01 X23.9809 Y-3.2824
G01 X23.9922 Y-3.2835
G01 X24.0125 Y-3.2846
G01 X24.0238 Y-3.2848
G01 X24.5000 Y-3.2848
G01 X24.5284 Y-3.2836
G01 X24.5468 Y-3.2819
G01 X24.5749 Y-3.2774
G01 X24.5929 Y-3.2732
G01 X24.6202 Y-3.2653
G01 X24.9109 Y-3.1683
G01 X24.9339 Y-3.1595
G01 X24.9436 Y-3.1552
G01 X24.9656 Y-3.1443
G01 X24.9795 Y-3.1364
G01 X25.0003 Y-3.1232
G01 X25.0243 Y-3.1054
G01 X25.0365 Y-3.0950
G01 X25.0545 Y-3.0783
G01 X25.2492 Y-2.8834
G01 X25.2682 Y-2.8622
G01 X25.2760 Y-2.8526
G01 X25.2926 Y-2.8296
G01 X25.2993 Y-2.8192
G01 X25.3161 Y-2.7890
G01 X25.4114 Y-2.5985
G01 X25.4232 Y-2.5721
G01 X25.4300 Y-2.5545
G01 X25.4368 Y-2.5329
G01 X25.4402 Y-2.5208
G01 X25.5370 Y-2.1329
G01 X25.5417 Y-2.1080
G01 X25.5442 Y-2.0913
G01 X25.5463 Y-2.0617
G01 X25.5467 Y-2.0476
G01 X25.5467 Y-1.7619
G01 X25.5452 Y-1.7295
G01 X25.5442 Y-1.7183
G01 X25.5427 Y-1.7071
G01 X25.5384 Y-1.6835
G01 X25.5354 Y-1.6697
G01 X25.4402 Y-1.2888
G01 X25.4368 Y-1.2767
G01 X25.4300 Y-1.2550
G01 X25.4232 Y-1.2374
G01 X25.4114 Y-1.2110
G01 X25.3133 Y-1.0150
G01 X25.2960 Y-0.9851
G01 X25.2796 Y-0.9618
G01 X25.2682 Y-0.9473
G01 X25.2449 Y-0.9217
G01 X25.0468 Y-0.7239
G01 X25.0284 Y-0.7075
G01 X25.0090 Y-0.6925
G01 X24.9959 Y-0.6833
G01 X24.9750 Y-0.6704
G01 X24.9609 Y-0.6628
G01 X24.9388 Y-0.6521
G01 X24.9059 Y-0.6394
G01 X24.6143 Y-0.5423
G01 X24.5809 Y-0.5334
G01 X24.5529 Y-0.5285
G01 X24.5345 Y-0.5263
G01 X24.5000 Y-0.5247
G01 X24.0182 Y-0.5248
G01 X23.9866 Y-0.5265
G01 X23.9608 Y-0.5301
G01 X23.9441 Y-0.5332
G01 X23.9189 Y-0.5395
G01 X23.9028 Y-0.5446
G01 X23.8784 Y-0.5536
G01 X23.8497 Y-0.5670
G01 X23.8348 Y-0.5751
G01 X23.8127 Y-0.5887
G01 X23.7871 Y-0.6074
G01 X23.7741 Y-0.6183
G01 X23.7551 Y-0.6360
G01 X23.7374 Y-0.6551
G01 X23.7265 Y-0.6681
G01 X23.7078 Y-0.6936
G01 X23.6942 Y-0.7158
G01 X23.6860 Y-0.7306
G01 X23.6727 Y-0.7593
G01 X23.6636 Y-0.7837
G01 X23.6585 Y-0.7999
G01 X23.6522 Y-0.8251
G01 X23.6491 Y-0.8417
G01 X23.6456 Y-0.8675
G01 X23.6438 Y-0.8991
G01 X23.6437 Y-2.9048
G01 X23.6440 Y-2.9160
G00 Z2.0000
G00 X23.7339 Y-2.9116
G01 F60.00
G01 Z0.0000
G01 F120.00
G01 X23.7351 Y-2.9332
G01 X23.7387 Y-2.9580
G01 X23.7444 Y-2.9823
G01 X23.7473 Y-2.9922
G01 X23.7558 Y-3.0158
G01 X23.7664 Y-3.0385
G01 X23.7789 Y-3.0601
G01 X23.7866 Y-3.0715
G01 X23.7996 Y-3.0888
G01 X23.8187 Y-3.1099
G01 X23.8398 Y-3.1290
G01 X23.8570 Y-3.1420
G01 X23.8685 Y-3.1496
G01 X23.8901 Y-3.1622
G01 X23.9128 Y-3.1728
G01 X23.9331 Y-3.1802
G01 X23.9462 Y-3.1842
G01 X23.9706 Y-3.1899
G01 X23.9954 Y-3.1934
G01 X24.0204 Y-3.1948
G01 X24.5000 Y-3.1948
G01 X24.5311 Y-3.1932
G01 X24.5617 Y-3.1882
G01 X24.5882 Y-3.1811
G01 X24.8774 Y-3.0847
G01 X24.8995 Y-3.0763
G01 X24.9084 Y-3.0723
G01 X24.9266 Y-3.0631
G01 X24.9440 Y-3.0525
G01 X24.9521 Y-3.0471
G01 X24.9684 Y-3.0348
G01 X24.9885 Y-3.0169
G01 X25.1839 Y-2.8215
G01 X25.1997 Y-2.8039
G01 X25.2066 Y-2.7951
G01 X25.2203 Y-2.7758
G01 X25.2339 Y-2.7521
G01 X25.3309 Y-2.5583
G01 X25.3406 Y-2.5363
G01 X25.3448 Y-2.5256
G01 X25.3528 Y-2.4989
G01 X25.4491 Y-2.1138
G01 X25.4533 Y-2.0915
G01 X25.4548 Y-2.0814
G01 X25.4567 Y-2.0476
G01 X25.4567 Y-1.7619
G01 X25.4554 Y-1.7350
G01 X25.4538 Y-1.7214
G01 X25.4481 Y-1.6916
G01 X25.3528 Y-1.3106
G01 X25.3448 Y-1.2839
G01 X25.3406 Y-1.2732
G01 X25.3309 Y-1.2512
G01 X25.2339 Y-1.0574
G01 X25.2203 Y-1.0337
G01 X25.2066 Y-1.0145
G01 X25.1997 Y-1.0056
G01 X25.1813 Y-0.9854
G01 X24.9885 Y-0.7926
G01 X24.9710 Y-0.7768
G01 X24.9548 Y-0.7644
G01 X24.9468 Y-0.7588
G01 X24.9266 Y-0.7464
G01 X24.9025 Y-0.7345
G01 X24.8805 Y-0.7259
G01 X24.5917 Y-0.6296
G01 X24.5617 Y-0.6213
G01 X24.5348 Y-0.6168
G01 X24.5236 Y-0.6157
G01 X24.5000 Y-0.6147
G01 X24.0204 Y-0.6147
G01 X23.9954 Y-0.6161
G01 X23.9740 Y-0.6191
G01 X23.9639 Y-0.6210
G01 X23.9396 Y-0.6272
G01 X23.9160 Y-0.6355
G01 X23.9065 Y-0.6396
G01 X23.8871 Y-0.6489
G01 X23.8685 Y-0.6599
G01 X23.8598 Y-0.6655
G01 X23.8398 Y-0.6805
G01 X23.8237 Y-0.6949
G01 X23.8163 Y-0.7021
G01 X23.7996 Y-0.7207
G01 X23.7866 Y-0.7380
G01 X23.7807 Y-0.7465
G01 X23.7696 Y-0.7650
G01 X23.7649 Y-0.7742
G01 X23.7558 Y-0.7938
G01 X23.7473 Y-0.8173
G01 X23.7444 Y-0.8272
G01 X23.7393 Y-0.8482
G01 X23.7360 Y-0.8695
G01 X23.7348 Y-0.8798
G01 X23.7338 Y-0.9013
G01 X23.7339 Y-2.9116
G00 Z2.0000
G00 X23.8238 Y-2.9072
G01 F60.00
G01 Z0.0000
G01 F120.00
G01 X23.8247 Y-2.9244
G01 X23.8272 Y-2.9414
G01 X23.8331 Y-2.9652
G01 X23.8390 Y-2.9813
G01 X23.8474 Y-2.9991
G01 X23.8575 Y-3.0159
G01 X23.8676 Y-3.0298
G01 X23.8841 Y-3.0479
G01 X23.8969 Y-3.0594
G01 X23.9127 Y-3.0711
G01 X23.9295 Y-3.0812
G01 X23.9450 Y-3.0886
G01 X23.9669 Y-3.0966
G01 X23.9848 Y-3.1010
G01 X24.0018 Y-3.1036
G01 X24.0238 Y-3.1048
G01 X24.5000 Y-3.1048
G01 X24.5241 Y-3.1033
G01 X24.5426 Y-3.1003
G01 X24.5633 Y-3.0946
G01 X24.8490 Y-2.9993
G01 X24.8684 Y-2.9917
G01 X24.8829 Y-2.9844
G01 X24.8967 Y-2.9759
G01 X24.9135 Y-2.9635
G01 X24.9264 Y-2.9518
G01 X25.1186 Y-2.7596
G01 X25.1320 Y-2.7446
G01 X25.1430 Y-2.7294
G01 X25.1551 Y-2.7085
G01 X25.2504 Y-2.5180
G01 X25.2595 Y-2.4967
G01 X25.2655 Y-2.4771
G01 X25.3611 Y-2.0947
G01 X25.3653 Y-2.0715
G01 X25.3667 Y-2.0476
G01 X25.3667 Y-1.7619
G01 X25.3652 Y-1.7369
G01 X25.3608 Y-1.7134
G01 X25.2655 Y-1.3324
G01 X25.2595 Y-1.3128
G01 X25.2504 Y-1.2915
G01 X25.1545 Y-1.0998
G01 X25.1445 Y-1.0824
G01 X25.1336 Y-1.0671
G01 X25.1177 Y-1.0490
G01 X24.9264 Y-0.8577
G01 X24.9135 Y-0.8460
G01 X24.9006 Y-0.8362
G01 X24.8808 Y-0.8240
G01 X24.8663 Y-0.8169
G01 X24.8490 Y-0.8102
G01 X24.5620 Y-0.7145
G01 X24.5426 Y-0.7093
G01 X24.5241 Y-0.7062
G01 X24.5000 Y-0.7047
G01 X24.0238 Y-0.7047
G01 X24.0042 Y-0.7056
G01 X23.9860 Y-0.7083
G01 X23.9657 Y-0.7133
G01 X23.9472 Y-0.7199
G01 X23.9295 Y-0.7283
G01 X23.9106 Y-0.7398
G01 X23.8969 Y-0.7501
G01 X23.8841 Y-0.7616
G01 X23.8708 Y-0.7760
G01 X23.8575 Y-0.7936
G01 X23.8468 Y-0.8115
G01 X23.8381 Y-0.8305
G01 X23.8323 Y-0.8467
G01 X23.8281 Y-0.8633
G01 X23.8247 Y-0.8852
G01 X23.8237 Y-0.9048
G01 X23.8238 Y-2.9072
G00 Z2.0000
G00 X24.2239 Y-2.7047
G01 F60.00
G01 Z0.0000
G01 F120.00
G01 X24.4675 Y-2.7047
G01 X24.6776 Y-2.6347
G01 X24.8118 Y-2.5005
G01 X24.8827 Y-2.3587
G01 X24.9666 Y-2.0230
G01 X24.9666 Y-1.7865
G01 X24.8827 Y-1.4508
G01 X24.8118 Y-1.3090
G01 X24.6776 Y-1.1749
G01 X24.4675 Y-1.1048
G01 X24.2239 Y-1.1048
G01 X24.2239 Y-2.7047
G00 Z2.0000
G00 X24.3139 Y-2.6147
G01 F60.00
G01 Z0.0000
G01 F120.00
G01 X24.4529 Y-2.6147
G01 X24.6290 Y-2.5560
G01 X24.7378 Y-2.4472
G01 X24.7977 Y-2.3273
G01 X24.8766 Y-2.0119
G01 X24.8766 Y-1.7976
G01 X24.7977 Y-1.4822
G01 X24.7378 Y-1.3623
G01 X24.6290 Y-1.2535
G01 X24.4529 Y-1.1948
G01 X24.3139 Y-1.1948
G01 X24.3139 Y-2.6147
G00 Z2.0000
G00 X24.4039 Y-2.5247
G01 F60.00
G01 Z0.0000
G01 F120.00
G01 X24.4383 Y-2.5247
G01 X24.5804 Y-2.4773
G01 X24.6638 Y-2.3939
G01 X24.7128 Y-2.2959
G01 X24.7866 Y-2.0008
G01 X24.7866 Y-1.8087
G01 X24.7128 Y-1.5136
G01 X24.6638 Y-1.4156
G01 X24.5804 Y-1.3322
G01 X24.4383 Y-1.2848
G01 X24.4039 Y-1.2848
G01 X24.4039 Y-2.5247
G00 Z2.0000
G00 X24.4939 Y-2.4113
G01 F60.00
G01 Z0.0000
G01 F120.00
G01 X24.5318 Y-2.3987
G01 X24.5899 Y-2.3406
G01 X24.6279 Y-2.2645
G01 X24.6966 Y-1.9898
G01 X24.6966 Y-1.8198
G01 X24.6279 Y-1.5450
G01 X24.5899 Y-1.4689
G01 X24.5318 Y-1.4109
G01 X24.4939 Y-1.3982
G01 X24.4939 Y-2.4113
G00 Z2.0000
G00 X24.5839 Y-2.0695
G01 F60.00
G01 Z0.0000
G01 F120.00
G01 X24.6066 Y-1.9787
G01 X24.6066 Y-1.8309
G01 X24.5839 Y-1.7400
G01 X24.5839 Y-2.0695
G00 Z2.0000
G00 X25.5598 Y-2.1398
G01 F60.00
G01 Z0.0000
G01 F120.00
G01 X25.6551 Y-2.5208
G01 X25.6585 Y-2.5329
G01 X25.6652 Y-2.5545
G01 X25.6720 Y-2.5721
G01 X25.6839 Y-2.5985
G01 X25.7791 Y-2.7890
G01 X25.7849 Y-2.7999
G01 X25.7992 Y-2.8244
G01 X25.8193 Y-2.8526
G01 X25.8311 Y-2.8669
G01 X25.8503 Y-2.8878
G01 X26.0485 Y-3.0856
G01 X26.0668 Y-3.1020
G01 X26.0863 Y-3.1170
G01 X26.0994 Y-3.1262
G01 X26.1203 Y-3.1391
G01 X26.1296 Y-3.1443
G01 X26.1516 Y-3.1552
G01 X26.1614 Y-3.1595
G01 X26.1843 Y-3.1683
G01 X26.4750 Y-3.2653
G01 X26.4868 Y-3.2689
G01 X26.5143 Y-3.2761
G01 X26.5423 Y-3.2810
G01 X26.5546 Y-3.2827
G01 X26.5891 Y-3.2848
G01 X26.7857 Y-3.2848
G01 X26.8203 Y-3.2832
G01 X26.8386 Y-3.2810
G01 X26.8606 Y-3.2774
G01 X26.8726 Y-3.2747
G01 X26.9059 Y-3.2653
G01 X27.1967 Y-3.1683
G01 X27.2196 Y-3.1595
G01 X27.2341 Y-3.1529
G01 X27.2560 Y-3.1417
G01 X27.2816 Y-3.1262
G01 X27.2904 Y-3.1202
G01 X27.3100 Y-3.1054
G01 X27.3182 Y-3.0986
G01 X27.3364 Y-3.0820
G01 X27.4354 Y-2.9830
G01 X27.4432 Y-2.9749
G01 X27.4605 Y-2.9554
G01 X27.4762 Y-2.9347
G01 X27.4827 Y-2.9254
G01 X27.4887 Y-2.9159
G01 X27.5019 Y-2.8935
G01 X27.5132 Y-2.8701
G01 X27.5178 Y-2.8597
G01 X27.5219 Y-2.8492
G01 X27.5304 Y-2.8246
G01 X27.5370 Y-2.7994
G01 X27.5405 Y-2.7829
G01 X27.5443 Y-2.7571
G01 X27.5457 Y-2.7403
G01 X27.5467 Y-2.7143
G01 X27.5457 Y-2.6883
G01 X27.5443 Y-2.6714
G01 X27.5405 Y-2.6457
G01 X27.5370 Y-2.6291
G01 X27.5304 Y-2.6040
G01 X27.5219 Y-2.5794
G01 X27.5178 Y-2.5688
G01 X27.5069 Y-2.5452
G01 X27.4991 Y-2.5302
G01 X27.4858 Y-2.5079
G01 X27.4762 Y-2.4939
G01 X27.4605 Y-2.4732
G01 X27.4432 Y-2.4537
G01 X27.4314 Y-2.4416
G01 X27.4121 Y-2.4241
G01 X27.3989 Y-2.4135
G01 X27.3778 Y-2.3983
G01 X27.3683 Y-2.3922
G01 X27.3458 Y-2.3791
G01 X27.3224 Y-2.3677
G01 X27.3069 Y-2.3610
G01 X27.2824 Y-2.3523
G01 X27.2661 Y-2.3476
G01 X27.2408 Y-2.3415
G01 X27.2151 Y-2.3374
G01 X27.1983 Y-2.3356
G01 X27.1723 Y-2.3343
G01 X27.1554 Y-2.3345
G01 X27.1294 Y-2.3360
G01 X27.1036 Y-2.3396
G01 X27.0925 Y-2.3415
G01 X27.0815 Y-2.3440
G01 X27.0563 Y-2.3506
G01 X27.0318 Y-2.3591
G01 X27.0212 Y-2.3631
G01 X26.9976 Y-2.3740
G01 X26.9826 Y-2.3818
G01 X26.9602 Y-2.3952
G01 X26.9463 Y-2.4048
G01 X26.9300 Y-2.4170
G01 X26.9170 Y-2.4279
G01 X26.9020 Y-2.4416
G01 X26.8661 Y-2.4773
G01 X26.7240 Y-2.5247
G01 X26.6569 Y-2.5247
G01 X26.5148 Y-2.4773
G01 X26.4314 Y-2.3939
G01 X26.3824 Y-2.2959
G01 X26.3086 Y-2.0008
G01 X26.3086 Y-1.8087
G01 X26.3824 Y-1.5136
G01 X26.4314 Y-1.4156
G01 X26.5148 Y-1.3322
G01 X26.6569 Y-1.2848
G01 X26.7240 Y-1.2848
G01 X26.8661 Y-1.3322
G01 X26.9020 Y-1.3679
G01 X26.9212 Y-1.3854
G01 X26.9344 Y-1.3960
G01 X26.9509 Y-1.4081
G01 X26.9650 Y-1.4173
G01 X26.9875 Y-1.4304
G01 X27.0109 Y-1.4418
G01 X27.0212 Y-1.4464
G01 X27.0318 Y-1.4504
G01 X27.0510 Y-1.4572
G01 X27.0672 Y-1.4620
G01 X27.0870 Y-1.4668
G01 X27.0981 Y-1.4690
G01 X27.1238 Y-1.4729
G01 X27.1350 Y-1.4740
G01 X27.1667 Y-1.4753
G01 X27.1927 Y-1.4743
G01 X27.2039 Y-1.4735
G01 X27.2297 Y-1.4699
G01 X27.2408 Y-1.4680
G01 X27.2518 Y-1.4655
G01 X27.2770 Y-1.4589
G01 X27.3016 Y-1.4504
G01 X27.3121 Y-1.4464
G01 X27.3224 Y-1.4418
G01 X27.3458 Y-1.4304
G01 X27.3683 Y-1.4173
G01 X27.3778 Y-1.4113
G01 X27.4034 Y-1.3926
G01 X27.4121 Y-1.3854
G01 X27.4314 Y-1.3679
G01 X27.4394 Y-1.3600
G01 X27.4568 Y-1.3407
G01 X27.4640 Y-1.3319
G01 X27.4795 Y-1.3111
G01 X27.4858 Y-1.3017
G01 X27.4963 Y-1.2842
G01 X27.5045 Y-1.2694
G01 X27.5156 Y-1.2459
G01 X27.5199 Y-1.2354
G01 X27.5268 Y-1.2163
G01 X27.5319 Y-1.2001
G01 X27.5370 Y-1.1804
G01 X27.5394 Y-1.1694
G01 X27.5414 Y-1.1583
G01 X27.5443 Y-1.1381
G01 X27.5454 Y-1.1269
G01 X27.5467 Y-1.1009
G01 X27.5467 Y-1.0896
G01 X27.5454 Y-1.0636
G01 X27.5443 Y-1.0524
G01 X27.5405 Y-1.0266
G01 X27.5383 Y-1.0156
G01 X27.5304 Y-0.9849
G01 X27.5219 Y-0.9603
G01 X27.5178 Y-0.9498
G01 X27.5132 Y-0.9395
G01 X27.5019 Y-0.9161
G01 X27.4887 Y-0.8936
G01 X27.4827 Y-0.8841
G01 X27.4762 Y-0.8748
G01 X27.4605 Y-0.8541
G01 X27.4394 Y-0.8305
G01 X27.3364 Y-0.7275
G01 X27.3141 Y-0.7075
G01 X27.2947 Y-0.6925
G01 X27.2816 Y-0.6833
G01 X27.2560 Y-0.6678
G01 X27.2245 Y-0.6521
G01 X27.1967 Y-0.6412
G01 X26.9059 Y-0.5442
G01 X26.8786 Y-0.5363
G01 X26.8666 Y-0.5334
G01 X26.8325 Y-0.5276
G01 X26.8141 Y-0.5259
G01 X26.7857 Y-0.5247
G01 X26.5891 Y-0.5248
G01 X26.5546 Y-0.5269
G01 X26.5423 Y-0.5285
G01 X26.5143 Y-0.5334
G01 X26.4868 Y-0.5406
G01 X26.4750 Y-0.5442
G01 X26.1843 Y-0.6412
G01 X26.1614 Y-0.6500
G01 X26.1468 Y-0.6566
G01 X26.1249 Y-0.6678
G01 X26.0994 Y-0.6833
G01 X26.0906 Y-0.6894
G01 X26.0710 Y-0.7042
G01 X26.0627 Y-0.7110
G01 X26.0446 Y-0.7275
G01 X25.8503 Y-0.9217
G01 X25.8311 Y-0.9426
G01 X25.8193 Y-0.9569
G01 X25.7992 Y-0.9851
G01 X25.7819 Y-1.0150
G01 X25.6839 Y-1.2110
G01 X25.6720 Y-1.2374
G01 X25.6673 Y-1.2491
G01 X25.6633 Y-1.2610
G01 X25.6551 Y-1.2888
G01 X25.5598 Y-1.6697
G01 X25.5535 Y-1.7015
G01 X25.5510 Y-1.7183
G01 X25.5489 Y-1.7478
G01 X25.5485 Y-1.7619
G01 X25.5486 Y-2.0547
G01 X25.5501 Y-2.0800
G01 X25.5517 Y-2.0969
G01 X25.5568 Y-2.1260
G01 X25.5598 Y-2.1398
G00 Z2.0000
G00 X25.6472 Y-2.1180
G01 F60.00
G01 Z0.0000
G01 F120.00
G01 X25.7424 Y-2.4989
G01 X25.7505 Y-2.5256
G01 X25.7546 Y-2.5363
G01 X25.7644 Y-2.5583
G01 X25.8613 Y-2.7521
G01 X25.8750 Y-2.7758
G01 X25.8886 Y-2.7951
G01 X25.8955 Y-2.8039
G01 X25.9139 Y-2.8242
G01 X26.1067 Y-3.0169
G01 X26.1218 Y-3.0306
G01 X26.1294 Y-3.0368
G01 X26.1457 Y-3.0489
G01 X26.1658 Y-3.0615
G01 X26.1744 Y-3.0661
G01 X26.1927 Y-3.0750
G01 X26.2178 Y-3.0847
G01 X26.5035 Y-3.1800
G01 X26.5335 Y-3.1882
G01 X26.5642 Y-3.1932
G01 X26.5915 Y-3.1948
G01 X26.7857 Y-3.1948
G01 X26.8130 Y-3.1935
G01 X26.8242 Y-3.1922
G01 X26.8475 Y-3.1882
G01 X26.8774 Y-3.1800
G01 X27.1662 Y-3.0837
G01 X27.1882 Y-3.0750
G01 X27.2066 Y-3.0661
G01 X27.2151 Y-3.0615
G01 X27.2352 Y-3.0489
G01 X27.2567 Y-3.0327
G01 X27.2742 Y-3.0169
G01 X27.3718 Y-2.9194
G01 X27.3909 Y-2.8983
G01 X27.4079 Y-2.8754
G01 X27.4225 Y-2.8510
G01 X27.4347 Y-2.8253
G01 X27.4443 Y-2.7985
G01 X27.4497 Y-2.7776
G01 X27.4518 Y-2.7675
G01 X27.4550 Y-2.7461
G01 X27.4558 Y-2.7359
G01 X27.4567 Y-2.7143
G01 X27.4558 Y-2.6927
G01 X27.4550 Y-2.6824
G01 X27.4512 Y-2.6577
G01 X27.4461 Y-2.6367
G01 X27.4432 Y-2.6268
G01 X27.4359 Y-2.6065
G01 X27.4319 Y-2.5970
G01 X27.4225 Y-2.5775
G01 X27.4115 Y-2.5589
G01 X27.4059 Y-2.5503
G01 X27.3909 Y-2.5303
G01 X27.3765 Y-2.5141
G01 X27.3693 Y-2.5068
G01 X27.3533 Y-2.4923
G01 X27.3453 Y-2.4858
G01 X27.3307 Y-2.4750
G01 X27.3220 Y-2.4694
G01 X27.3034 Y-2.4585
G01 X27.2840 Y-2.4491
G01 X27.2745 Y-2.4450
G01 X27.2541 Y-2.4377
G01 X27.2442 Y-2.4349
G01 X27.2233 Y-2.4298
G01 X27.1951 Y-2.4256
G01 X27.1735 Y-2.4244
G01 X27.1632 Y-2.4243
G01 X27.1382 Y-2.4256
G01 X27.1101 Y-2.4298
G01 X27.0825 Y-2.4367
G01 X27.0621 Y-2.4438
G01 X27.0525 Y-2.4476
G01 X27.0299 Y-2.4585
G01 X27.0113 Y-2.4694
G01 X27.0027 Y-2.4750
G01 X26.9853 Y-2.4879
G01 X26.9774 Y-2.4945
G01 X26.9640 Y-2.5068
G01 X26.9147 Y-2.5560
G01 X26.7386 Y-2.6147
G01 X26.6423 Y-2.6147
G01 X26.4662 Y-2.5560
G01 X26.3574 Y-2.4472
G01 X26.2975 Y-2.3273
G01 X26.2186 Y-2.0119
G01 X26.2186 Y-1.7976
G01 X26.2975 Y-1.4822
G01 X26.3574 Y-1.3623
G01 X26.4662 Y-1.2535
G01 X26.6423 Y-1.1948
G01 X26.7386 Y-1.1948
G01 X26.9147 Y-1.2535
G01 X26.9665 Y-1.3051
G01 X26.9826 Y-1.3195
G01 X27.0027 Y-1.3345
G01 X27.0239 Y-1.3477
G01 X27.0361 Y-1.3542
G01 X27.0557 Y-1.3632
G01 X27.0792 Y-1.3718
G01 X27.1034 Y-1.3782
G01 X27.1168 Y-1.3809
G01 X27.1382 Y-1.3839
G01 X27.1667 Y-1.3853
G01 X27.1951 Y-1.3839
G01 X27.2165 Y-1.3809
G01 X27.2300 Y-1.3782
G01 X27.2541 Y-1.3718
G01 X27.2745 Y-1.3645
G01 X27.2840 Y-1.3604
G01 X27.3034 Y-1.3511
G01 X27.3220 Y-1.3401
G01 X27.3307 Y-1.3345
G01 X27.3480 Y-1.3216
G01 X27.3559 Y-1.3150
G01 X27.3718 Y-1.3004
G01 X27.3864 Y-1.2845
G01 X27.3930 Y-1.2766
G01 X27.4059 Y-1.2592
G01 X27.4115 Y-1.2506
G01 X27.4225 Y-1.2320
G01 X27.4319 Y-1.2125
G01 X27.4359 Y-1.2031
G01 X27.4421 Y-1.1860
G01 X27.4452 Y-1.1761
G01 X27.4505 Y-1.1552
G01 X27.4523 Y-1.1451
G01 X27.4553 Y-1.1237
G01 X27.4566 Y-1.1021
G01 X27.4567 Y-1.0918
G01 X27.4556 Y-1.0702
G01 X27.4545 Y-1.0600
G01 X27.4518 Y-1.0420
G01 X27.4497 Y-1.0319
G01 X27.4443 Y-1.0110
G01 X27.4371 Y-0.9906
G01 X27.4333 Y-0.9811
G01 X27.4241 Y-0.9615
G01 X27.4191 Y-0.9525
G01 X27.4079 Y-0.9341
G01 X27.3909 Y-0.9112
G01 X27.3742 Y-0.8926
G01 X27.2742 Y-0.7926
G01 X27.2567 Y-0.7768
G01 X27.2405 Y-0.7644
G01 X27.2298 Y-0.7570
G01 X27.2095 Y-0.7449
G01 X27.1882 Y-0.7345
G01 X27.1662 Y-0.7259
G01 X26.8774 Y-0.6296
G01 X26.8475 Y-0.6213
G01 X26.8205 Y-0.6168
G01 X26.8093 Y-0.6157
G01 X26.7857 Y-0.6147
G01 X26.5915 Y-0.6147
G01 X26.5642 Y-0.6164
G01 X26.5335 Y-0.6213
G01 X26.5035 Y-0.6296
G01 X26.2147 Y-0.7259
G01 X26.1927 Y-0.7345
G01 X26.1744 Y-0.7434
G01 X26.1658 Y-0.7481
G01 X26.1457 Y-0.7606
G01 X26.1243 Y-0.7768
G01 X26.1044 Y-0.7949
G01 X25.9139 Y-0.9854
G01 X25.8980 Y-1.0028
G01 X25.8908 Y-1.0115
G01 X25.8750 Y-1.0337
G01 X25.8613 Y-1.0574
G01 X25.7644 Y-1.2512
G01 X25.7518 Y-1.2803
G01 X25.7424 Y-1.3106
G01 X25.6472 Y-1.6916
G01 X25.6409 Y-1.7248
G01 X25.6399 Y-1.7350
G01 X25.6385 Y-1.7619
G01 X25.6386 Y-2.0519
G01 X25.6399 Y-2.0745
G01 X25.6409 Y-2.0848
G01 X25.6472 Y-2.1180
G00 Z2.0000
G00 X25.7345 Y-2.0961
G01 F60.00
G01 Z0.0000
G01 F120.00
G01 X25.8297 Y-2.4771
G01 X25.8357 Y-2.4967
G01 X25.8449 Y-2.5180
G01 X25.9407 Y-2.7097
G01 X25.9507 Y-2.7272
G01 X25.9616 Y-2.7424
G01 X25.9776 Y-2.7605
G01 X26.1689 Y-2.9518
G01 X26.1836 Y-2.9649
G01 X26.1966 Y-2.9747
G01 X26.2103 Y-2.9832
G01 X26.2290 Y-2.9927
G01 X26.2463 Y-2.9993
G01 X26.5320 Y-3.0946
G01 X26.5527 Y-3.1003
G01 X26.5738 Y-3.1037
G01 X26.5939 Y-3.1048
G01 X26.7857 Y-3.1048
G01 X26.8098 Y-3.1033
G01 X26.8283 Y-3.1003
G01 X26.8490 Y-3.0946
G01 X27.1358 Y-2.9990
G01 X27.1520 Y-2.9927
G01 X27.1666 Y-2.9855
G01 X27.1844 Y-2.9747
G01 X27.1992 Y-2.9635
G01 X27.2121 Y-2.9518
G01 X27.3081 Y-2.8558
G01 X27.3205 Y-2.8422
G01 X27.3330 Y-2.8254
G01 X27.3431 Y-2.8086
G01 X27.3515 Y-2.7909
G01 X27.3574 Y-2.7747
G01 X27.3629 Y-2.7533
G01 X27.3660 Y-2.7314
G01 X27.3667 Y-2.7143
G01 X27.3660 Y-2.6971
G01 X27.3629 Y-2.6753
G01 X27.3574 Y-2.6539
G01 X27.3515 Y-2.6377
G01 X27.3442 Y-2.6222
G01 X27.3330 Y-2.6031
G01 X27.3197 Y-2.5855
G01 X27.3081 Y-2.5728
G01 X27.2955 Y-2.5612
G01 X27.2778 Y-2.5479
G01 X27.2588 Y-2.5367
G01 X27.2432 Y-2.5294
G01 X27.2271 Y-2.5236
G01 X27.2057 Y-2.5181
G01 X27.1838 Y-2.5150
G01 X27.1667 Y-2.5142
G01 X27.1495 Y-2.5150
G01 X27.1276 Y-2.5181
G01 X27.1086 Y-2.5228
G01 X27.0901 Y-2.5294
G01 X27.0724 Y-2.5378
G01 X27.0545 Y-2.5486
G01 X27.0397 Y-2.5596
G01 X27.0261 Y-2.5720
G01 X26.9634 Y-2.6347
G01 X26.7532 Y-2.7047
G01 X26.6277 Y-2.7047
G01 X26.4176 Y-2.6347
G01 X26.2835 Y-2.5005
G01 X26.2126 Y-2.3587
G01 X26.1286 Y-2.0230
G01 X26.1286 Y-1.7865
G01 X26.2126 Y-1.4508
G01 X26.2835 Y-1.3090
G01 X26.4176 Y-1.1749
G01 X26.6277 Y-1.1048
G01 X26.7532 Y-1.1048
G01 X26.9634 Y-1.1749
G01 X27.0252 Y-1.2367
G01 X27.0397 Y-1.2499
G01 X27.0576 Y-1.2629
G01 X27.0724 Y-1.2717
G01 X27.0901 Y-1.2801
G01 X27.1086 Y-1.2867
G01 X27.1252 Y-1.2909
G01 X27.1471 Y-1.2943
G01 X27.1667 Y-1.2953
G01 X27.1838 Y-1.2945
G01 X27.2057 Y-1.2915
G01 X27.2247 Y-1.2867
G01 X27.2455 Y-1.2791
G01 X27.2610 Y-1.2717
G01 X27.2757 Y-1.2629
G01 X27.2936 Y-1.2499
G01 X27.3098 Y-1.2349
G01 X27.3213 Y-1.2222
G01 X27.3316 Y-1.2084
G01 X27.3431 Y-1.1896
G01 X27.3515 Y-1.1718
G01 X27.3581 Y-1.1533
G01 X27.3633 Y-1.1319
G01 X27.3658 Y-1.1148
G01 X27.3667 Y-1.0977
G01 X27.3658 Y-1.0756
G01 X27.3624 Y-1.0538
G01 X27.3581 Y-1.0372
G01 X27.3524 Y-1.0210
G01 X27.3431 Y-1.0009
G01 X27.3323 Y-0.9831
G01 X27.3213 Y-0.9683
G01 X27.3090 Y-0.9546
G01 X27.2121 Y-0.8577
G01 X27.1992 Y-0.8460
G01 X27.1863 Y-0.8362
G01 X27.1676 Y-0.8246
G01 X27.1520 Y-0.8169
G01 X27.1347 Y-0.8102
G01 X26.8490 Y-0.7150
G01 X26.8283 Y-0.7093
G01 X26.8085 Y-0.7060
G01 X26.7857 Y-0.7047
G01 X26.5952 Y-0.7047
G01 X26.5738 Y-0.7058
G01 X26.5526 Y-0.7093
G01 X26.5320 Y-0.7150
G01 X26.2452 Y-0.8106
G01 X26.2289 Y-0.8169
G01 X26.2144 Y-0.8240
G01 X26.1966 Y-0.8349
G01 X26.1818 Y-0.8460
G01 X26.1680 Y-0.8585
G01 X25.9776 Y-1.0490
G01 X25.9624 Y-1.0660
G01 X25.9507 Y-1.0824
G01 X25.9401 Y-1.1010
G01 X25.8449 Y-1.2915
G01 X25.8362 Y-1.3115
G01 X25.8297 Y-1.3324
G01 X25.7345 Y-1.7134
G01 X25.7301 Y-1.7369
G01 X25.7285 Y-1.7619
G01 X25.7285 Y-2.0476
G01 X25.7301 Y-2.0727
G01 X25.7345 Y-2.0961
G00 Z2.0000
G00 X27.4637 Y-2.2396
G01 F60.00
G01 Z0.0000
G01 F120.00
G01 X27.4637 Y-1.5699
G01 X27.4482 Y-1.5793
G01 X27.4307 Y-1.5892
G01 X27.4127 Y-1.5982
G01 X27.3902 Y-1.6087
G01 X27.3717 Y-1.6164
G01 X27.3484 Y-1.6249
G01 X27.3292 Y-1.6312
G01 X27.3099 Y-1.6366
G01 X27.2858 Y-1.6425
G01 X27.2660 Y-1.6464
G01 X27.2415 Y-1.6502
G01 X27.2216 Y-1.6526
G01 X27.2015 Y-1.6541
G01 X27.1767 Y-1.6552
G01 X27.1566 Y-1.6552
G01 X27.1318 Y-1.6541
G01 X27.1018 Y-1.6515
G01 X27.0772 Y-1.6480
G01 X27.0574 Y-1.6446
G01 X27.0378 Y-1.6401
G01 X27.0137 Y-1.6340
G01 X26.9945 Y-1.6282
G01 X26.9617 Y-1.6164
G01 X26.9431 Y-1.6087
G01 X26.9206 Y-1.5982
G01 X26.9026 Y-1.5892
G01 X26.8725 Y-1.5717
G01 X26.8555 Y-1.5609
G01 X26.8391 Y-1.5493
G01 X26.8114 Y-1.5282
G01 X26.7852 Y-1.5051
G01 X26.7689 Y-1.4895
G01 X26.6948 Y-1.4648
G01 X26.6861 Y-1.4648
G01 X26.6121 Y-1.4895
G01 X26.5793 Y-1.5222
G01 X26.5523 Y-1.5764
G01 X26.4886 Y-1.8309
G01 X26.4886 Y-1.9787
G01 X26.5523 Y-2.2331
G01 X26.5793 Y-2.2873
G01 X26.6121 Y-2.3200
G01 X26.6861 Y-2.3447
G01 X26.6948 Y-2.3447
G01 X26.7689 Y-2.3200
G01 X26.7852 Y-2.3044
G01 X26.8114 Y-2.2813
G01 X26.8391 Y-2.2602
G01 X26.8555 Y-2.2486
G01 X26.8725 Y-2.2378
G01 X26.9026 Y-2.2203
G01 X26.9206 Y-2.2113
G01 X26.9431 Y-2.2008
G01 X26.9617 Y-2.1931
G01 X26.9850 Y-2.1846
G01 X27.0041 Y-2.1783
G01 X27.0235 Y-2.1730
G01 X27.0476 Y-2.1671
G01 X27.0673 Y-2.1631
G01 X27.0918 Y-2.1594
G01 X27.1118 Y-2.1569
G01 X27.1318 Y-2.1554
G01 X27.1566 Y-2.1543
G01 X27.1767 Y-2.1543
G01 X27.2015 Y-2.1554
G01 X27.2216 Y-2.1569
G01 X27.2415 Y-2.1594
G01 X27.2660 Y-2.1631
G01 X27.2858 Y-2.1671
G01 X27.3099 Y-2.1730
G01 X27.3292 Y-2.1783
G01 X27.3622 Y-2.1896
G01 X27.3810 Y-2.1968
G01 X27.3994 Y-2.2050
G01 X27.4218 Y-2.2157
G01 X27.4395 Y-2.2252
G01 X27.4637 Y-2.2396
G00 Z2.0000
G00 X27.5537 Y-2.4476
G01 F60.00
G01 Z0.0000
G01 F120.00
G01 X27.5537 Y-1.3619
G01 X27.5349 Y-1.3873
G01 X27.5250 Y-1.3995
G01 X27.5045 Y-1.4220
G01 X27.4877 Y-1.4385
G01 X27.4649 Y-1.4586
G01 X27.4407 Y-1.4770
G01 X27.4212 Y-1.4904
G01 X27.4019 Y-1.5021
G01 X27.3813 Y-1.5134
G01 X27.3538 Y-1.5264
G01 X27.3393 Y-1.5324
G01 X27.3106 Y-1.5427
G01 X27.2880 Y-1.5493
G01 X27.2584 Y-1.5563
G01 X27.2429 Y-1.5590
G01 X27.2127 Y-1.5630
G01 X27.1824 Y-1.5649
G01 X27.1588 Y-1.5652
G01 X27.1284 Y-1.5637
G01 X27.1050 Y-1.5611
G01 X27.0750 Y-1.5563
G01 X27.0453 Y-1.5493
G01 X27.0227 Y-1.5427
G01 X26.9941 Y-1.5324
G01 X26.9724 Y-1.5232
G01 X26.9451 Y-1.5098
G01 X26.9188 Y-1.4945
G01 X26.8990 Y-1.4816
G01 X26.8746 Y-1.4635
G01 X26.8624 Y-1.4536
G01 X26.8399 Y-1.4331
G01 X26.8175 Y-1.4109
G01 X26.7094 Y-1.3748
G01 X26.6715 Y-1.3748
G01 X26.5634 Y-1.4109
G01 X26.5054 Y-1.4689
G01 X26.4673 Y-1.5450
G01 X26.3986 Y-1.8198
G01 X26.3986 Y-1.9898
G01 X26.4673 Y-2.2645
G01 X26.5054 Y-2.3406
G01 X26.5634 Y-2.3987
G01 X26.6715 Y-2.4347
G01 X26.7094 Y-2.4347
G01 X26.8175 Y-2.3987
G01 X26.8399 Y-2.3764
G01 X26.8624 Y-2.3560
G01 X26.8746 Y-2.3460
G01 X26.8990 Y-2.3279
G01 X26.9188 Y-2.3150
G01 X26.9451 Y-2.2997
G01 X26.9724 Y-2.2864
G01 X26.9941 Y-2.2771
G01 X27.0227 Y-2.2668
G01 X27.0378 Y-2.2623
G01 X27.0673 Y-2.2549
G01 X27.0904 Y-2.2506
G01 X27.1128 Y-2.2473
G01 X27.1363 Y-2.2453
G01 X27.1667 Y-2.2442
G01 X27.1971 Y-2.2453
G01 X27.2205 Y-2.2473
G01 X27.2507 Y-2.2518
G01 X27.2737 Y-2.2567
G01 X27.3031 Y-2.2645
G01 X27.3319 Y-2.2743
G01 X27.3466 Y-2.2800
G01 X27.3742 Y-2.2927
G01 X27.3951 Y-2.3035
G01 X27.4212 Y-2.3191
G01 X27.4407 Y-2.3325
G01 X27.4649 Y-2.3509
G01 X27.4877 Y-2.3711
G01 X27.5045 Y-2.3875
G01 X27.5250 Y-2.4101
G01 X27.5349 Y-2.4222
G01 X27.5537 Y-2.4476
G00 Z2.0000
G00 X27.6440 Y-2.9160
G01 F60.00
G01 Z0.0000
G01 F120.00
G01 X27.6456 Y-2.9420
G01 X27.6500 Y-2.9734
G01 X27.6522 Y-2.9844
G01 X27.6571 Y-3.0042
G01 X27.6618 Y-3.0205
G01 X27.6727 Y-3.0502
G01 X27.6860 Y-3.0789
G01 X27.6913 Y-3.0889
G01 X27.7017 Y-3.1064
G01 X27.7110 Y-3.1206
G01 X27.7300 Y-3.1459
G01 X27.7473 Y-3.1653
G01 X27.7591 Y-3.1775
G01 X27.7827 Y-3.1986
G01 X27.8080 Y-3.2176
G01 X27.8222 Y-3.2268
G01 X27.8397 Y-3.2372
G01 X27.8497 Y-3.2426
G01 X27.8784 Y-3.2559
G01 X27.8889 Y-3.2600
G01 X27.9135 Y-3.2685
G01 X27.9441 Y-3.2764
G01 X27.9552 Y-3.2786
G01 X27.9809 Y-3.2824
G01 X27.9922 Y-3.2835
G01 X28.0125 Y-3.2846
G01 X28.0238 Y-3.2848
G01 X28.5000 Y-3.2848
G01 X28.5284 Y-3.2836
G01 X28.5468 Y-3.2819
G01 X28.5749 Y-3.2774
G01 X28.5929 Y-3.2732
G01 X28.6202 Y-3.2653
G01 X28.9109 Y-3.1683
G01 X28.9339 Y-3.1595
G01 X28.9436 Y-3.1552
G01 X28.9656 Y-3.1443
G01 X28.9795 Y-3.1364
G01 X29.0003 Y-3.1232
G01 X29.0243 Y-3.1054
G01 X29.0365 Y-3.0950
G01 X29.0545 Y-3.0783
G01 X29.2492 Y-2.8834
G01 X29.2682 Y-2.8622
G01 X29.2760 Y-2.8526
G01 X29.2926 Y-2.8296
G01 X29.2993 Y-2.8192
G01 X29.3161 Y-2.7890
G01 X29.4114 Y-2.5985
G01 X29.4232 Y-2.5721
G01 X29.4300 Y-2.5545
G01 X29.4368 Y-2.5329
G01 X29.4402 Y-2.5208
G01 X29.5370 Y-2.1329
G01 X29.5417 Y-2.1080
G01 X29.5442 Y-2.0913
G01 X29.5463 Y-2.0617
G01 X29.5467 Y-2.0476
G01 X29.5467 Y-1.7619
G01 X29.5452 Y-1.7295
G01 X29.5442 Y-1.7183
G01 X29.5427 Y-1.7071
G01 X29.5384 Y-1.6835
G01 X29.5354 Y-1.6697
G01 X29.4402 Y-1.2888
G01 X29.4368 Y-1.2767
G01 X29.4300 Y-1.2550
G01 X29.4232 Y-1.2374
G01 X29.4114 Y-1.2110
G01 X29.3133 Y-1.0150
G01 X29.2960 Y-0.9851
G01 X29.2796 Y-0.9618
G01 X29.2682 Y-0.9473
G01 X29.2449 Y-0.9217
G01 X29.0468 Y-0.7239
G01 X29.0284 Y-0.7075
G01 X29.0090 Y-0.6925
G01 X28.9959 Y-0.6833
G01 X28.9750 Y-0.6704
G01 X28.9609 Y-0.6628
G01 X28.9388 Y-0.6521
G01 X28.9059 Y-0.6394
G01 X28.6143 Y-0.5423
G01 X28.5809 Y-0.5334
G01 X28.5529 Y-0.5285
G01 X28.5345 Y-0.5263
G01 X28.5000 Y-0.5247
G01 X28.0182 Y-0.5248
G01 X27.9866 Y-0.5265
G01 X27.9608 Y-0.5301
G01 X27.9441 Y-0.5332
G01 X27.9189 Y-0.5395
G01 X27.9028 Y-0.5446
G01 X27.8784 Y-0.5536
G01 X27.8497 Y-0.5670
G01 X27.8348 Y-0.5751
G01 X27.8127 Y-0.5887
G01 X27.7871 Y-0.6074
G01 X27.7741 Y-0.6183
G01 X27.7551 Y-0.6360
G01 X27.7374 Y-0.6551
G01 X27.7265 Y-0.6681
G01 X27.7078 Y-0.6936
G01 X27.6942 Y-0.7158
G01 X27.6860 Y-0.7306
G01 X27.6727 Y-0.7593
G01 X27.6636 Y-0.7837
G01 X27.6585 Y-0.7999
G01 X27.6522 Y-0.8251
G01 X27.6491 Y-0.8417
G01 X27.6456 Y-0.8675
G01 X27.6438 Y-0.8991
G01 X27.6437 Y-2.9048
G01 X27.6440 Y-2.9160
G00 Z2.0000
G00 X27.7339 Y-2.9116
G01 F60.00
G01 Z0.0000
G01 F120.00
G01 X27.7351 Y-2.9332
G01 X27.7387 Y-2.9580
G01 X27.7444 Y-2.9823
G01 X27.7473 Y-2.9922
G01 X27.7558 Y-3.0158
G01 X27.7664 Y-3.0385
G01 X27.7789 Y-3.0601
G01 X27.7866 Y-3.0715
G01 X27.7996 Y-3.0888
G01 X27.8187 Y-3.1099
G01 X27.8398 Y-3.1290
G01 X27.8570 Y-3.1420
G01 X27.8685 Y-3.1496
G01 X27.8901 Y-3.1622
G01 X27.9128 Y-3.1728
G01 X27.9331 Y-3.1802
G01 X27.9462 Y-3.1842
G01 X27.9706 Y-3.1899
G01 X27.9954 Y-3.1934
G01 X28.0204 Y-3.1948
G01 X28.5000 Y-3.1948
G01 X28.5311 Y-3.1932
G01 X28.5617 Y-3.1882
G01 X28.5882 Y-3.1811
G01 X28.8774 Y-3.0847
G01 X28.8995 Y-3.0763
G01 X28.9084 Y-3.0723
G01 X28.9266 Y-3.0631
G01 X28.9440 Y-3.0525
G01 X28.9521 Y-3.0471
G01 X28.9684 Y-3.0348
G01 X28.9885 Y-3.0169
G01 X29.1839 Y-2.8215
G01 X29.1997 Y-2.8039
G01 X29.2066 Y-2.7951
G01 X29.2203 Y-2.7758
G01 X29.2339 Y-2.7521
G01 X29.3309 Y-2.5583
G01 X29.3406 Y-2.5363
G01 X29.3448 Y-2.5256
G01 X29.3528 Y-2.4989
G01 X29.4491 Y-2.1138
G01 X29.4533 Y-2.0915
G01 X29.4548 Y-2.0814
G01 X29.4567 Y-2.0476
G01 X29.4567 Y-1.7619
G01 X29.4554 Y-1.7350
G01 X29.4538 Y-1.7214
G01 X29.4481 Y-1.6916
G01 X29.3528 Y-1.3106
G01 X29.3448 Y-1.2839
G01 X29.3406 Y-1.2732
G01 X29.3309 Y-1.2512
G01 X29.2339 Y-1.0574
G01 X29.2203 Y-1.0337
G01 X29.2066 Y-1.0145
G01 X29.1997 Y-1.0056
G01 X29.1813 Y-0.9854
G01 X28.9885 Y-0.7926
G01 X28.9710 Y-0.7768
G01 X28.9548 Y-0.7644
G01 X28.9468 Y-0.7588
G01 X28.9266 Y-0.7464
G01 X28.9025 Y-0.7345
G01 X28.8805 Y-0.7259
G01 X28.5917 Y-0.6296
G01 X28.5617 Y-0.6213
G01 X28.5348 Y-0.6168
G01 X28.5236 Y-0.6157
G01 X28.5000 Y-0.6147
G01 X28.0204 Y-0.6147
G01 X27.9954 Y-0.6161
G01 X27.9740 Y-0.6191
G01 X27.9639 Y-0.6210
G01 X27.9396 Y-0.6272
G01 X27.9160 Y-0.6355
G01 X27.9065 Y-0.6396
G01 X27.8871 Y-0.6489
G01 X27.8685 Y-0.6599
G01 X27.8598 Y-0.6655
G01 X27.8398 Y-0.6805
G01 X27.8237 Y-0.6949
G01 X27.8163 Y-0.7021
G01 X27.7996 Y-0.7207
G01 X27.7866 Y-0.7380
G01 X27.7807 Y-0.7465
G01 X27.7696 Y-0.7650
G01 X27.7649 Y-0.7742
G01 X27.7558 Y-0.7938
G01 X27.7473 Y-0.8173
G01 X27.7444 Y-0.8272
G01 X27.7393 Y-0.8482
G01 X27.7360 Y-0.8695
G01 X27.7348 Y-0.8798
G01 X27.7338 Y-0.9013
G01 X27.7339 Y-2.9116
G00 Z2.0000
G00 X27.8238 Y-2.9072
G01 F60.00
G01 Z0.0000
G01 F120.00
G01 X27.8247 Y-2.9244
G01 X27.8272 Y-2.9414
G01 X27.8331 Y-2.9652
G01 X27.8390 Y-2.9813
G01 X27.8474 Y-2.9991
G01 X27.8575 Y-3.0159
G01 X27.8676 Y-3.0298
G01 X27.8841 Y-3.0479
G01 X27.8969 Y-3.0594
G01 X27.9127 Y-3.0711
G01 X27.9295 Y-3.0812
G01 X27.9450 Y-3.0886
G01 X27.9669 Y-3.0966
G01 X27.9848 Y-3.1010
G01 X28.0018 Y-3.1036
G01 X28.0238 Y-3.1048
G01 X28.5000 Y-3.1048
G01 X28.5241 Y-3.1033
G01 X28.5426 Y-3.1003
G01 X28.5633 Y-3.0946
G01 X28.8490 Y-2.9993
G01 X28.8684 Y-2.9917
G01 X28.8829 Y-2.9844
G01 X28.8967 Y-2.9759
G01 X28.9135 Y-2.9635
G01 X28.9264 Y-2.9518
G01 X29.1186 Y-2.7596
G01 X29.1320 Y-2.7446
G01 X29.1430 Y-2.7294
G01 X29.1551 Y-2.7085
G01 X29.2504 Y-2.5180
G01 X29.2595 Y-2.4967
G01 X29.2655 Y-2.4771
G01 X29.3611 Y-2.0947
G01 X29.3653 Y-2.0715
G01 X29.3667 Y-2.0476
G01 X29.3667 Y-1.7619
G01 X29.3652 Y-1.7369
G01 X29.3608 Y-1.7134
G01 X29.2655 Y-1.3324
G01 X29.2595 Y-1.3128
G01 X29.2504 Y-1.2915
G01 X29.1545 Y-1.0998
G01 X29.1445 Y-1.0824
G01 X29.1336 Y-1.0671
G01 X29.1177 Y-1.0490
G01 X28.9264 Y-0.8577
G01 X28.9135 Y-0.8460
G01 X28.9006 Y-0.8362
G01 X28.8808 Y-0.8240
G01 X28.8663 Y-0.8169
G01 X28.8490 Y-0.8102
G01 X28.5620 Y-0.7145
G01 X28.5426 Y-0.7093
G01 X28.5241 Y-0.7062
G01 X28.5000 Y-0.7047
G01 X28.0238 Y-0.7047
G01 X28.0042 Y-0.7056
G01 X27.9860 Y-0.7083
G01 X27.9657 Y-0.7133
G01 X27.9472 Y-0.7199
G01 X27.9295 Y-0.7283
G01 X27.9106 Y-0.7398
G01 X27.8969 Y-0.7501
G01 X27.8841 Y-0.7616
G01 X27.8708 Y-0.7760
G01 X27.8575 Y-0.7936
G01 X27.8468 Y-0.8115
G01 X27.8381 Y-0.8305
G01 X27.8323 Y-0.8467
G01 X27.8281 Y-0.8633
G01 X27.8247 Y-0.8852
G01 X27.8237 Y-0.9048
G01 X27.8238 Y-2.9072
G00 Z2.0000
G00 X28.2239 Y-2.7047
G01 F60.00
G01 Z0.0000
G01 F120.00
G01 X28.4675 Y-2.7047
G01 X28.6776 Y-2.6347
G01 X28.8118 Y-2.5005
G01 X28.8827 Y-2.3587
G01 X28.9666 Y-2.0230
G01 X28.9666 Y-1.7865
G01 X28.8827 Y-1.4508
G01 X28.8118 Y-1.3090
G01 X28.6776 Y-1.1749
G01 X28.4675 Y-1.1048
G01 X28.2239 Y-1.1048
G01 X28.2239 Y-2.7047
G00 Z2.0000
G00 X28.3139 Y-2.6147
G01 F60.00
G01 Z0.0000
G01 F120.00
G01 X28.4529 Y-2.6147
G01 X28.6290 Y-2.5560
G01 X28.7378 Y-2.4472
G01 X28.7977 Y-2.3273
G01 X28.8766 Y-2.0119
G01 X28.8766 Y-1.7976
G01 X28.7977 Y-1.4822
