(G-CODE GENERATED BY FLATCAM v8.994 - www.flatcam.org - Version Date: 2020/11/7)

(Name: buck_regulator.drl_mill_cnc)
(Type: G-code from Geometry)
(Units: MM)

(Created on Saturday, 11 February 2023 at 13:54)

(This preprocessor is the default preprocessor used by FlatCAM.)
(It is made to work with MACH3 compatible motion controllers.)

(TOOL DIAMETER: 0.8 mm)
(Feedrate_XY: 200.0 mm/min)
(Feedrate_Z: 100.0 mm/min)
(Feedrate rapids 1500.0 mm/min)

(Z_Cut: -2.4 mm)
(DepthPerCut: 0.8 mm <=>3 passes)
(Z_Move: 2.0 mm)
(Z Start: None mm)
(Z End: 15.0 mm)
(X,Y End: None mm)
(Steps per circle: 64)
(Preprocessor Geometry: default)

(X range:    2.9000 ...   45.5000  mm)
(Y range:  -28.4000 ...   -4.5500  mm)

(Spindle Speed: 24000.0 RPM)
G21
G90
G94

G01 F200.00

M5
G00 Z15.0000
G00 X0.0000 Y0.0000
T1
M6    
(MSG, Change to Tool Dia = 0.8000)
M0
G00 Z15.0000

M03 S24000.0
G01 F200.00
G00 X5.9500 Y-4.8000
G01 F100.00
G01 Z-0.8000
G01 F200.00
G01 X5.9488 Y-4.8245
G01 X5.9452 Y-4.8488
G01 X5.9392 Y-4.8726
G01 X5.9310 Y-4.8957
G01 X5.9205 Y-4.9178
G01 X5.9079 Y-4.9389
G01 X5.8933 Y-4.9586
G01 X5.8768 Y-4.9768
G01 X5.8586 Y-4.9933
G01 X5.8389 Y-5.0079
G01 X5.8178 Y-5.0205
G01 X5.7957 Y-5.0310
G01 X5.7726 Y-5.0392
G01 X5.7488 Y-5.0452
G01 X5.7245 Y-5.0488
G01 X5.7000 Y-5.0500
G01 X5.6755 Y-5.0488
G01 X5.6512 Y-5.0452
G01 X5.6274 Y-5.0392
G01 X5.6043 Y-5.0310
G01 X5.5822 Y-5.0205
G01 X5.5611 Y-5.0079
G01 X5.5414 Y-4.9933
G01 X5.5232 Y-4.9768
G01 X5.5067 Y-4.9586
G01 X5.4921 Y-4.9389
G01 X5.4795 Y-4.9178
G01 X5.4690 Y-4.8957
G01 X5.4608 Y-4.8726
G01 X5.4548 Y-4.8488
G01 X5.4512 Y-4.8245
G01 X5.4500 Y-4.8000
G01 X5.4512 Y-4.7755
G01 X5.4548 Y-4.7512
G01 X5.4608 Y-4.7274
G01 X5.4690 Y-4.7043
G01 X5.4795 Y-4.6822
G01 X5.4921 Y-4.6611
G01 X5.5067 Y-4.6414
G01 X5.5232 Y-4.6232
G01 X5.5414 Y-4.6067
G01 X5.5611 Y-4.5921
G01 X5.5822 Y-4.5795
G01 X5.6043 Y-4.5690
G01 X5.6274 Y-4.5608
G01 X5.6512 Y-4.5548
G01 X5.6755 Y-4.5512
G01 X5.7000 Y-4.5500
G01 X5.7245 Y-4.5512
G01 X5.7488 Y-4.5548
G01 X5.7726 Y-4.5608
G01 X5.7957 Y-4.5690
G01 X5.8178 Y-4.5795
G01 X5.8389 Y-4.5921
G01 X5.8586 Y-4.6067
G01 X5.8768 Y-4.6232
G01 X5.8933 Y-4.6414
G01 X5.9079 Y-4.6611
G01 X5.9205 Y-4.6822
G01 X5.9310 Y-4.7043
G01 X5.9392 Y-4.7274
G01 X5.9452 Y-4.7512
G01 X5.9488 Y-4.7755
G01 X5.9500 Y-4.8000
G00 X5.9500 Y-4.8000
G01 F100.00
G01 Z-1.6000
G01 F200.00
G01 X5.9488 Y-4.8245
G01 X5.9452 Y-4.8488
G01 X5.9392 Y-4.8726
G01 X5.9310 Y-4.8957
G01 X5.9205 Y-4.9178
G01 X5.9079 Y-4.9389
G01 X5.8933 Y-4.9586
G01 X5.8768 Y-4.9768
G01 X5.8586 Y-4.9933
G01 X5.8389 Y-5.0079
G01 X5.8178 Y-5.0205
G01 X5.7957 Y-5.0310
G01 X5.7726 Y-5.0392
G01 X5.7488 Y-5.0452
G01 X5.7245 Y-5.0488
G01 X5.7000 Y-5.0500
G01 X5.6755 Y-5.0488
G01 X5.6512 Y-5.0452
G01 X5.6274 Y-5.0392
G01 X5.6043 Y-5.0310
G01 X5.5822 Y-5.0205
G01 X5.5611 Y-5.0079
G01 X5.5414 Y-4.9933
G01 X5.5232 Y-4.9768
G01 X5.5067 Y-4.9586
G01 X5.4921 Y-4.9389
G01 X5.4795 Y-4.9178
G01 X5.4690 Y-4.8957
G01 X5.4608 Y-4.8726
G01 X5.4548 Y-4.8488
G01 X5.4512 Y-4.8245
G01 X5.4500 Y-4.8000
G01 X5.4512 Y-4.7755
G01 X5.4548 Y-4.7512
G01 X5.4608 Y-4.7274
G01 X5.4690 Y-4.7043
G01 X5.4795 Y-4.6822
G01 X5.4921 Y-4.6611
G01 X5.5067 Y-4.6414
G01 X5.5232 Y-4.6232
G01 X5.5414 Y-4.6067
G01 X5.5611 Y-4.5921
G01 X5.5822 Y-4.5795
G01 X5.6043 Y-4.5690
G01 X5.6274 Y-4.5608
G01 X5.6512 Y-4.5548
G01 X5.6755 Y-4.5512
G01 X5.7000 Y-4.5500
G01 X5.7245 Y-4.5512
G01 X5.7488 Y-4.5548
G01 X5.7726 Y-4.5608
G01 X5.7957 Y-4.5690
G01 X5.8178 Y-4.5795
G01 X5.8389 Y-4.5921
G01 X5.8586 Y-4.6067
G01 X5.8768 Y-4.6232
G01 X5.8933 Y-4.6414
G01 X5.9079 Y-4.6611
G01 X5.9205 Y-4.6822
G01 X5.9310 Y-4.7043
G01 X5.9392 Y-4.7274
G01 X5.9452 Y-4.7512
G01 X5.9488 Y-4.7755
G01 X5.9500 Y-4.8000
G00 X5.9500 Y-4.8000
G01 F100.00
G01 Z-2.4000
G01 F200.00
G01 X5.9488 Y-4.8245
G01 X5.9452 Y-4.8488
G01 X5.9392 Y-4.8726
G01 X5.9310 Y-4.8957
G01 X5.9205 Y-4.9178
G01 X5.9079 Y-4.9389
G01 X5.8933 Y-4.9586
G01 X5.8768 Y-4.9768
G01 X5.8586 Y-4.9933
G01 X5.8389 Y-5.0079
G01 X5.8178 Y-5.0205
G01 X5.7957 Y-5.0310
G01 X5.7726 Y-5.0392
G01 X5.7488 Y-5.0452
G01 X5.7245 Y-5.0488
G01 X5.7000 Y-5.0500
G01 X5.6755 Y-5.0488
G01 X5.6512 Y-5.0452
G01 X5.6274 Y-5.0392
G01 X5.6043 Y-5.0310
G01 X5.5822 Y-5.0205
G01 X5.5611 Y-5.0079
G01 X5.5414 Y-4.9933
G01 X5.5232 Y-4.9768
G01 X5.5067 Y-4.9586
G01 X5.4921 Y-4.9389
G01 X5.4795 Y-4.9178
G01 X5.4690 Y-4.8957
G01 X5.4608 Y-4.8726
G01 X5.4548 Y-4.8488
G01 X5.4512 Y-4.8245
G01 X5.4500 Y-4.8000
G01 X5.4512 Y-4.7755
G01 X5.4548 Y-4.7512
G01 X5.4608 Y-4.7274
G01 X5.4690 Y-4.7043
G01 X5.4795 Y-4.6822
G01 X5.4921 Y-4.6611
G01 X5.5067 Y-4.6414
G01 X5.5232 Y-4.6232
G01 X5.5414 Y-4.6067
G01 X5.5611 Y-4.5921
G01 X5.5822 Y-4.5795
G01 X5.6043 Y-4.5690
G01 X5.6274 Y-4.5608
G01 X5.6512 Y-4.5548
G01 X5.6755 Y-4.5512
G01 X5.7000 Y-4.5500
G01 X5.7245 Y-4.5512
G01 X5.7488 Y-4.5548
G01 X5.7726 Y-4.5608
G01 X5.7957 Y-4.5690
G01 X5.8178 Y-4.5795
G01 X5.8389 Y-4.5921
G01 X5.8586 Y-4.6067
G01 X5.8768 Y-4.6232
G01 X5.8933 Y-4.6414
G01 X5.9079 Y-4.6611
G01 X5.9205 Y-4.6822
G01 X5.9310 Y-4.7043
G01 X5.9392 Y-4.7274
G01 X5.9452 Y-4.7512
G01 X5.9488 Y-4.7755
G01 X5.9500 Y-4.8000
G00 Z2.0000
G00 X10.9500 Y-4.8000
G01 F100.00
G01 Z-0.8000
G01 F200.00
G01 X10.9488 Y-4.8245
G01 X10.9452 Y-4.8488
G01 X10.9392 Y-4.8726
G01 X10.9310 Y-4.8957
G01 X10.9205 Y-4.9178
G01 X10.9079 Y-4.9389
G01 X10.8933 Y-4.9586
G01 X10.8768 Y-4.9768
G01 X10.8586 Y-4.9933
G01 X10.8389 Y-5.0079
G01 X10.8178 Y-5.0205
G01 X10.7957 Y-5.0310
G01 X10.7726 Y-5.0392
G01 X10.7488 Y-5.0452
G01 X10.7245 Y-5.0488
G01 X10.7000 Y-5.0500
G01 X10.6755 Y-5.0488
G01 X10.6512 Y-5.0452
G01 X10.6274 Y-5.0392
G01 X10.6043 Y-5.0310
G01 X10.5822 Y-5.0205
G01 X10.5611 Y-5.0079
G01 X10.5414 Y-4.9933
G01 X10.5232 Y-4.9768
G01 X10.5067 Y-4.9586
G01 X10.4921 Y-4.9389
G01 X10.4795 Y-4.9178
G01 X10.4690 Y-4.8957
G01 X10.4608 Y-4.8726
G01 X10.4548 Y-4.8488
G01 X10.4512 Y-4.8245
G01 X10.4500 Y-4.8000
G01 X10.4512 Y-4.7755
G01 X10.4548 Y-4.7512
G01 X10.4608 Y-4.7274
G01 X10.4690 Y-4.7043
G01 X10.4795 Y-4.6822
G01 X10.4921 Y-4.6611
G01 X10.5067 Y-4.6414
G01 X10.5232 Y-4.6232
G01 X10.5414 Y-4.6067
G01 X10.5611 Y-4.5921
G01 X10.5822 Y-4.5795
G01 X10.6043 Y-4.5690
G01 X10.6274 Y-4.5608
G01 X10.6512 Y-4.5548
G01 X10.6755 Y-4.5512
G01 X10.7000 Y-4.5500
G01 X10.7245 Y-4.5512
G01 X10.7488 Y-4.5548
G01 X10.7726 Y-4.5608
G01 X10.7957 Y-4.5690
G01 X10.8178 Y-4.5795
G01 X10.8389 Y-4.5921
G01 X10.8586 Y-4.6067
G01 X10.8768 Y-4.6232
G01 X10.8933 Y-4.6414
G01 X10.9079 Y-4.6611
G01 X10.9205 Y-4.6822
G01 X10.9310 Y-4.7043
G01 X10.9392 Y-4.7274
G01 X10.9452 Y-4.7512
G01 X10.9488 Y-4.7755
G01 X10.9500 Y-4.8000
G00 X10.9500 Y-4.8000
G01 F100.00
G01 Z-1.6000
G01 F200.00
G01 X10.9488 Y-4.8245
G01 X10.9452 Y-4.8488
G01 X10.9392 Y-4.8726
G01 X10.9310 Y-4.8957
G01 X10.9205 Y-4.9178
G01 X10.9079 Y-4.9389
G01 X10.8933 Y-4.9586
G01 X10.8768 Y-4.9768
G01 X10.8586 Y-4.9933
G01 X10.8389 Y-5.0079
G01 X10.8178 Y-5.0205
G01 X10.7957 Y-5.0310
G01 X10.7726 Y-5.0392
G01 X10.7488 Y-5.0452
G01 X10.7245 Y-5.0488
G01 X10.7000 Y-5.0500
G01 X10.6755 Y-5.0488
G01 X10.6512 Y-5.0452
G01 X10.6274 Y-5.0392
G01 X10.6043 Y-5.0310
G01 X10.5822 Y-5.0205
G01 X10.5611 Y-5.0079
G01 X10.5414 Y-4.9933
G01 X10.5232 Y-4.9768
G01 X10.5067 Y-4.9586
G01 X10.4921 Y-4.9389
G01 X10.4795 Y-4.9178
G01 X10.4690 Y-4.8957
G01 X10.4608 Y-4.8726
G01 X10.4548 Y-4.8488
G01 X10.4512 Y-4.8245
G01 X10.4500 Y-4.8000
G01 X10.4512 Y-4.7755
G01 X10.4548 Y-4.7512
G01 X10.4608 Y-4.7274
G01 X10.4690 Y-4.7043
G01 X10.4795 Y-4.6822
G01 X10.4921 Y-4.6611
G01 X10.5067 Y-4.6414
G01 X10.5232 Y-4.6232
G01 X10.5414 Y-4.6067
G01 X10.5611 Y-4.5921
G01 X10.5822 Y-4.5795
G01 X10.6043 Y-4.5690
G01 X10.6274 Y-4.5608
G01 X10.6512 Y-4.5548
G01 X10.6755 Y-4.5512
G01 X10.7000 Y-4.5500
G01 X10.7245 Y-4.5512
G01 X10.7488 Y-4.5548
G01 X10.7726 Y-4.5608
G01 X10.7957 Y-4.5690
G01 X10.8178 Y-4.5795
G01 X10.8389 Y-4.5921
G01 X10.8586 Y-4.6067
G01 X10.8768 Y-4.6232
G01 X10.8933 Y-4.6414
G01 X10.9079 Y-4.6611
G01 X10.9205 Y-4.6822
G01 X10.9310 Y-4.7043
G01 X10.9392 Y-4.7274
G01 X10.9452 Y-4.7512
G01 X10.9488 Y-4.7755
G01 X10.9500 Y-4.8000
G00 X10.9500 Y-4.8000
G01 F100.00
G01 Z-2.4000
G01 F200.00
G01 X10.9488 Y-4.8245
G01 X10.9452 Y-4.8488
G01 X10.9392 Y-4.8726
G01 X10.9310 Y-4.8957
G01 X10.9205 Y-4.9178
G01 X10.9079 Y-4.9389
G01 X10.8933 Y-4.9586
G01 X10.8768 Y-4.9768
G01 X10.8586 Y-4.9933
G01 X10.8389 Y-5.0079
G01 X10.8178 Y-5.0205
G01 X10.7957 Y-5.0310
G01 X10.7726 Y-5.0392
G01 X10.7488 Y-5.0452
G01 X10.7245 Y-5.0488
G01 X10.7000 Y-5.0500
G01 X10.6755 Y-5.0488
G01 X10.6512 Y-5.0452
G01 X10.6274 Y-5.0392
G01 X10.6043 Y-5.0310
G01 X10.5822 Y-5.0205
G01 X10.5611 Y-5.0079
G01 X10.5414 Y-4.9933
G01 X10.5232 Y-4.9768
G01 X10.5067 Y-4.9586
G01 X10.4921 Y-4.9389
G01 X10.4795 Y-4.9178
G01 X10.4690 Y-4.8957
G01 X10.4608 Y-4.8726
G01 X10.4548 Y-4.8488
G01 X10.4512 Y-4.8245
G01 X10.4500 Y-4.8000
G01 X10.4512 Y-4.7755
G01 X10.4548 Y-4.7512
G01 X10.4608 Y-4.7274
G01 X10.4690 Y-4.7043
G01 X10.4795 Y-4.6822
G01 X10.4921 Y-4.6611
G01 X10.5067 Y-4.6414
G01 X10.5232 Y-4.6232
G01 X10.5414 Y-4.6067
G01 X10.5611 Y-4.5921
G01 X10.5822 Y-4.5795
G01 X10.6043 Y-4.5690
G01 X10.6274 Y-4.5608
G01 X10.6512 Y-4.5548
G01 X10.6755 Y-4.5512
G01 X10.7000 Y-4.5500
G01 X10.7245 Y-4.5512
G01 X10.7488 Y-4.5548
G01 X10.7726 Y-4.5608
G01 X10.7957 Y-4.5690
G01 X10.8178 Y-4.5795
G01 X10.8389 Y-4.5921
G01 X10.8586 Y-4.6067
G01 X10.8768 Y-4.6232
G01 X10.8933 Y-4.6414
G01 X10.9079 Y-4.6611
G01 X10.9205 Y-4.6822
G01 X10.9310 Y-4.7043
G01 X10.9392 Y-4.7274
G01 X10.9452 Y-4.7512
G01 X10.9488 Y-4.7755
G01 X10.9500 Y-4.8000
G00 Z2.0000
G00 X15.9500 Y-4.8000
G01 F100.00
G01 Z-0.8000
G01 F200.00
G01 X15.9488 Y-4.8245
G01 X15.9452 Y-4.8488
G01 X15.9392 Y-4.8726
G01 X15.9310 Y-4.8957
G01 X15.9205 Y-4.9178
G01 X15.9079 Y-4.9389
G01 X15.8933 Y-4.9586
G01 X15.8768 Y-4.9768
G01 X15.8586 Y-4.9933
G01 X15.8389 Y-5.0079
G01 X15.8178 Y-5.0205
G01 X15.7957 Y-5.0310
G01 X15.7726 Y-5.0392
G01 X15.7488 Y-5.0452
G01 X15.7245 Y-5.0488
G01 X15.7000 Y-5.0500
G01 X15.6755 Y-5.0488
G01 X15.6512 Y-5.0452
G01 X15.6274 Y-5.0392
G01 X15.6043 Y-5.0310
G01 X15.5822 Y-5.0205
G01 X15.5611 Y-5.0079
G01 X15.5414 Y-4.9933
G01 X15.5232 Y-4.9768
G01 X15.5067 Y-4.9586
G01 X15.4921 Y-4.9389
G01 X15.4795 Y-4.9178
G01 X15.4690 Y-4.8957
G01 X15.4608 Y-4.8726
G01 X15.4548 Y-4.8488
G01 X15.4512 Y-4.8245
G01 X15.4500 Y-4.8000
G01 X15.4512 Y-4.7755
G01 X15.4548 Y-4.7512
G01 X15.4608 Y-4.7274
G01 X15.4690 Y-4.7043
G01 X15.4795 Y-4.6822
G01 X15.4921 Y-4.6611
G01 X15.5067 Y-4.6414
G01 X15.5232 Y-4.6232
G01 X15.5414 Y-4.6067
G01 X15.5611 Y-4.5921
G01 X15.5822 Y-4.5795
G01 X15.6043 Y-4.5690
G01 X15.6274 Y-4.5608
G01 X15.6512 Y-4.5548
G01 X15.6755 Y-4.5512
G01 X15.7000 Y-4.5500
G01 X15.7245 Y-4.5512
G01 X15.7488 Y-4.5548
G01 X15.7726 Y-4.5608
G01 X15.7957 Y-4.5690
G01 X15.8178 Y-4.5795
G01 X15.8389 Y-4.5921
G01 X15.8586 Y-4.6067
G01 X15.8768 Y-4.6232
G01 X15.8933 Y-4.6414
G01 X15.9079 Y-4.6611
G01 X15.9205 Y-4.6822
G01 X15.9310 Y-4.7043
G01 X15.9392 Y-4.7274
G01 X15.9452 Y-4.7512
G01 X15.9488 Y-4.7755
G01 X15.9500 Y-4.8000
G00 X15.9500 Y-4.8000
G01 F100.00
G01 Z-1.6000
G01 F200.00
G01 X15.9488 Y-4.8245
G01 X15.9452 Y-4.8488
G01 X15.9392 Y-4.8726
G01 X15.9310 Y-4.8957
G01 X15.9205 Y-4.9178
G01 X15.9079 Y-4.9389
G01 X15.8933 Y-4.9586
G01 X15.8768 Y-4.9768
G01 X15.8586 Y-4.9933
G01 X15.8389 Y-5.0079
G01 X15.8178 Y-5.0205
G01 X15.7957 Y-5.0310
G01 X15.7726 Y-5.0392
G01 X15.7488 Y-5.0452
G01 X15.7245 Y-5.0488
G01 X15.7000 Y-5.0500
G01 X15.6755 Y-5.0488
G01 X15.6512 Y-5.0452
G01 X15.6274 Y-5.0392
G01 X15.6043 Y-5.0310
G01 X15.5822 Y-5.0205
G01 X15.5611 Y-5.0079
G01 X15.5414 Y-4.9933
G01 X15.5232 Y-4.9768
G01 X15.5067 Y-4.9586
G01 X15.4921 Y-4.9389
G01 X15.4795 Y-4.9178
G01 X15.4690 Y-4.8957
G01 X15.4608 Y-4.8726
G01 X15.4548 Y-4.8488
G01 X15.4512 Y-4.8245
G01 X15.4500 Y-4.8000
G01 X15.4512 Y-4.7755
G01 X15.4548 Y-4.7512
G01 X15.4608 Y-4.7274
G01 X15.4690 Y-4.7043
G01 X15.4795 Y-4.6822
G01 X15.4921 Y-4.6611
G01 X15.5067 Y-4.6414
G01 X15.5232 Y-4.6232
G01 X15.5414 Y-4.6067
G01 X15.5611 Y-4.5921
G01 X15.5822 Y-4.5795
G01 X15.6043 Y-4.5690
G01 X15.6274 Y-4.5608
G01 X15.6512 Y-4.5548
G01 X15.6755 Y-4.5512
G01 X15.7000 Y-4.5500
G01 X15.7245 Y-4.5512
G01 X15.7488 Y-4.5548
G01 X15.7726 Y-4.5608
G01 X15.7957 Y-4.5690
G01 X15.8178 Y-4.5795
G01 X15.8389 Y-4.5921
G01 X15.8586 Y-4.6067
G01 X15.8768 Y-4.6232
G01 X15.8933 Y-4.6414
G01 X15.9079 Y-4.6611
G01 X15.9205 Y-4.6822
G01 X15.9310 Y-4.7043
G01 X15.9392 Y-4.7274
G01 X15.9452 Y-4.7512
G01 X15.9488 Y-4.7755
G01 X15.9500 Y-4.8000
G00 X15.9500 Y-4.8000
G01 F100.00
G01 Z-2.4000
G01 F200.00
G01 X15.9488 Y-4.8245
G01 X15.9452 Y-4.8488
G01 X15.9392 Y-4.8726
G01 X15.9310 Y-4.8957
G01 X15.9205 Y-4.9178
G01 X15.9079 Y-4.9389
G01 X15.8933 Y-4.9586
G01 X15.8768 Y-4.9768
G01 X15.8586 Y-4.9933
G01 X15.8389 Y-5.0079
G01 X15.8178 Y-5.0205
G01 X15.7957 Y-5.0310
G01 X15.7726 Y-5.0392
G01 X15.7488 Y-5.0452
G01 X15.7245 Y-5.0488
G01 X15.7000 Y-5.0500
G01 X15.6755 Y-5.0488
G01 X15.6512 Y-5.0452
G01 X15.6274 Y-5.0392
G01 X15.6043 Y-5.0310
G01 X15.5822 Y-5.0205
G01 X15.5611 Y-5.0079
G01 X15.5414 Y-4.9933
G01 X15.5232 Y-4.9768
G01 X15.5067 Y-4.9586
G01 X15.4921 Y-4.9389
G01 X15.4795 Y-4.9178
G01 X15.4690 Y-4.8957
G01 X15.4608 Y-4.8726
G01 X15.4548 Y-4.8488
G01 X15.4512 Y-4.8245
G01 X15.4500 Y-4.8000
G01 X15.4512 Y-4.7755
G01 X15.4548 Y-4.7512
G01 X15.4608 Y-4.7274
G01 X15.4690 Y-4.7043
G01 X15.4795 Y-4.6822
G01 X15.4921 Y-4.6611
G01 X15.5067 Y-4.6414
G01 X15.5232 Y-4.6232
G01 X15.5414 Y-4.6067
G01 X15.5611 Y-4.5921
G01 X15.5822 Y-4.5795
G01 X15.6043 Y-4.5690
G01 X15.6274 Y-4.5608
G01 X15.6512 Y-4.5548
G01 X15.6755 Y-4.5512
G01 X15.7000 Y-4.5500
G01 X15.7245 Y-4.5512
G01 X15.7488 Y-4.5548
G01 X15.7726 Y-4.5608
G01 X15.7957 Y-4.5690
G01 X15.8178 Y-4.5795
G01 X15.8389 Y-4.5921
G01 X15.8586 Y-4.6067
G01 X15.8768 Y-4.6232
G01 X15.8933 Y-4.6414
G01 X15.9079 Y-4.6611
G01 X15.9205 Y-4.6822
G01 X15.9310 Y-4.7043
G01 X15.9392 Y-4.7274
G01 X15.9452 Y-4.7512
G01 X15.9488 Y-4.7755
G01 X15.9500 Y-4.8000
G00 Z2.0000
G00 X20.9500 Y-4.8000
G01 F100.00
G01 Z-0.8000
G01 F200.00
G01 X20.9488 Y-4.8245
G01 X20.9452 Y-4.8488
G01 X20.9392 Y-4.8726
G01 X20.9310 Y-4.8957
G01 X20.9205 Y-4.9178
G01 X20.9079 Y-4.9389
G01 X20.8933 Y-4.9586
G01 X20.8768 Y-4.9768
G01 X20.8586 Y-4.9933
G01 X20.8389 Y-5.0079
G01 X20.8178 Y-5.0205
G01 X20.7957 Y-5.0310
G01 X20.7726 Y-5.0392
G01 X20.7488 Y-5.0452
G01 X20.7245 Y-5.0488
G01 X20.7000 Y-5.0500
G01 X20.6755 Y-5.0488
G01 X20.6512 Y-5.0452
G01 X20.6274 Y-5.0392
G01 X20.6043 Y-5.0310
G01 X20.5822 Y-5.0205
G01 X20.5611 Y-5.0079
G01 X20.5414 Y-4.9933
G01 X20.5232 Y-4.9768
G01 X20.5067 Y-4.9586
G01 X20.4921 Y-4.9389
G01 X20.4795 Y-4.9178
G01 X20.4690 Y-4.8957
G01 X20.4608 Y-4.8726
G01 X20.4548 Y-4.8488
G01 X20.4512 Y-4.8245
G01 X20.4500 Y-4.8000
G01 X20.4512 Y-4.7755
G01 X20.4548 Y-4.7512
G01 X20.4608 Y-4.7274
G01 X20.4690 Y-4.7043
G01 X20.4795 Y-4.6822
G01 X20.4921 Y-4.6611
G01 X20.5067 Y-4.6414
G01 X20.5232 Y-4.6232
G01 X20.5414 Y-4.6067
G01 X20.5611 Y-4.5921
G01 X20.5822 Y-4.5795
G01 X20.6043 Y-4.5690
G01 X20.6274 Y-4.5608
G01 X20.6512 Y-4.5548
G01 X20.6755 Y-4.5512
G01 X20.7000 Y-4.5500
G01 X20.7245 Y-4.5512
G01 X20.7488 Y-4.5548
G01 X20.7726 Y-4.5608
G01 X20.7957 Y-4.5690
G01 X20.8178 Y-4.5795
G01 X20.8389 Y-4.5921
G01 X20.8586 Y-4.6067
G01 X20.8768 Y-4.6232
G01 X20.8933 Y-4.6414
G01 X20.9079 Y-4.6611
G01 X20.9205 Y-4.6822
G01 X20.9310 Y-4.7043
G01 X20.9392 Y-4.7274
G01 X20.9452 Y-4.7512
G01 X20.9488 Y-4.7755
G01 X20.9500 Y-4.8000
G00 X20.9500 Y-4.8000
G01 F100.00
G01 Z-1.6000
G01 F200.00
G01 X20.9488 Y-4.8245
G01 X20.9452 Y-4.8488
G01 X20.9392 Y-4.8726
G01 X20.9310 Y-4.8957
G01 X20.9205 Y-4.9178
G01 X20.9079 Y-4.9389
G01 X20.8933 Y-4.9586
G01 X20.8768 Y-4.9768
G01 X20.8586 Y-4.9933
G01 X20.8389 Y-5.0079
G01 X20.8178 Y-5.0205
G01 X20.7957 Y-5.0310
G01 X20.7726 Y-5.0392
G01 X20.7488 Y-5.0452
G01 X20.7245 Y-5.0488
G01 X20.7000 Y-5.0500
G01 X20.6755 Y-5.0488
G01 X20.6512 Y-5.0452
G01 X20.6274 Y-5.0392
G01 X20.6043 Y-5.0310
G01 X20.5822 Y-5.0205
G01 X20.5611 Y-5.0079
G01 X20.5414 Y-4.9933
G01 X20.5232 Y-4.9768
G01 X20.5067 Y-4.9586
G01 X20.4921 Y-4.9389
G01 X20.4795 Y-4.9178
G01 X20.4690 Y-4.8957
G01 X20.4608 Y-4.8726
G01 X20.4548 Y-4.8488
G01 X20.4512 Y-4.8245
G01 X20.4500 Y-4.8000
G01 X20.4512 Y-4.7755
G01 X20.4548 Y-4.7512
G01 X20.4608 Y-4.7274
G01 X20.4690 Y-4.7043
G01 X20.4795 Y-4.6822
G01 X20.4921 Y-4.6611
G01 X20.5067 Y-4.6414
G01 X20.5232 Y-4.6232
G01 X20.5414 Y-4.6067
G01 X20.5611 Y-4.5921
G01 X20.5822 Y-4.5795
G01 X20.6043 Y-4.5690
G01 X20.6274 Y-4.5608
G01 X20.6512 Y-4.5548
G01 X20.6755 Y-4.5512
G01 X20.7000 Y-4.5500
G01 X20.7245 Y-4.5512
G01 X20.7488 Y-4.5548
G01 X20.7726 Y-4.5608
G01 X20.7957 Y-4.5690
G01 X20.8178 Y-4.5795
G01 X20.8389 Y-4.5921
G01 X20.8586 Y-4.6067
G01 X20.8768 Y-4.6232
G01 X20.8933 Y-4.6414
G01 X20.9079 Y-4.6611
G01 X20.9205 Y-4.6822
G01 X20.9310 Y-4.7043
G01 X20.9392 Y-4.7274
G01 X20.9452 Y-4.7512
G01 X20.9488 Y-4.7755
G01 X20.9500 Y-4.8000
G00 X20.9500 Y-4.8000
G01 F100.00
G01 Z-2.4000
G01 F200.00
G01 X20.9488 Y-4.8245
G01 X20.9452 Y-4.8488
G01 X20.9392 Y-4.8726
G01 X20.9310 Y-4.8957
G01 X20.9205 Y-4.9178
G01 X20.9079 Y-4.9389
G01 X20.8933 Y-4.9586
G01 X20.8768 Y-4.9768
G01 X20.8586 Y-4.9933
G01 X20.8389 Y-5.0079
G01 X20.8178 Y-5.0205
G01 X20.7957 Y-5.0310
G01 X20.7726 Y-5.0392
G01 X20.7488 Y-5.0452
G01 X20.7245 Y-5.0488
G01 X20.7000 Y-5.0500
G01 X20.6755 Y-5.0488
G01 X20.6512 Y-5.0452
G01 X20.6274 Y-5.0392
G01 X20.6043 Y-5.0310
G01 X20.5822 Y-5.0205
G01 X20.5611 Y-5.0079
G01 X20.5414 Y-4.9933
G01 X20.5232 Y-4.9768
G01 X20.5067 Y-4.9586
G01 X20.4921 Y-4.9389
G01 X20.4795 Y-4.9178
G01 X20.4690 Y-4.8957
G01 X20.4608 Y-4.8726
G01 X20.4548 Y-4.8488
G01 X20.4512 Y-4.8245
G01 X20.4500 Y-4.8000
G01 X20.4512 Y-4.7755
G01 X20.4548 Y-4.7512
G01 X20.4608 Y-4.7274
G01 X20.4690 Y-4.7043
G01 X20.4795 Y-4.6822
G01 X20.4921 Y-4.6611
G01 X20.5067 Y-4.6414
G01 X20.5232 Y-4.6232
G01 X20.5414 Y-4.6067
G01 X20.5611 Y-4.5921
G01 X20.5822 Y-4.5795
G01 X20.6043 Y-4.5690
G01 X20.6274 Y-4.5608
G01 X20.6512 Y-4.5548
G01 X20.6755 Y-4.5512
G01 X20.7000 Y-4.5500
G01 X20.7245 Y-4.5512
G01 X20.7488 Y-4.5548
G01 X20.7726 Y-4.5608
G01 X20.7957 Y-4.5690
G01 X20.8178 Y-4.5795
G01 X20.8389 Y-4.5921
G01 X20.8586 Y-4.6067
G01 X20.8768 Y-4.6232
G01 X20.8933 Y-4.6414
G01 X20.9079 Y-4.6611
G01 X20.9205 Y-4.6822
G01 X20.9310 Y-4.7043
G01 X20.9392 Y-4.7274
G01 X20.9452 Y-4.7512
G01 X20.9488 Y-4.7755
G01 X20.9500 Y-4.8000
G00 Z2.0000
G00 X23.3000 Y-11.7000
G01 F100.00
G01 Z-0.8000
G01 F200.00
G01 X23.3000 Y-11.7000
G01 X23.3000 Y-11.7000
G01 X23.3000 Y-11.7000
G01 X23.3000 Y-11.7000
G00 X23.3000 Y-11.7000
G01 F100.00
G01 Z-1.6000
G01 F200.00
G01 X23.3000 Y-11.7000
G01 X23.3000 Y-11.7000
G01 X23.3000 Y-11.7000
G01 X23.3000 Y-11.7000
G00 X23.3000 Y-11.7000
G01 F100.00
G01 Z-2.4000
G01 F200.00
G01 X23.3000 Y-11.7000
G01 X23.3000 Y-11.7000
G01 X23.3000 Y-11.7000
G01 X23.3000 Y-11.7000
G00 Z2.0000
G00 X17.2000 Y-11.7000
G01 F100.00
G01 Z-0.8000
G01 F200.00
G01 X17.1995 Y-11.7098
G01 X17.1981 Y-11.7195
G01 X17.1957 Y-11.7290
G01 X17.1924 Y-11.7383
G01 X17.1882 Y-11.7471
G01 X17.1831 Y-11.7556
G01 X17.1773 Y-11.7634
G01 X17.1707 Y-11.7707
G01 X17.1634 Y-11.7773
G01 X17.1556 Y-11.7831
G01 X17.1471 Y-11.7882
G01 X17.1383 Y-11.7924
G01 X17.1290 Y-11.7957
G01 X17.1195 Y-11.7981
G01 X17.1098 Y-11.7995
G01 X17.1000 Y-11.8000
G01 X17.0902 Y-11.7995
G01 X17.0805 Y-11.7981
G01 X17.0710 Y-11.7957
G01 X17.0617 Y-11.7924
G01 X17.0529 Y-11.7882
G01 X17.0444 Y-11.7831
G01 X17.0366 Y-11.7773
G01 X17.0293 Y-11.7707
G01 X17.0227 Y-11.7634
G01 X17.0169 Y-11.7556
G01 X17.0118 Y-11.7471
G01 X17.0076 Y-11.7383
G01 X17.0043 Y-11.7290
G01 X17.0019 Y-11.7195
G01 X17.0005 Y-11.7098
G01 X17.0000 Y-11.7000
G01 X17.0005 Y-11.6902
G01 X17.0019 Y-11.6805
G01 X17.0043 Y-11.6710
G01 X17.0076 Y-11.6617
G01 X17.0118 Y-11.6529
G01 X17.0169 Y-11.6444
G01 X17.0227 Y-11.6366
G01 X17.0293 Y-11.6293
G01 X17.0366 Y-11.6227
G01 X17.0444 Y-11.6169
G01 X17.0529 Y-11.6118
G01 X17.0617 Y-11.6076
G01 X17.0710 Y-11.6043
G01 X17.0805 Y-11.6019
G01 X17.0902 Y-11.6005
G01 X17.1000 Y-11.6000
G01 X17.1098 Y-11.6005
G01 X17.1195 Y-11.6019
G01 X17.1290 Y-11.6043
G01 X17.1383 Y-11.6076
G01 X17.1471 Y-11.6118
G01 X17.1556 Y-11.6169
G01 X17.1634 Y-11.6227
G01 X17.1707 Y-11.6293
G01 X17.1773 Y-11.6366
G01 X17.1831 Y-11.6444
G01 X17.1882 Y-11.6529
G01 X17.1924 Y-11.6617
G01 X17.1957 Y-11.6710
G01 X17.1981 Y-11.6805
G01 X17.1995 Y-11.6902
G01 X17.2000 Y-11.7000
G00 X17.2000 Y-11.7000
G01 F100.00
G01 Z-1.6000
G01 F200.00
G01 X17.1995 Y-11.7098
G01 X17.1981 Y-11.7195
G01 X17.1957 Y-11.7290
G01 X17.1924 Y-11.7383
G01 X17.1882 Y-11.7471
G01 X17.1831 Y-11.7556
G01 X17.1773 Y-11.7634
G01 X17.1707 Y-11.7707
G01 X17.1634 Y-11.7773
G01 X17.1556 Y-11.7831
G01 X17.1471 Y-11.7882
G01 X17.1383 Y-11.7924
G01 X17.1290 Y-11.7957
G01 X17.1195 Y-11.7981
G01 X17.1098 Y-11.7995
G01 X17.1000 Y-11.8000
G01 X17.0902 Y-11.7995
G01 X17.0805 Y-11.7981
G01 X17.0710 Y-11.7957
G01 X17.0617 Y-11.7924
G01 X17.0529 Y-11.7882
G01 X17.0444 Y-11.7831
G01 X17.0366 Y-11.7773
G01 X17.0293 Y-11.7707
G01 X17.0227 Y-11.7634
G01 X17.0169 Y-11.7556
G01 X17.0118 Y-11.7471
G01 X17.0076 Y-11.7383
G01 X17.0043 Y-11.7290
G01 X17.0019 Y-11.7195
G01 X17.0005 Y-11.7098
G01 X17.0000 Y-11.7000
G01 X17.0005 Y-11.6902
G01 X17.0019 Y-11.6805
G01 X17.0043 Y-11.6710
G01 X17.0076 Y-11.6617
G01 X17.0118 Y-11.6529
G01 X17.0169 Y-11.6444
G01 X17.0227 Y-11.6366
G01 X17.0293 Y-11.6293
G01 X17.0366 Y-11.6227
G01 X17.0444 Y-11.6169
G01 X17.0529 Y-11.6118
G01 X17.0617 Y-11.6076
G01 X17.0710 Y-11.6043
G01 X17.0805 Y-11.6019
G01 X17.0902 Y-11.6005
G01 X17.1000 Y-11.6000
G01 X17.1098 Y-11.6005
G01 X17.1195 Y-11.6019
G01 X17.1290 Y-11.6043
G01 X17.1383 Y-11.6076
G01 X17.1471 Y-11.6118
G01 X17.1556 Y-11.6169
G01 X17.1634 Y-11.6227
G01 X17.1707 Y-11.6293
G01 X17.1773 Y-11.6366
G01 X17.1831 Y-11.6444
G01 X17.1882 Y-11.6529
G01 X17.1924 Y-11.6617
G01 X17.1957 Y-11.6710
G01 X17.1981 Y-11.6805
G01 X17.1995 Y-11.6902
G01 X17.2000 Y-11.7000
G00 X17.2000 Y-11.7000
G01 F100.00
G01 Z-2.4000
G01 F200.00
G01 X17.1995 Y-11.7098
G01 X17.1981 Y-11.7195
G01 X17.1957 Y-11.7290
G01 X17.1924 Y-11.7383
G01 X17.1882 Y-11.7471
G01 X17.1831 Y-11.7556
G01 X17.1773 Y-11.7634
G01 X17.1707 Y-11.7707
G01 X17.1634 Y-11.7773
G01 X17.1556 Y-11.7831
G01 X17.1471 Y-11.7882
G01 X17.1383 Y-11.7924
G01 X17.1290 Y-11.7957
G01 X17.1195 Y-11.7981
G01 X17.1098 Y-11.7995
G01 X17.1000 Y-11.8000
G01 X17.0902 Y-11.7995
G01 X17.0805 Y-11.7981
G01 X17.0710 Y-11.7957
G01 X17.0617 Y-11.7924
G01 X17.0529 Y-11.7882
G01 X17.0444 Y-11.7831
G01 X17.0366 Y-11.7773
G01 X17.0293 Y-11.7707
G01 X17.0227 Y-11.7634
G01 X17.0169 Y-11.7556
G01 X17.0118 Y-11.7471
G01 X17.0076 Y-11.7383
G01 X17.0043 Y-11.7290
G01 X17.0019 Y-11.7195
G01 X17.0005 Y-11.7098
G01 X17.0000 Y-11.7000
G01 X17.0005 Y-11.6902
G01 X17.0019 Y-11.6805
G01 X17.0043 Y-11.6710
G01 X17.0076 Y-11.6617
G01 X17.0118 Y-11.6529
G01 X17.0169 Y-11.6444
G01 X17.0227 Y-11.6366
G01 X17.0293 Y-11.6293
G01 X17.0366 Y-11.6227
G01 X17.0444 Y-11.6169
G01 X17.0529 Y-11.6118
G01 X17.0617 Y-11.6076
G01 X17.0710 Y-11.6043
G01 X17.0805 Y-11.6019
G01 X17.0902 Y-11.6005
G01 X17.1000 Y-11.6000
G01 X17.1098 Y-11.6005
G01 X17.1195 Y-11.6019
G01 X17.1290 Y-11.6043
G01 X17.1383 Y-11.6076
G01 X17.1471 Y-11.6118
G01 X17.1556 Y-11.6169
G01 X17.1634 Y-11.6227
G01 X17.1707 Y-11.6293
G01 X17.1773 Y-11.6366
G01 X17.1831 Y-11.6444
G01 X17.1882 Y-11.6529
G01 X17.1924 Y-11.6617
G01 X17.1957 Y-11.6710
G01 X17.1981 Y-11.6805
G01 X17.1995 Y-11.6902
G01 X17.2000 Y-11.7000
G00 Z2.0000
G00 X12.2000 Y-11.7000
G01 F100.00
G01 Z-0.8000
G01 F200.00
G01 X12.1995 Y-11.7098
G01 X12.1981 Y-11.7195
G01 X12.1957 Y-11.7290
G01 X12.1924 Y-11.7383
G01 X12.1882 Y-11.7471
G01 X12.1831 Y-11.7556
G01 X12.1773 Y-11.7634
G01 X12.1707 Y-11.7707
G01 X12.1634 Y-11.7773
G01 X12.1556 Y-11.7831
G01 X12.1471 Y-11.7882
G01 X12.1383 Y-11.7924
G01 X12.1290 Y-11.7957
G01 X12.1195 Y-11.7981
G01 X12.1098 Y-11.7995
G01 X12.1000 Y-11.8000
G01 X12.0902 Y-11.7995
G01 X12.0805 Y-11.7981
G01 X12.0710 Y-11.7957
G01 X12.0617 Y-11.7924
G01 X12.0529 Y-11.7882
G01 X12.0444 Y-11.7831
G01 X12.0366 Y-11.7773
G01 X12.0293 Y-11.7707
G01 X12.0227 Y-11.7634
G01 X12.0169 Y-11.7556
G01 X12.0118 Y-11.7471
G01 X12.0076 Y-11.7383
G01 X12.0043 Y-11.7290
G01 X12.0019 Y-11.7195
G01 X12.0005 Y-11.7098
G01 X12.0000 Y-11.7000
G01 X12.0005 Y-11.6902
G01 X12.0019 Y-11.6805
G01 X12.0043 Y-11.6710
G01 X12.0076 Y-11.6617
G01 X12.0118 Y-11.6529
G01 X12.0169 Y-11.6444
G01 X12.0227 Y-11.6366
G01 X12.0293 Y-11.6293
G01 X12.0366 Y-11.6227
G01 X12.0444 Y-11.6169
G01 X12.0529 Y-11.6118
G01 X12.0617 Y-11.6076
G01 X12.0710 Y-11.6043
G01 X12.0805 Y-11.6019
G01 X12.0902 Y-11.6005
G01 X12.1000 Y-11.6000
G01 X12.1098 Y-11.6005
G01 X12.1195 Y-11.6019
G01 X12.1290 Y-11.6043
G01 X12.1383 Y-11.6076
G01 X12.1471 Y-11.6118
G01 X12.1556 Y-11.6169
G01 X12.1634 Y-11.6227
G01 X12.1707 Y-11.6293
G01 X12.1773 Y-11.6366
G01 X12.1831 Y-11.6444
G01 X12.1882 Y-11.6529
G01 X12.1924 Y-11.6617
G01 X12.1957 Y-11.6710
G01 X12.1981 Y-11.6805
G01 X12.1995 Y-11.6902
G01 X12.2000 Y-11.7000
G00 X12.2000 Y-11.7000
G01 F100.00
G01 Z-1.6000
G01 F200.00
G01 X12.1995 Y-11.7098
G01 X12.1981 Y-11.7195
G01 X12.1957 Y-11.7290
G01 X12.1924 Y-11.7383
G01 X12.1882 Y-11.7471
G01 X12.1831 Y-11.7556
G01 X12.1773 Y-11.7634
G01 X12.1707 Y-11.7707
G01 X12.1634 Y-11.7773
G01 X12.1556 Y-11.7831
G01 X12.1471 Y-11.7882
G01 X12.1383 Y-11.7924
G01 X12.1290 Y-11.7957
G01 X12.1195 Y-11.7981
G01 X12.1098 Y-11.7995
G01 X12.1000 Y-11.8000
G01 X12.0902 Y-11.7995
G01 X12.0805 Y-11.7981
G01 X12.0710 Y-11.7957
G01 X12.0617 Y-11.7924
G01 X12.0529 Y-11.7882
G01 X12.0444 Y-11.7831
G01 X12.0366 Y-11.7773
G01 X12.0293 Y-11.7707
G01 X12.0227 Y-11.7634
G01 X12.0169 Y-11.7556
G01 X12.0118 Y-11.7471
G01 X12.0076 Y-11.7383
G01 X12.0043 Y-11.7290
G01 X12.0019 Y-11.7195
G01 X12.0005 Y-11.7098
G01 X12.0000 Y-11.7000
G01 X12.0005 Y-11.6902
G01 X12.0019 Y-11.6805
G01 X12.0043 Y-11.6710
G01 X12.0076 Y-11.6617
G01 X12.0118 Y-11.6529
G01 X12.0169 Y-11.6444
G01 X12.0227 Y-11.6366
G01 X12.0293 Y-11.6293
G01 X12.0366 Y-11.6227
G01 X12.0444 Y-11.6169
G01 X12.0529 Y-11.6118
G01 X12.0617 Y-11.6076
G01 X12.0710 Y-11.6043
G01 X12.0805 Y-11.6019
G01 X12.0902 Y-11.6005
G01 X12.1000 Y-11.6000
G01 X12.1098 Y-11.6005
G01 X12.1195 Y-11.6019
G01 X12.1290 Y-11.6043
G01 X12.1383 Y-11.6076
G01 X12.1471 Y-11.6118
G01 X12.1556 Y-11.6169
G01 X12.1634 Y-11.6227
G01 X12.1707 Y-11.6293
G01 X12.1773 Y-11.6366
G01 X12.1831 Y-11.6444
G01 X12.1882 Y-11.6529
G01 X12.1924 Y-11.6617
G01 X12.1957 Y-11.6710
G01 X12.1981 Y-11.6805
G01 X12.1995 Y-11.6902
G01 X12.2000 Y-11.7000
G00 X12.2000 Y-11.7000
G01 F100.00
G01 Z-2.4000
G01 F200.00
G01 X12.1995 Y-11.7098
G01 X12.1981 Y-11.7195
G01 X12.1957 Y-11.7290
G01 X12.1924 Y-11.7383
G01 X12.1882 Y-11.7471
G01 X12.1831 Y-11.7556
G01 X12.1773 Y-11.7634
G01 X12.1707 Y-11.7707
G01 X12.1634 Y-11.7773
G01 X12.1556 Y-11.7831
G01 X12.1471 Y-11.7882
G01 X12.1383 Y-11.7924
G01 X12.1290 Y-11.7957
G01 X12.1195 Y-11.7981
G01 X12.1098 Y-11.7995
G01 X12.1000 Y-11.8000
G01 X12.0902 Y-11.7995
G01 X12.0805 Y-11.7981
G01 X12.0710 Y-11.7957
G01 X12.0617 Y-11.7924
G01 X12.0529 Y-11.7882
G01 X12.0444 Y-11.7831
G01 X12.0366 Y-11.7773
G01 X12.0293 Y-11.7707
G01 X12.0227 Y-11.7634
G01 X12.0169 Y-11.7556
G01 X12.0118 Y-11.7471
G01 X12.0076 Y-11.7383
G01 X12.0043 Y-11.7290
G01 X12.0019 Y-11.7195
G01 X12.0005 Y-11.7098
G01 X12.0000 Y-11.7000
G01 X12.0005 Y-11.6902
G01 X12.0019 Y-11.6805
G01 X12.0043 Y-11.6710
G01 X12.0076 Y-11.6617
G01 X12.0118 Y-11.6529
G01 X12.0169 Y-11.6444
G01 X12.0227 Y-11.6366
G01 X12.0293 Y-11.6293
G01 X12.0366 Y-11.6227
G01 X12.0444 Y-11.6169
G01 X12.0529 Y-11.6118
G01 X12.0617 Y-11.6076
G01 X12.0710 Y-11.6043
G01 X12.0805 Y-11.6019
G01 X12.0902 Y-11.6005
G01 X12.1000 Y-11.6000
G01 X12.1098 Y-11.6005
G01 X12.1195 Y-11.6019
G01 X12.1290 Y-11.6043
G01 X12.1383 Y-11.6076
G01 X12.1471 Y-11.6118
G01 X12.1556 Y-11.6169
G01 X12.1634 Y-11.6227
G01 X12.1707 Y-11.6293
G01 X12.1773 Y-11.6366
G01 X12.1831 Y-11.6444
G01 X12.1882 Y-11.6529
G01 X12.1924 Y-11.6617
G01 X12.1957 Y-11.6710
G01 X12.1981 Y-11.6805
G01 X12.1995 Y-11.6902
G01 X12.2000 Y-11.7000
G00 Z2.0000
G00 X5.4500 Y-13.4000
G01 F100.00
G01 Z-0.8000
G01 F200.00
G01 X5.4488 Y-13.4245
G01 X5.4452 Y-13.4488
G01 X5.4392 Y-13.4726
G01 X5.4310 Y-13.4957
G01 X5.4205 Y-13.5178
G01 X5.4079 Y-13.5389
G01 X5.3933 Y-13.5586
G01 X5.3768 Y-13.5768
G01 X5.3586 Y-13.5933
G01 X5.3389 Y-13.6079
G01 X5.3178 Y-13.6205
G01 X5.2957 Y-13.6310
G01 X5.2726 Y-13.6392
G01 X5.2488 Y-13.6452
G01 X5.2245 Y-13.6488
G01 X5.2000 Y-13.6500
G01 X5.1755 Y-13.6488
G01 X5.1512 Y-13.6452
G01 X5.1274 Y-13.6392
G01 X5.1043 Y-13.6310
G01 X5.0822 Y-13.6205
G01 X5.0611 Y-13.6079
G01 X5.0414 Y-13.5933
G01 X5.0232 Y-13.5768
G01 X5.0067 Y-13.5586
G01 X4.9921 Y-13.5389
G01 X4.9795 Y-13.5178
G01 X4.9690 Y-13.4957
G01 X4.9608 Y-13.4726
G01 X4.9548 Y-13.4488
G01 X4.9512 Y-13.4245
G01 X4.9500 Y-13.4000
G01 X4.9512 Y-13.3755
G01 X4.9548 Y-13.3512
G01 X4.9608 Y-13.3274
G01 X4.9690 Y-13.3043
G01 X4.9795 Y-13.2822
G01 X4.9921 Y-13.2611
G01 X5.0067 Y-13.2414
G01 X5.0232 Y-13.2232
G01 X5.0414 Y-13.2067
G01 X5.0611 Y-13.1921
G01 X5.0822 Y-13.1795
G01 X5.1043 Y-13.1690
G01 X5.1274 Y-13.1608
G01 X5.1512 Y-13.1548
G01 X5.1755 Y-13.1512
G01 X5.2000 Y-13.1500
G01 X5.2245 Y-13.1512
G01 X5.2488 Y-13.1548
G01 X5.2726 Y-13.1608
G01 X5.2957 Y-13.1690
G01 X5.3178 Y-13.1795
G01 X5.3389 Y-13.1921
G01 X5.3586 Y-13.2067
G01 X5.3768 Y-13.2232
G01 X5.3933 Y-13.2414
G01 X5.4079 Y-13.2611
G01 X5.4205 Y-13.2822
G01 X5.4310 Y-13.3043
G01 X5.4392 Y-13.3274
G01 X5.4452 Y-13.3512
G01 X5.4488 Y-13.3755
G01 X5.4500 Y-13.4000
G00 X5.4500 Y-13.4000
G01 F100.00
G01 Z-1.6000
G01 F200.00
G01 X5.4488 Y-13.4245
G01 X5.4452 Y-13.4488
G01 X5.4392 Y-13.4726
G01 X5.4310 Y-13.4957
G01 X5.4205 Y-13.5178
G01 X5.4079 Y-13.5389
G01 X5.3933 Y-13.5586
G01 X5.3768 Y-13.5768
G01 X5.3586 Y-13.5933
G01 X5.3389 Y-13.6079
G01 X5.3178 Y-13.6205
G01 X5.2957 Y-13.6310
G01 X5.2726 Y-13.6392
G01 X5.2488 Y-13.6452
G01 X5.2245 Y-13.6488
G01 X5.2000 Y-13.6500
G01 X5.1755 Y-13.6488
G01 X5.1512 Y-13.6452
G01 X5.1274 Y-13.6392
G01 X5.1043 Y-13.6310
G01 X5.0822 Y-13.6205
G01 X5.0611 Y-13.6079
G01 X5.0414 Y-13.5933
G01 X5.0232 Y-13.5768
G01 X5.0067 Y-13.5586
G01 X4.9921 Y-13.5389
G01 X4.9795 Y-13.5178
G01 X4.9690 Y-13.4957
G01 X4.9608 Y-13.4726
G01 X4.9548 Y-13.4488
G01 X4.9512 Y-13.4245
G01 X4.9500 Y-13.4000
G01 X4.9512 Y-13.3755
G01 X4.9548 Y-13.3512
G01 X4.9608 Y-13.3274
G01 X4.9690 Y-13.3043
G01 X4.9795 Y-13.2822
G01 X4.9921 Y-13.2611
G01 X5.0067 Y-13.2414
G01 X5.0232 Y-13.2232
G01 X5.0414 Y-13.2067
G01 X5.0611 Y-13.1921
G01 X5.0822 Y-13.1795
G01 X5.1043 Y-13.1690
G01 X5.1274 Y-13.1608
G01 X5.1512 Y-13.1548
G01 X5.1755 Y-13.1512
G01 X5.2000 Y-13.1500
G01 X5.2245 Y-13.1512
G01 X5.2488 Y-13.1548
G01 X5.2726 Y-13.1608
G01 X5.2957 Y-13.1690
G01 X5.3178 Y-13.1795
G01 X5.3389 Y-13.1921
G01 X5.3586 Y-13.2067
G01 X5.3768 Y-13.2232
G01 X5.3933 Y-13.2414
G01 X5.4079 Y-13.2611
G01 X5.4205 Y-13.2822
G01 X5.4310 Y-13.3043
G01 X5.4392 Y-13.3274
G01 X5.4452 Y-13.3512
G01 X5.4488 Y-13.3755
G01 X5.4500 Y-13.4000
G00 X5.4500 Y-13.4000
G01 F100.00
G01 Z-2.4000
G01 F200.00
G01 X5.4488 Y-13.4245
G01 X5.4452 Y-13.4488
G01 X5.4392 Y-13.4726
G01 X5.4310 Y-13.4957
G01 X5.4205 Y-13.5178
G01 X5.4079 Y-13.5389
G01 X5.3933 Y-13.5586
G01 X5.3768 Y-13.5768
G01 X5.3586 Y-13.5933
G01 X5.3389 Y-13.6079
G01 X5.3178 Y-13.6205
G01 X5.2957 Y-13.6310
G01 X5.2726 Y-13.6392
G01 X5.2488 Y-13.6452
G01 X5.2245 Y-13.6488
G01 X5.2000 Y-13.6500
G01 X5.1755 Y-13.6488
G01 X5.1512 Y-13.6452
G01 X5.1274 Y-13.6392
G01 X5.1043 Y-13.6310
G01 X5.0822 Y-13.6205
G01 X5.0611 Y-13.6079
G01 X5.0414 Y-13.5933
G01 X5.0232 Y-13.5768
G01 X5.0067 Y-13.5586
G01 X4.9921 Y-13.5389
G01 X4.9795 Y-13.5178
G01 X4.9690 Y-13.4957
G01 X4.9608 Y-13.4726
G01 X4.9548 Y-13.4488
G01 X4.9512 Y-13.4245
G01 X4.9500 Y-13.4000
G01 X4.9512 Y-13.3755
G01 X4.9548 Y-13.3512
G01 X4.9608 Y-13.3274
G01 X4.9690 Y-13.3043
G01 X4.9795 Y-13.2822
G01 X4.9921 Y-13.2611
G01 X5.0067 Y-13.2414
G01 X5.0232 Y-13.2232
G01 X5.0414 Y-13.2067
G01 X5.0611 Y-13.1921
G01 X5.0822 Y-13.1795
G01 X5.1043 Y-13.1690
G01 X5.1274 Y-13.1608
G01 X5.1512 Y-13.1548
G01 X5.1755 Y-13.1512
G01 X5.2000 Y-13.1500
G01 X5.2245 Y-13.1512
G01 X5.2488 Y-13.1548
G01 X5.2726 Y-13.1608
G01 X5.2957 Y-13.1690
G01 X5.3178 Y-13.1795
G01 X5.3389 Y-13.1921
G01 X5.3586 Y-13.2067
G01 X5.3768 Y-13.2232
G01 X5.3933 Y-13.2414
G01 X5.4079 Y-13.2611
G01 X5.4205 Y-13.2822
G01 X5.4310 Y-13.3043
G01 X5.4392 Y-13.3274
G01 X5.4452 Y-13.3512
G01 X5.4488 Y-13.3755
G01 X5.4500 Y-13.4000
G00 Z2.0000
G00 X5.4500 Y-18.4000
G01 F100.00
G01 Z-0.8000
G01 F200.00
G01 X5.4488 Y-18.4245
G01 X5.4452 Y-18.4488
G01 X5.4392 Y-18.4726
G01 X5.4310 Y-18.4957
G01 X5.4205 Y-18.5178
G01 X5.4079 Y-18.5389
G01 X5.3933 Y-18.5586
G01 X5.3768 Y-18.5768
G01 X5.3586 Y-18.5933
G01 X5.3389 Y-18.6079
G01 X5.3178 Y-18.6205
G01 X5.2957 Y-18.6310
G01 X5.2726 Y-18.6392
G01 X5.2488 Y-18.6452
G01 X5.2245 Y-18.6488
G01 X5.2000 Y-18.6500
G01 X5.1755 Y-18.6488
G01 X5.1512 Y-18.6452
G01 X5.1274 Y-18.6392
G01 X5.1043 Y-18.6310
G01 X5.0822 Y-18.6205
G01 X5.0611 Y-18.6079
G01 X5.0414 Y-18.5933
G01 X5.0232 Y-18.5768
G01 X5.0067 Y-18.5586
G01 X4.9921 Y-18.5389
G01 X4.9795 Y-18.5178
G01 X4.9690 Y-18.4957
G01 X4.9608 Y-18.4726
G01 X4.9548 Y-18.4488
G01 X4.9512 Y-18.4245
G01 X4.9500 Y-18.4000
G01 X4.9512 Y-18.3755
G01 X4.9548 Y-18.3512
G01 X4.9608 Y-18.3274
G01 X4.9690 Y-18.3043
G01 X4.9795 Y-18.2822
G01 X4.9921 Y-18.2611
G01 X5.0067 Y-18.2414
G01 X5.0232 Y-18.2232
G01 X5.0414 Y-18.2067
G01 X5.0611 Y-18.1921
G01 X5.0822 Y-18.1795
G01 X5.1043 Y-18.1690
G01 X5.1274 Y-18.1608
G01 X5.1512 Y-18.1548
G01 X5.1755 Y-18.1512
G01 X5.2000 Y-18.1500
G01 X5.2245 Y-18.1512
G01 X5.2488 Y-18.1548
G01 X5.2726 Y-18.1608
G01 X5.2957 Y-18.1690
G01 X5.3178 Y-18.1795
G01 X5.3389 Y-18.1921
G01 X5.3586 Y-18.2067
G01 X5.3768 Y-18.2232
G01 X5.3933 Y-18.2414
G01 X5.4079 Y-18.2611
G01 X5.4205 Y-18.2822
G01 X5.4310 Y-18.3043
G01 X5.4392 Y-18.3274
G01 X5.4452 Y-18.3512
G01 X5.4488 Y-18.3755
G01 X5.4500 Y-18.4000
G00 X5.4500 Y-18.4000
G01 F100.00
G01 Z-1.6000
G01 F200.00
G01 X5.4488 Y-18.4245
G01 X5.4452 Y-18.4488
G01 X5.4392 Y-18.4726
G01 X5.4310 Y-18.4957
G01 X5.4205 Y-18.5178
G01 X5.4079 Y-18.5389
G01 X5.3933 Y-18.5586
G01 X5.3768 Y-18.5768
G01 X5.3586 Y-18.5933
G01 X5.3389 Y-18.6079
G01 X5.3178 Y-18.6205
G01 X5.2957 Y-18.6310
G01 X5.2726 Y-18.6392
G01 X5.2488 Y-18.6452
G01 X5.2245 Y-18.6488
G01 X5.2000 Y-18.6500
G01 X5.1755 Y-18.6488
G01 X5.1512 Y-18.6452
G01 X5.1274 Y-18.6392
G01 X5.1043 Y-18.6310
G01 X5.0822 Y-18.6205
G01 X5.0611 Y-18.6079
G01 X5.0414 Y-18.5933
G01 X5.0232 Y-18.5768
G01 X5.0067 Y-18.5586
G01 X4.9921 Y-18.5389
G01 X4.9795 Y-18.5178
G01 X4.9690 Y-18.4957
G01 X4.9608 Y-18.4726
G01 X4.9548 Y-18.4488
G01 X4.9512 Y-18.4245
G01 X4.9500 Y-18.4000
G01 X4.9512 Y-18.3755
G01 X4.9548 Y-18.3512
G01 X4.9608 Y-18.3274
G01 X4.9690 Y-18.3043
G01 X4.9795 Y-18.2822
G01 X4.9921 Y-18.2611
G01 X5.0067 Y-18.2414
G01 X5.0232 Y-18.2232
G01 X5.0414 Y-18.2067
G01 X5.0611 Y-18.1921
G01 X5.0822 Y-18.1795
G01 X5.1043 Y-18.1690
G01 X5.1274 Y-18.1608
G01 X5.1512 Y-18.1548
G01 X5.1755 Y-18.1512
G01 X5.2000 Y-18.1500
G01 X5.2245 Y-18.1512
G01 X5.2488 Y-18.1548
G01 X5.2726 Y-18.1608
G01 X5.2957 Y-18.1690
G01 X5.3178 Y-18.1795
G01 X5.3389 Y-18.1921
G01 X5.3586 Y-18.2067
G01 X5.3768 Y-18.2232
G01 X5.3933 Y-18.2414
G01 X5.4079 Y-18.2611
G01 X5.4205 Y-18.2822
G01 X5.4310 Y-18.3043
G01 X5.4392 Y-18.3274
G01 X5.4452 Y-18.3512
G01 X5.4488 Y-18.3755
G01 X5.4500 Y-18.4000
G00 X5.4500 Y-18.4000
G01 F100.00
G01 Z-2.4000
G01 F200.00
G01 X5.4488 Y-18.4245
G01 X5.4452 Y-18.4488
G01 X5.4392 Y-18.4726
G01 X5.4310 Y-18.4957
G01 X5.4205 Y-18.5178
G01 X5.4079 Y-18.5389
G01 X5.3933 Y-18.5586
G01 X5.3768 Y-18.5768
G01 X5.3586 Y-18.5933
G01 X5.3389 Y-18.6079
G01 X5.3178 Y-18.6205
G01 X5.2957 Y-18.6310
G01 X5.2726 Y-18.6392
G01 X5.2488 Y-18.6452
G01 X5.2245 Y-18.6488
G01 X5.2000 Y-18.6500
G01 X5.1755 Y-18.6488
G01 X5.1512 Y-18.6452
G01 X5.1274 Y-18.6392
G01 X5.1043 Y-18.6310
G01 X5.0822 Y-18.6205
G01 X5.0611 Y-18.6079
G01 X5.0414 Y-18.5933
G01 X5.0232 Y-18.5768
G01 X5.0067 Y-18.5586
G01 X4.9921 Y-18.5389
G01 X4.9795 Y-18.5178
G01 X4.9690 Y-18.4957
G01 X4.9608 Y-18.4726
G01 X4.9548 Y-18.4488
G01 X4.9512 Y-18.4245
G01 X4.9500 Y-18.4000
G01 X4.9512 Y-18.3755
G01 X4.9548 Y-18.3512
G01 X4.9608 Y-18.3274
G01 X4.9690 Y-18.3043
G01 X4.9795 Y-18.2822
G01 X4.9921 Y-18.2611
G01 X5.0067 Y-18.2414
G01 X5.0232 Y-18.2232
G01 X5.0414 Y-18.2067
G01 X5.0611 Y-18.1921
G01 X5.0822 Y-18.1795
G01 X5.1043 Y-18.1690
G01 X5.1274 Y-18.1608
G01 X5.1512 Y-18.1548
G01 X5.1755 Y-18.1512
G01 X5.2000 Y-18.1500
G01 X5.2245 Y-18.1512
G01 X5.2488 Y-18.1548
G01 X5.2726 Y-18.1608
G01 X5.2957 Y-18.1690
G01 X5.3178 Y-18.1795
G01 X5.3389 Y-18.1921
G01 X5.3586 Y-18.2067
G01 X5.3768 Y-18.2232
G01 X5.3933 Y-18.2414
G01 X5.4079 Y-18.2611
G01 X5.4205 Y-18.2822
G01 X5.4310 Y-18.3043
G01 X5.4392 Y-18.3274
G01 X5.4452 Y-18.3512
G01 X5.4488 Y-18.3755
G01 X5.4500 Y-18.4000
G00 Z2.0000
G00 X3.5000 Y-21.5000
G01 F100.00
G01 Z-0.8000
G01 F200.00
G01 X3.5000 Y-21.5000
G01 X3.5000 Y-21.5000
G01 X3.5000 Y-21.5000
G01 X3.5000 Y-21.5000
G00 X3.5000 Y-21.5000
G01 F100.00
G01 Z-1.6000
G01 F200.00
G01 X3.5000 Y-21.5000
G01 X3.5000 Y-21.5000
G01 X3.5000 Y-21.5000
G01 X3.5000 Y-21.5000
G00 X3.5000 Y-21.5000
G01 F100.00
G01 Z-2.4000
G01 F200.00
G01 X3.5000 Y-21.5000
G01 X3.5000 Y-21.5000
G01 X3.5000 Y-21.5000
G01 X3.5000 Y-21.5000
G00 Z2.0000
G00 X5.3000 Y-27.2000
G01 F100.00
G01 Z-0.8000
G01 F200.00
G01 X5.2942 Y-27.3176
G01 X5.2769 Y-27.4341
G01 X5.2483 Y-27.5483
G01 X5.2087 Y-27.6592
G01 X5.1583 Y-27.7657
G01 X5.0978 Y-27.8667
G01 X5.0276 Y-27.9613
G01 X4.9485 Y-28.0485
G01 X4.8613 Y-28.1276
G01 X4.7667 Y-28.1978
G01 X4.6657 Y-28.2583
G01 X4.5592 Y-28.3087
G01 X4.4483 Y-28.3483
G01 X4.3341 Y-28.3769
G01 X4.2176 Y-28.3942
G01 X4.1000 Y-28.4000
G01 X3.9824 Y-28.3942
G01 X3.8659 Y-28.3769
G01 X3.7517 Y-28.3483
G01 X3.6408 Y-28.3087
G01 X3.5343 Y-28.2583
G01 X3.4333 Y-28.1978
G01 X3.3387 Y-28.1276
G01 X3.2515 Y-28.0485
G01 X3.1724 Y-27.9613
G01 X3.1022 Y-27.8667
G01 X3.0417 Y-27.7657
G01 X2.9913 Y-27.6592
G01 X2.9517 Y-27.5483
G01 X2.9231 Y-27.4341
G01 X2.9058 Y-27.3176
G01 X2.9000 Y-27.2000
G01 X2.9058 Y-27.0824
G01 X2.9231 Y-26.9659
G01 X2.9517 Y-26.8517
G01 X2.9913 Y-26.7408
G01 X3.0417 Y-26.6343
G01 X3.1022 Y-26.5333
G01 X3.1724 Y-26.4387
G01 X3.2515 Y-26.3515
G01 X3.3387 Y-26.2724
G01 X3.4333 Y-26.2022
G01 X3.5343 Y-26.1417
G01 X3.6408 Y-26.0913
G01 X3.7517 Y-26.0517
G01 X3.8659 Y-26.0231
G01 X3.9824 Y-26.0058
G01 X4.1000 Y-26.0000
G01 X4.2176 Y-26.0058
G01 X4.3341 Y-26.0231
G01 X4.4483 Y-26.0517
G01 X4.5592 Y-26.0913
G01 X4.6657 Y-26.1417
G01 X4.7667 Y-26.2022
G01 X4.8613 Y-26.2724
G01 X4.9485 Y-26.3515
G01 X5.0276 Y-26.4387
G01 X5.0978 Y-26.5333
G01 X5.1583 Y-26.6343
G01 X5.2087 Y-26.7408
G01 X5.2483 Y-26.8517
G01 X5.2769 Y-26.9659
G01 X5.2942 Y-27.0824
G01 X5.3000 Y-27.2000
G00 X5.3000 Y-27.2000
G01 F100.00
G01 Z-1.6000
G01 F200.00
G01 X5.2942 Y-27.3176
G01 X5.2769 Y-27.4341
G01 X5.2483 Y-27.5483
G01 X5.2087 Y-27.6592
G01 X5.1583 Y-27.7657
G01 X5.0978 Y-27.8667
G01 X5.0276 Y-27.9613
G01 X4.9485 Y-28.0485
G01 X4.8613 Y-28.1276
G01 X4.7667 Y-28.1978
G01 X4.6657 Y-28.2583
G01 X4.5592 Y-28.3087
G01 X4.4483 Y-28.3483
G01 X4.3341 Y-28.3769
G01 X4.2176 Y-28.3942
G01 X4.1000 Y-28.4000
G01 X3.9824 Y-28.3942
G01 X3.8659 Y-28.3769
G01 X3.7517 Y-28.3483
G01 X3.6408 Y-28.3087
G01 X3.5343 Y-28.2583
G01 X3.4333 Y-28.1978
G01 X3.3387 Y-28.1276
G01 X3.2515 Y-28.0485
G01 X3.1724 Y-27.9613
G01 X3.1022 Y-27.8667
G01 X3.0417 Y-27.7657
G01 X2.9913 Y-27.6592
G01 X2.9517 Y-27.5483
G01 X2.9231 Y-27.4341
G01 X2.9058 Y-27.3176
G01 X2.9000 Y-27.2000
G01 X2.9058 Y-27.0824
G01 X2.9231 Y-26.9659
G01 X2.9517 Y-26.8517
G01 X2.9913 Y-26.7408
G01 X3.0417 Y-26.6343
G01 X3.1022 Y-26.5333
G01 X3.1724 Y-26.4387
G01 X3.2515 Y-26.3515
G01 X3.3387 Y-26.2724
G01 X3.4333 Y-26.2022
G01 X3.5343 Y-26.1417
G01 X3.6408 Y-26.0913
G01 X3.7517 Y-26.0517
G01 X3.8659 Y-26.0231
G01 X3.9824 Y-26.0058
G01 X4.1000 Y-26.0000
G01 X4.2176 Y-26.0058
G01 X4.3341 Y-26.0231
G01 X4.4483 Y-26.0517
G01 X4.5592 Y-26.0913
G01 X4.6657 Y-26.1417
G01 X4.7667 Y-26.2022
G01 X4.8613 Y-26.2724
G01 X4.9485 Y-26.3515
G01 X5.0276 Y-26.4387
G01 X5.0978 Y-26.5333
G01 X5.1583 Y-26.6343
G01 X5.2087 Y-26.7408
G01 X5.2483 Y-26.8517
G01 X5.2769 Y-26.9659
G01 X5.2942 Y-27.0824
G01 X5.3000 Y-27.2000
G00 X5.3000 Y-27.2000
G01 F100.00
G01 Z-2.4000
G01 F200.00
G01 X5.2942 Y-27.3176
G01 X5.2769 Y-27.4341
G01 X5.2483 Y-27.5483
G01 X5.2087 Y-27.6592
G01 X5.1583 Y-27.7657
G01 X5.0978 Y-27.8667
G01 X5.0276 Y-27.9613
G01 X4.9485 Y-28.0485
G01 X4.8613 Y-28.1276
G01 X4.7667 Y-28.1978
G01 X4.6657 Y-28.2583
G01 X4.5592 Y-28.3087
G01 X4.4483 Y-28.3483
G01 X4.3341 Y-28.3769
G01 X4.2176 Y-28.3942
G01 X4.1000 Y-28.4000
G01 X3.9824 Y-28.3942
G01 X3.8659 Y-28.3769
G01 X3.7517 Y-28.3483
G01 X3.6408 Y-28.3087
G01 X3.5343 Y-28.2583
G01 X3.4333 Y-28.1978
G01 X3.3387 Y-28.1276
G01 X3.2515 Y-28.0485
G01 X3.1724 Y-27.9613
G01 X3.1022 Y-27.8667
G01 X3.0417 Y-27.7657
G01 X2.9913 Y-27.6592
G01 X2.9517 Y-27.5483
G01 X2.9231 Y-27.4341
G01 X2.9058 Y-27.3176
G01 X2.9000 Y-27.2000
G01 X2.9058 Y-27.0824
G01 X2.9231 Y-26.9659
G01 X2.9517 Y-26.8517
G01 X2.9913 Y-26.7408
G01 X3.0417 Y-26.6343
G01 X3.1022 Y-26.5333
G01 X3.1724 Y-26.4387
G01 X3.2515 Y-26.3515
G01 X3.3387 Y-26.2724
G01 X3.4333 Y-26.2022
G01 X3.5343 Y-26.1417
G01 X3.6408 Y-26.0913
G01 X3.7517 Y-26.0517
G01 X3.8659 Y-26.0231
G01 X3.9824 Y-26.0058
G01 X4.1000 Y-26.0000
G01 X4.2176 Y-26.0058
G01 X4.3341 Y-26.0231
G01 X4.4483 Y-26.0517
G01 X4.5592 Y-26.0913
G01 X4.6657 Y-26.1417
G01 X4.7667 Y-26.2022
G01 X4.8613 Y-26.2724
G01 X4.9485 Y-26.3515
G01 X5.0276 Y-26.4387
G01 X5.0978 Y-26.5333
G01 X5.1583 Y-26.6343
G01 X5.2087 Y-26.7408
G01 X5.2483 Y-26.8517
G01 X5.2769 Y-26.9659
G01 X5.2942 Y-27.0824
G01 X5.3000 Y-27.2000
G00 Z2.0000
G00 X31.5320 Y-11.7000
G01 F100.00
G01 Z-0.8000
G01 F200.00
G01 X31.5315 Y-11.7098
G01 X31.5301 Y-11.7195
G01 X31.5277 Y-11.7290
G01 X31.5244 Y-11.7383
G01 X31.5202 Y-11.7471
G01 X31.5151 Y-11.7556
G01 X31.5093 Y-11.7634
G01 X31.5027 Y-11.7707
G01 X31.4954 Y-11.7773
G01 X31.4876 Y-11.7831
G01 X31.4791 Y-11.7882
G01 X31.4703 Y-11.7924
G01 X31.4610 Y-11.7957
G01 X31.4515 Y-11.7981
G01 X31.4418 Y-11.7995
G01 X31.4320 Y-11.8000
G01 X31.4222 Y-11.7995
G01 X31.4125 Y-11.7981
G01 X31.4030 Y-11.7957
G01 X31.3937 Y-11.7924
G01 X31.3849 Y-11.7882
G01 X31.3764 Y-11.7831
G01 X31.3686 Y-11.7773
G01 X31.3613 Y-11.7707
G01 X31.3547 Y-11.7634
G01 X31.3489 Y-11.7556
G01 X31.3438 Y-11.7471
G01 X31.3396 Y-11.7383
G01 X31.3363 Y-11.7290
G01 X31.3339 Y-11.7195
G01 X31.3325 Y-11.7098
G01 X31.3320 Y-11.7000
G01 X31.3325 Y-11.6902
G01 X31.3339 Y-11.6805
G01 X31.3363 Y-11.6710
G01 X31.3396 Y-11.6617
G01 X31.3438 Y-11.6529
G01 X31.3489 Y-11.6444
G01 X31.3547 Y-11.6366
G01 X31.3613 Y-11.6293
G01 X31.3686 Y-11.6227
G01 X31.3764 Y-11.6169
G01 X31.3849 Y-11.6118
G01 X31.3937 Y-11.6076
G01 X31.4030 Y-11.6043
G01 X31.4125 Y-11.6019
G01 X31.4222 Y-11.6005
G01 X31.4320 Y-11.6000
G01 X31.4418 Y-11.6005
G01 X31.4515 Y-11.6019
G01 X31.4610 Y-11.6043
G01 X31.4703 Y-11.6076
G01 X31.4791 Y-11.6118
G01 X31.4876 Y-11.6169
G01 X31.4954 Y-11.6227
G01 X31.5027 Y-11.6293
G01 X31.5093 Y-11.6366
G01 X31.5151 Y-11.6444
G01 X31.5202 Y-11.6529
G01 X31.5244 Y-11.6617
G01 X31.5277 Y-11.6710
G01 X31.5301 Y-11.6805
G01 X31.5315 Y-11.6902
G01 X31.5320 Y-11.7000
G00 X31.5320 Y-11.7000
G01 F100.00
G01 Z-1.6000
G01 F200.00
G01 X31.5315 Y-11.7098
G01 X31.5301 Y-11.7195
G01 X31.5277 Y-11.7290
G01 X31.5244 Y-11.7383
G01 X31.5202 Y-11.7471
G01 X31.5151 Y-11.7556
G01 X31.5093 Y-11.7634
G01 X31.5027 Y-11.7707
G01 X31.4954 Y-11.7773
G01 X31.4876 Y-11.7831
G01 X31.4791 Y-11.7882
G01 X31.4703 Y-11.7924
G01 X31.4610 Y-11.7957
G01 X31.4515 Y-11.7981
G01 X31.4418 Y-11.7995
G01 X31.4320 Y-11.8000
G01 X31.4222 Y-11.7995
G01 X31.4125 Y-11.7981
G01 X31.4030 Y-11.7957
G01 X31.3937 Y-11.7924
G01 X31.3849 Y-11.7882
G01 X31.3764 Y-11.7831
G01 X31.3686 Y-11.7773
G01 X31.3613 Y-11.7707
G01 X31.3547 Y-11.7634
G01 X31.3489 Y-11.7556
G01 X31.3438 Y-11.7471
G01 X31.3396 Y-11.7383
G01 X31.3363 Y-11.7290
G01 X31.3339 Y-11.7195
G01 X31.3325 Y-11.7098
G01 X31.3320 Y-11.7000
G01 X31.3325 Y-11.6902
G01 X31.3339 Y-11.6805
G01 X31.3363 Y-11.6710
G01 X31.3396 Y-11.6617
G01 X31.3438 Y-11.6529
G01 X31.3489 Y-11.6444
G01 X31.3547 Y-11.6366
G01 X31.3613 Y-11.6293
G01 X31.3686 Y-11.6227
G01 X31.3764 Y-11.6169
G01 X31.3849 Y-11.6118
G01 X31.3937 Y-11.6076
G01 X31.4030 Y-11.6043
G01 X31.4125 Y-11.6019
G01 X31.4222 Y-11.6005
G01 X31.4320 Y-11.6000
G01 X31.4418 Y-11.6005
G01 X31.4515 Y-11.6019
G01 X31.4610 Y-11.6043
G01 X31.4703 Y-11.6076
G01 X31.4791 Y-11.6118
G01 X31.4876 Y-11.6169
G01 X31.4954 Y-11.6227
G01 X31.5027 Y-11.6293
G01 X31.5093 Y-11.6366
G01 X31.5151 Y-11.6444
G01 X31.5202 Y-11.6529
G01 X31.5244 Y-11.6617
G01 X31.5277 Y-11.6710
G01 X31.5301 Y-11.6805
G01 X31.5315 Y-11.6902
G01 X31.5320 Y-11.7000
G00 X31.5320 Y-11.7000
G01 F100.00
G01 Z-2.4000
G01 F200.00
G01 X31.5315 Y-11.7098
G01 X31.5301 Y-11.7195
G01 X31.5277 Y-11.7290
G01 X31.5244 Y-11.7383
G01 X31.5202 Y-11.7471
G01 X31.5151 Y-11.7556
G01 X31.5093 Y-11.7634
G01 X31.5027 Y-11.7707
G01 X31.4954 Y-11.7773
G01 X31.4876 Y-11.7831
G01 X31.4791 Y-11.7882
G01 X31.4703 Y-11.7924
G01 X31.4610 Y-11.7957
G01 X31.4515 Y-11.7981
G01 X31.4418 Y-11.7995
G01 X31.4320 Y-11.8000
G01 X31.4222 Y-11.7995
G01 X31.4125 Y-11.7981
G01 X31.4030 Y-11.7957
G01 X31.3937 Y-11.7924
G01 X31.3849 Y-11.7882
G01 X31.3764 Y-11.7831
G01 X31.3686 Y-11.7773
G01 X31.3613 Y-11.7707
G01 X31.3547 Y-11.7634
G01 X31.3489 Y-11.7556
G01 X31.3438 Y-11.7471
G01 X31.3396 Y-11.7383
G01 X31.3363 Y-11.7290
G01 X31.3339 Y-11.7195
G01 X31.3325 Y-11.7098
G01 X31.3320 Y-11.7000
G01 X31.3325 Y-11.6902
G01 X31.3339 Y-11.6805
G01 X31.3363 Y-11.6710
G01 X31.3396 Y-11.6617
G01 X31.3438 Y-11.6529
G01 X31.3489 Y-11.6444
G01 X31.3547 Y-11.6366
G01 X31.3613 Y-11.6293
G01 X31.3686 Y-11.6227
G01 X31.3764 Y-11.6169
G01 X31.3849 Y-11.6118
G01 X31.3937 Y-11.6076
G01 X31.4030 Y-11.6043
G01 X31.4125 Y-11.6019
G01 X31.4222 Y-11.6005
G01 X31.4320 Y-11.6000
G01 X31.4418 Y-11.6005
G01 X31.4515 Y-11.6019
G01 X31.4610 Y-11.6043
G01 X31.4703 Y-11.6076
G01 X31.4791 Y-11.6118
G01 X31.4876 Y-11.6169
G01 X31.4954 Y-11.6227
G01 X31.5027 Y-11.6293
G01 X31.5093 Y-11.6366
G01 X31.5151 Y-11.6444
G01 X31.5202 Y-11.6529
G01 X31.5244 Y-11.6617
G01 X31.5277 Y-11.6710
G01 X31.5301 Y-11.6805
G01 X31.5315 Y-11.6902
G01 X31.5320 Y-11.7000
G00 Z2.0000
G00 X36.5320 Y-11.7000
G01 F100.00
G01 Z-0.8000
G01 F200.00
G01 X36.5315 Y-11.7098
G01 X36.5301 Y-11.7195
G01 X36.5277 Y-11.7290
G01 X36.5244 Y-11.7383
G01 X36.5202 Y-11.7471
G01 X36.5151 Y-11.7556
G01 X36.5093 Y-11.7634
G01 X36.5027 Y-11.7707
G01 X36.4954 Y-11.7773
G01 X36.4876 Y-11.7831
G01 X36.4791 Y-11.7882
G01 X36.4703 Y-11.7924
G01 X36.4610 Y-11.7957
G01 X36.4515 Y-11.7981
G01 X36.4418 Y-11.7995
G01 X36.4320 Y-11.8000
G01 X36.4222 Y-11.7995
G01 X36.4125 Y-11.7981
G01 X36.4030 Y-11.7957
G01 X36.3937 Y-11.7924
G01 X36.3849 Y-11.7882
G01 X36.3764 Y-11.7831
G01 X36.3686 Y-11.7773
G01 X36.3613 Y-11.7707
G01 X36.3547 Y-11.7634
G01 X36.3489 Y-11.7556
G01 X36.3438 Y-11.7471
G01 X36.3396 Y-11.7383
G01 X36.3363 Y-11.7290
G01 X36.3339 Y-11.7195
G01 X36.3325 Y-11.7098
G01 X36.3320 Y-11.7000
G01 X36.3325 Y-11.6902
G01 X36.3339 Y-11.6805
G01 X36.3363 Y-11.6710
G01 X36.3396 Y-11.6617
G01 X36.3438 Y-11.6529
G01 X36.3489 Y-11.6444
G01 X36.3547 Y-11.6366
G01 X36.3613 Y-11.6293
G01 X36.3686 Y-11.6227
G01 X36.3764 Y-11.6169
G01 X36.3849 Y-11.6118
G01 X36.3937 Y-11.6076
G01 X36.4030 Y-11.6043
G01 X36.4125 Y-11.6019
G01 X36.4222 Y-11.6005
G01 X36.4320 Y-11.6000
G01 X36.4418 Y-11.6005
G01 X36.4515 Y-11.6019
G01 X36.4610 Y-11.6043
G01 X36.4703 Y-11.6076
G01 X36.4791 Y-11.6118
G01 X36.4876 Y-11.6169
G01 X36.4954 Y-11.6227
G01 X36.5027 Y-11.6293
G01 X36.5093 Y-11.6366
G01 X36.5151 Y-11.6444
G01 X36.5202 Y-11.6529
G01 X36.5244 Y-11.6617
G01 X36.5277 Y-11.6710
G01 X36.5301 Y-11.6805
G01 X36.5315 Y-11.6902
G01 X36.5320 Y-11.7000
G00 X36.5320 Y-11.7000
G01 F100.00
G01 Z-1.6000
G01 F200.00
G01 X36.5315 Y-11.7098
G01 X36.5301 Y-11.7195
G01 X36.5277 Y-11.7290
G01 X36.5244 Y-11.7383
G01 X36.5202 Y-11.7471
G01 X36.5151 Y-11.7556
G01 X36.5093 Y-11.7634
G01 X36.5027 Y-11.7707
G01 X36.4954 Y-11.7773
G01 X36.4876 Y-11.7831
G01 X36.4791 Y-11.7882
G01 X36.4703 Y-11.7924
G01 X36.4610 Y-11.7957
G01 X36.4515 Y-11.7981
G01 X36.4418 Y-11.7995
G01 X36.4320 Y-11.8000
G01 X36.4222 Y-11.7995
G01 X36.4125 Y-11.7981
G01 X36.4030 Y-11.7957
G01 X36.3937 Y-11.7924
G01 X36.3849 Y-11.7882
G01 X36.3764 Y-11.7831
G01 X36.3686 Y-11.7773
G01 X36.3613 Y-11.7707
G01 X36.3547 Y-11.7634
G01 X36.3489 Y-11.7556
G01 X36.3438 Y-11.7471
G01 X36.3396 Y-11.7383
G01 X36.3363 Y-11.7290
G01 X36.3339 Y-11.7195
G01 X36.3325 Y-11.7098
G01 X36.3320 Y-11.7000
G01 X36.3325 Y-11.6902
G01 X36.3339 Y-11.6805
G01 X36.3363 Y-11.6710
G01 X36.3396 Y-11.6617
G01 X36.3438 Y-11.6529
G01 X36.3489 Y-11.6444
G01 X36.3547 Y-11.6366
G01 X36.3613 Y-11.6293
G01 X36.3686 Y-11.6227
G01 X36.3764 Y-11.6169
G01 X36.3849 Y-11.6118
G01 X36.3937 Y-11.6076
G01 X36.4030 Y-11.6043
G01 X36.4125 Y-11.6019
G01 X36.4222 Y-11.6005
G01 X36.4320 Y-11.6000
G01 X36.4418 Y-11.6005
G01 X36.4515 Y-11.6019
G01 X36.4610 Y-11.6043
G01 X36.4703 Y-11.6076
G01 X36.4791 Y-11.6118
G01 X36.4876 Y-11.6169
G01 X36.4954 Y-11.6227
G01 X36.5027 Y-11.6293
G01 X36.5093 Y-11.6366
G01 X36.5151 Y-11.6444
G01 X36.5202 Y-11.6529
G01 X36.5244 Y-11.6617
G01 X36.5277 Y-11.6710
G01 X36.5301 Y-11.6805
G01 X36.5315 Y-11.6902
G01 X36.5320 Y-11.7000
G00 X36.5320 Y-11.7000
G01 F100.00
G01 Z-2.4000
G01 F200.00
G01 X36.5315 Y-11.7098
G01 X36.5301 Y-11.7195
G01 X36.5277 Y-11.7290
G01 X36.5244 Y-11.7383
G01 X36.5202 Y-11.7471
G01 X36.5151 Y-11.7556
G01 X36.5093 Y-11.7634
G01 X36.5027 Y-11.7707
G01 X36.4954 Y-11.7773
G01 X36.4876 Y-11.7831
G01 X36.4791 Y-11.7882
G01 X36.4703 Y-11.7924
G01 X36.4610 Y-11.7957
G01 X36.4515 Y-11.7981
G01 X36.4418 Y-11.7995
G01 X36.4320 Y-11.8000
G01 X36.4222 Y-11.7995
G01 X36.4125 Y-11.7981
G01 X36.4030 Y-11.7957
G01 X36.3937 Y-11.7924
G01 X36.3849 Y-11.7882
G01 X36.3764 Y-11.7831
G01 X36.3686 Y-11.7773
G01 X36.3613 Y-11.7707
G01 X36.3547 Y-11.7634
G01 X36.3489 Y-11.7556
G01 X36.3438 Y-11.7471
G01 X36.3396 Y-11.7383
G01 X36.3363 Y-11.7290
G01 X36.3339 Y-11.7195
G01 X36.3325 Y-11.7098
G01 X36.3320 Y-11.7000
G01 X36.3325 Y-11.6902
G01 X36.3339 Y-11.6805
G01 X36.3363 Y-11.6710
G01 X36.3396 Y-11.6617
G01 X36.3438 Y-11.6529
G01 X36.3489 Y-11.6444
G01 X36.3547 Y-11.6366
G01 X36.3613 Y-11.6293
G01 X36.3686 Y-11.6227
G01 X36.3764 Y-11.6169
G01 X36.3849 Y-11.6118
G01 X36.3937 Y-11.6076
G01 X36.4030 Y-11.6043
G01 X36.4125 Y-11.6019
G01 X36.4222 Y-11.6005
G01 X36.4320 Y-11.6000
G01 X36.4418 Y-11.6005
G01 X36.4515 Y-11.6019
G01 X36.4610 Y-11.6043
G01 X36.4703 Y-11.6076
G01 X36.4791 Y-11.6118
G01 X36.4876 Y-11.6169
G01 X36.4954 Y-11.6227
G01 X36.5027 Y-11.6293
G01 X36.5093 Y-11.6366
G01 X36.5151 Y-11.6444
G01 X36.5202 Y-11.6529
G01 X36.5244 Y-11.6617
G01 X36.5277 Y-11.6710
G01 X36.5301 Y-11.6805
G01 X36.5315 Y-11.6902
G01 X36.5320 Y-11.7000
G00 Z2.0000
G00 X34.4500 Y-4.8000
G01 F100.00
G01 Z-0.8000
G01 F200.00
G01 X34.4488 Y-4.8245
G01 X34.4452 Y-4.8488
G01 X34.4392 Y-4.8726
G01 X34.4310 Y-4.8957
G01 X34.4205 Y-4.9178
G01 X34.4079 Y-4.9389
G01 X34.3933 Y-4.9586
G01 X34.3768 Y-4.9768
G01 X34.3586 Y-4.9933
G01 X34.3389 Y-5.0079
G01 X34.3178 Y-5.0205
G01 X34.2957 Y-5.0310
G01 X34.2726 Y-5.0392
G01 X34.2488 Y-5.0452
G01 X34.2245 Y-5.0488
G01 X34.2000 Y-5.0500
G01 X34.1755 Y-5.0488
G01 X34.1512 Y-5.0452
G01 X34.1274 Y-5.0392
G01 X34.1043 Y-5.0310
G01 X34.0822 Y-5.0205
G01 X34.0611 Y-5.0079
G01 X34.0414 Y-4.9933
G01 X34.0232 Y-4.9768
G01 X34.0067 Y-4.9586
G01 X33.9921 Y-4.9389
G01 X33.9795 Y-4.9178
G01 X33.9690 Y-4.8957
G01 X33.9608 Y-4.8726
G01 X33.9548 Y-4.8488
G01 X33.9512 Y-4.8245
G01 X33.9500 Y-4.8000
G01 X33.9512 Y-4.7755
G01 X33.9548 Y-4.7512
G01 X33.9608 Y-4.7274
G01 X33.9690 Y-4.7043
G01 X33.9795 Y-4.6822
G01 X33.9921 Y-4.6611
G01 X34.0067 Y-4.6414
G01 X34.0232 Y-4.6232
G01 X34.0414 Y-4.6067
G01 X34.0611 Y-4.5921
G01 X34.0822 Y-4.5795
G01 X34.1043 Y-4.5690
G01 X34.1274 Y-4.5608
G01 X34.1512 Y-4.5548
G01 X34.1755 Y-4.5512
G01 X34.2000 Y-4.5500
G01 X34.2245 Y-4.5512
G01 X34.2488 Y-4.5548
G01 X34.2726 Y-4.5608
G01 X34.2957 Y-4.5690
G01 X34.3178 Y-4.5795
G01 X34.3389 Y-4.5921
G01 X34.3586 Y-4.6067
G01 X34.3768 Y-4.6232
G01 X34.3933 Y-4.6414
G01 X34.4079 Y-4.6611
G01 X34.4205 Y-4.6822
G01 X34.4310 Y-4.7043
G01 X34.4392 Y-4.7274
G01 X34.4452 Y-4.7512
G01 X34.4488 Y-4.7755
G01 X34.4500 Y-4.8000
G00 X34.4500 Y-4.8000
G01 F100.00
G01 Z-1.6000
G01 F200.00
G01 X34.4488 Y-4.8245
G01 X34.4452 Y-4.8488
G01 X34.4392 Y-4.8726
G01 X34.4310 Y-4.8957
G01 X34.4205 Y-4.9178
G01 X34.4079 Y-4.9389
G01 X34.3933 Y-4.9586
G01 X34.3768 Y-4.9768
G01 X34.3586 Y-4.9933
G01 X34.3389 Y-5.0079
G01 X34.3178 Y-5.0205
G01 X34.2957 Y-5.0310
G01 X34.2726 Y-5.0392
G01 X34.2488 Y-5.0452
G01 X34.2245 Y-5.0488
G01 X34.2000 Y-5.0500
G01 X34.1755 Y-5.0488
G01 X34.1512 Y-5.0452
G01 X34.1274 Y-5.0392
G01 X34.1043 Y-5.0310
G01 X34.0822 Y-5.0205
G01 X34.0611 Y-5.0079
G01 X34.0414 Y-4.9933
G01 X34.0232 Y-4.9768
G01 X34.0067 Y-4.9586
G01 X33.9921 Y-4.9389
G01 X33.9795 Y-4.9178
G01 X33.9690 Y-4.8957
G01 X33.9608 Y-4.8726
G01 X33.9548 Y-4.8488
G01 X33.9512 Y-4.8245
G01 X33.9500 Y-4.8000
G01 X33.9512 Y-4.7755
G01 X33.9548 Y-4.7512
G01 X33.9608 Y-4.7274
G01 X33.9690 Y-4.7043
G01 X33.9795 Y-4.6822
G01 X33.9921 Y-4.6611
G01 X34.0067 Y-4.6414
G01 X34.0232 Y-4.6232
G01 X34.0414 Y-4.6067
G01 X34.0611 Y-4.5921
G01 X34.0822 Y-4.5795
G01 X34.1043 Y-4.5690
G01 X34.1274 Y-4.5608
G01 X34.1512 Y-4.5548
G01 X34.1755 Y-4.5512
G01 X34.2000 Y-4.5500
G01 X34.2245 Y-4.5512
G01 X34.2488 Y-4.5548
G01 X34.2726 Y-4.5608
G01 X34.2957 Y-4.5690
G01 X34.3178 Y-4.5795
G01 X34.3389 Y-4.5921
G01 X34.3586 Y-4.6067
G01 X34.3768 Y-4.6232
G01 X34.3933 Y-4.6414
G01 X34.4079 Y-4.6611
G01 X34.4205 Y-4.6822
G01 X34.4310 Y-4.7043
G01 X34.4392 Y-4.7274
G01 X34.4452 Y-4.7512
G01 X34.4488 Y-4.7755
G01 X34.4500 Y-4.8000
G00 X34.4500 Y-4.8000
G01 F100.00
G01 Z-2.4000
G01 F200.00
G01 X34.4488 Y-4.8245
G01 X34.4452 Y-4.8488
G01 X34.4392 Y-4.8726
G01 X34.4310 Y-4.8957
G01 X34.4205 Y-4.9178
G01 X34.4079 Y-4.9389
G01 X34.3933 Y-4.9586
G01 X34.3768 Y-4.9768
G01 X34.3586 Y-4.9933
G01 X34.3389 Y-5.0079
G01 X34.3178 Y-5.0205
G01 X34.2957 Y-5.0310
G01 X34.2726 Y-5.0392
G01 X34.2488 Y-5.0452
G01 X34.2245 Y-5.0488
G01 X34.2000 Y-5.0500
G01 X34.1755 Y-5.0488
G01 X34.1512 Y-5.0452
G01 X34.1274 Y-5.0392
G01 X34.1043 Y-5.0310
G01 X34.0822 Y-5.0205
G01 X34.0611 Y-5.0079
G01 X34.0414 Y-4.9933
G01 X34.0232 Y-4.9768
G01 X34.0067 Y-4.9586
G01 X33.9921 Y-4.9389
G01 X33.9795 Y-4.9178
G01 X33.9690 Y-4.8957
G01 X33.9608 Y-4.8726
G01 X33.9548 Y-4.8488
G01 X33.9512 Y-4.8245
G01 X33.9500 Y-4.8000
G01 X33.9512 Y-4.7755
G01 X33.9548 Y-4.7512
G01 X33.9608 Y-4.7274
G01 X33.9690 Y-4.7043
G01 X33.9795 Y-4.6822
G01 X33.9921 Y-4.6611
G01 X34.0067 Y-4.6414
G01 X34.0232 Y-4.6232
G01 X34.0414 Y-4.6067
G01 X34.0611 Y-4.5921
G01 X34.0822 Y-4.5795
G01 X34.1043 Y-4.5690
G01 X34.1274 Y-4.5608
G01 X34.1512 Y-4.5548
G01 X34.1755 Y-4.5512
G01 X34.2000 Y-4.5500
G01 X34.2245 Y-4.5512
G01 X34.2488 Y-4.5548
G01 X34.2726 Y-4.5608
G01 X34.2957 Y-4.5690
G01 X34.3178 Y-4.5795
G01 X34.3389 Y-4.5921
G01 X34.3586 Y-4.6067
G01 X34.3768 Y-4.6232
G01 X34.3933 Y-4.6414
G01 X34.4079 Y-4.6611
G01 X34.4205 Y-4.6822
G01 X34.4310 Y-4.7043
G01 X34.4392 Y-4.7274
G01 X34.4452 Y-4.7512
G01 X34.4488 Y-4.7755
G01 X34.4500 Y-4.8000
G00 Z2.0000
G00 X39.4500 Y-4.8000
G01 F100.00
G01 Z-0.8000
G01 F200.00
G01 X39.4488 Y-4.8245
G01 X39.4452 Y-4.8488
G01 X39.4392 Y-4.8726
G01 X39.4310 Y-4.8957
G01 X39.4205 Y-4.9178
G01 X39.4079 Y-4.9389
G01 X39.3933 Y-4.9586
G01 X39.3768 Y-4.9768
G01 X39.3586 Y-4.9933
G01 X39.3389 Y-5.0079
G01 X39.3178 Y-5.0205
G01 X39.2957 Y-5.0310
G01 X39.2726 Y-5.0392
G01 X39.2488 Y-5.0452
G01 X39.2245 Y-5.0488
G01 X39.2000 Y-5.0500
G01 X39.1755 Y-5.0488
G01 X39.1512 Y-5.0452
G01 X39.1274 Y-5.0392
G01 X39.1043 Y-5.0310
G01 X39.0822 Y-5.0205
G01 X39.0611 Y-5.0079
G01 X39.0414 Y-4.9933
G01 X39.0232 Y-4.9768
G01 X39.0067 Y-4.9586
G01 X38.9921 Y-4.9389
G01 X38.9795 Y-4.9178
G01 X38.9690 Y-4.8957
G01 X38.9608 Y-4.8726
G01 X38.9548 Y-4.8488
G01 X38.9512 Y-4.8245
G01 X38.9500 Y-4.8000
G01 X38.9512 Y-4.7755
G01 X38.9548 Y-4.7512
G01 X38.9608 Y-4.7274
G01 X38.9690 Y-4.7043
G01 X38.9795 Y-4.6822
G01 X38.9921 Y-4.6611
G01 X39.0067 Y-4.6414
G01 X39.0232 Y-4.6232
G01 X39.0414 Y-4.6067
G01 X39.0611 Y-4.5921
G01 X39.0822 Y-4.5795
G01 X39.1043 Y-4.5690
G01 X39.1274 Y-4.5608
G01 X39.1512 Y-4.5548
G01 X39.1755 Y-4.5512
G01 X39.2000 Y-4.5500
G01 X39.2245 Y-4.5512
G01 X39.2488 Y-4.5548
G01 X39.2726 Y-4.5608
G01 X39.2957 Y-4.5690
G01 X39.3178 Y-4.5795
G01 X39.3389 Y-4.5921
G01 X39.3586 Y-4.6067
G01 X39.3768 Y-4.6232
G01 X39.3933 Y-4.6414
G01 X39.4079 Y-4.6611
G01 X39.4205 Y-4.6822
G01 X39.4310 Y-4.7043
G01 X39.4392 Y-4.7274
G01 X39.4452 Y-4.7512
G01 X39.4488 Y-4.7755
G01 X39.4500 Y-4.8000
G00 X39.4500 Y-4.8000
G01 F100.00
G01 Z-1.6000
G01 F200.00
G01 X39.4488 Y-4.8245
G01 X39.4452 Y-4.8488
G01 X39.4392 Y-4.8726
G01 X39.4310 Y-4.8957
G01 X39.4205 Y-4.9178
G01 X39.4079 Y-4.9389
G01 X39.3933 Y-4.9586
G01 X39.3768 Y-4.9768
G01 X39.3586 Y-4.9933
G01 X39.3389 Y-5.0079
G01 X39.3178 Y-5.0205
G01 X39.2957 Y-5.0310
G01 X39.2726 Y-5.0392
G01 X39.2488 Y-5.0452
G01 X39.2245 Y-5.0488
G01 X39.2000 Y-5.0500
G01 X39.1755 Y-5.0488
G01 X39.1512 Y-5.0452
G01 X39.1274 Y-5.0392
G01 X39.1043 Y-5.0310
G01 X39.0822 Y-5.0205
G01 X39.0611 Y-5.0079
G01 X39.0414 Y-4.9933
G01 X39.0232 Y-4.9768
G01 X39.0067 Y-4.9586
G01 X38.9921 Y-4.9389
G01 X38.9795 Y-4.9178
G01 X38.9690 Y-4.8957
G01 X38.9608 Y-4.8726
G01 X38.9548 Y-4.8488
G01 X38.9512 Y-4.8245
G01 X38.9500 Y-4.8000
G01 X38.9512 Y-4.7755
G01 X38.9548 Y-4.7512
G01 X38.9608 Y-4.7274
G01 X38.9690 Y-4.7043
G01 X38.9795 Y-4.6822
G01 X38.9921 Y-4.6611
G01 X39.0067 Y-4.6414
G01 X39.0232 Y-4.6232
G01 X39.0414 Y-4.6067
G01 X39.0611 Y-4.5921
G01 X39.0822 Y-4.5795
G01 X39.1043 Y-4.5690
G01 X39.1274 Y-4.5608
G01 X39.1512 Y-4.5548
G01 X39.1755 Y-4.5512
G01 X39.2000 Y-4.5500
G01 X39.2245 Y-4.5512
G01 X39.2488 Y-4.5548
G01 X39.2726 Y-4.5608
G01 X39.2957 Y-4.5690
G01 X39.3178 Y-4.5795
G01 X39.3389 Y-4.5921
G01 X39.3586 Y-4.6067
G01 X39.3768 Y-4.6232
G01 X39.3933 Y-4.6414
G01 X39.4079 Y-4.6611
G01 X39.4205 Y-4.6822
G01 X39.4310 Y-4.7043
G01 X39.4392 Y-4.7274
G01 X39.4452 Y-4.7512
G01 X39.4488 Y-4.7755
G01 X39.4500 Y-4.8000
G00 X39.4500 Y-4.8000
G01 F100.00
G01 Z-2.4000
G01 F200.00
G01 X39.4488 Y-4.8245
G01 X39.4452 Y-4.8488
G01 X39.4392 Y-4.8726
G01 X39.4310 Y-4.8957
G01 X39.4205 Y-4.9178
G01 X39.4079 Y-4.9389
G01 X39.3933 Y-4.9586
G01 X39.3768 Y-4.9768
G01 X39.3586 Y-4.9933
G01 X39.3389 Y-5.0079
G01 X39.3178 Y-5.0205
G01 X39.2957 Y-5.0310
G01 X39.2726 Y-5.0392
G01 X39.2488 Y-5.0452
G01 X39.2245 Y-5.0488
G01 X39.2000 Y-5.0500
G01 X39.1755 Y-5.0488
G01 X39.1512 Y-5.0452
G01 X39.1274 Y-5.0392
G01 X39.1043 Y-5.0310
G01 X39.0822 Y-5.0205
G01 X39.0611 Y-5.0079
G01 X39.0414 Y-4.9933
G01 X39.0232 Y-4.9768
G01 X39.0067 Y-4.9586
G01 X38.9921 Y-4.9389
G01 X38.9795 Y-4.9178
G01 X38.9690 Y-4.8957
G01 X38.9608 Y-4.8726
G01 X38.9548 Y-4.8488
G01 X38.9512 Y-4.8245
G01 X38.9500 Y-4.8000
G01 X38.9512 Y-4.7755
G01 X38.9548 Y-4.7512
G01 X38.9608 Y-4.7274
G01 X38.9690 Y-4.7043
G01 X38.9795 Y-4.6822
G01 X38.9921 Y-4.6611
G01 X39.0067 Y-4.6414
G01 X39.0232 Y-4.6232
G01 X39.0414 Y-4.6067
G01 X39.0611 Y-4.5921
G01 X39.0822 Y-4.5795
G01 X39.1043 Y-4.5690
G01 X39.1274 Y-4.5608
G01 X39.1512 Y-4.5548
G01 X39.1755 Y-4.5512
G01 X39.2000 Y-4.5500
G01 X39.2245 Y-4.5512
G01 X39.2488 Y-4.5548
G01 X39.2726 Y-4.5608
G01 X39.2957 Y-4.5690
G01 X39.3178 Y-4.5795
G01 X39.3389 Y-4.5921
G01 X39.3586 Y-4.6067
G01 X39.3768 Y-4.6232
G01 X39.3933 Y-4.6414
G01 X39.4079 Y-4.6611
G01 X39.4205 Y-4.6822
G01 X39.4310 Y-4.7043
G01 X39.4392 Y-4.7274
G01 X39.4452 Y-4.7512
G01 X39.4488 Y-4.7755
G01 X39.4500 Y-4.8000
G00 Z2.0000
G00 X44.4500 Y-4.8000
G01 F100.00
G01 Z-0.8000
G01 F200.00
G01 X44.4488 Y-4.8245
G01 X44.4452 Y-4.8488
G01 X44.4392 Y-4.8726
G01 X44.4310 Y-4.8957
G01 X44.4205 Y-4.9178
G01 X44.4079 Y-4.9389
G01 X44.3933 Y-4.9586
G01 X44.3768 Y-4.9768
G01 X44.3586 Y-4.9933
G01 X44.3389 Y-5.0079
G01 X44.3178 Y-5.0205
G01 X44.2957 Y-5.0310
G01 X44.2726 Y-5.0392
G01 X44.2488 Y-5.0452
G01 X44.2245 Y-5.0488
G01 X44.2000 Y-5.0500
G01 X44.1755 Y-5.0488
G01 X44.1512 Y-5.0452
G01 X44.1274 Y-5.0392
G01 X44.1043 Y-5.0310
G01 X44.0822 Y-5.0205
G01 X44.0611 Y-5.0079
G01 X44.0414 Y-4.9933
G01 X44.0232 Y-4.9768
G01 X44.0067 Y-4.9586
G01 X43.9921 Y-4.9389
G01 X43.9795 Y-4.9178
G01 X43.9690 Y-4.8957
G01 X43.9608 Y-4.8726
G01 X43.9548 Y-4.8488
G01 X43.9512 Y-4.8245
G01 X43.9500 Y-4.8000
G01 X43.9512 Y-4.7755
G01 X43.9548 Y-4.7512
G01 X43.9608 Y-4.7274
G01 X43.9690 Y-4.7043
G01 X43.9795 Y-4.6822
G01 X43.9921 Y-4.6611
G01 X44.0067 Y-4.6414
G01 X44.0232 Y-4.6232
G01 X44.0414 Y-4.6067
G01 X44.0611 Y-4.5921
G01 X44.0822 Y-4.5795
G01 X44.1043 Y-4.5690
G01 X44.1274 Y-4.5608
G01 X44.1512 Y-4.5548
G01 X44.1755 Y-4.5512
G01 X44.2000 Y-4.5500
G01 X44.2245 Y-4.5512
G01 X44.2488 Y-4.5548
G01 X44.2726 Y-4.5608
G01 X44.2957 Y-4.5690
G01 X44.3178 Y-4.5795
G01 X44.3389 Y-4.5921
G01 X44.3586 Y-4.6067
G01 X44.3768 Y-4.6232
G01 X44.3933 Y-4.6414
G01 X44.4079 Y-4.6611
G01 X44.4205 Y-4.6822
G01 X44.4310 Y-4.7043
G01 X44.4392 Y-4.7274
G01 X44.4452 Y-4.7512
G01 X44.4488 Y-4.7755
G01 X44.4500 Y-4.8000
G00 X44.4500 Y-4.8000
G01 F100.00
G01 Z-1.6000
G01 F200.00
G01 X44.4488 Y-4.8245
G01 X44.4452 Y-4.8488
G01 X44.4392 Y-4.8726
G01 X44.4310 Y-4.8957
G01 X44.4205 Y-4.9178
G01 X44.4079 Y-4.9389
G01 X44.3933 Y-4.9586
G01 X44.3768 Y-4.9768
G01 X44.3586 Y-4.9933
G01 X44.3389 Y-5.0079
G01 X44.3178 Y-5.0205
G01 X44.2957 Y-5.0310
G01 X44.2726 Y-5.0392
G01 X44.2488 Y-5.0452
G01 X44.2245 Y-5.0488
G01 X44.2000 Y-5.0500
G01 X44.1755 Y-5.0488
G01 X44.1512 Y-5.0452
G01 X44.1274 Y-5.0392
G01 X44.1043 Y-5.0310
G01 X44.0822 Y-5.0205
G01 X44.0611 Y-5.0079
G01 X44.0414 Y-4.9933
G01 X44.0232 Y-4.9768
G01 X44.0067 Y-4.9586
G01 X43.9921 Y-4.9389
G01 X43.9795 Y-4.9178
G01 X43.9690 Y-4.8957
G01 X43.9608 Y-4.8726
G01 X43.9548 Y-4.8488
G01 X43.9512 Y-4.8245
G01 X43.9500 Y-4.8000
G01 X43.9512 Y-4.7755
G01 X43.9548 Y-4.7512
G01 X43.9608 Y-4.7274
G01 X43.9690 Y-4.7043
G01 X43.9795 Y-4.6822
G01 X43.9921 Y-4.6611
G01 X44.0067 Y-4.6414
G01 X44.0232 Y-4.6232
G01 X44.0414 Y-4.6067
G01 X44.0611 Y-4.5921
G01 X44.0822 Y-4.5795
G01 X44.1043 Y-4.5690
G01 X44.1274 Y-4.5608
G01 X44.1512 Y-4.5548
G01 X44.1755 Y-4.5512
G01 X44.2000 Y-4.5500
G01 X44.2245 Y-4.5512
G01 X44.2488 Y-4.5548
G01 X44.2726 Y-4.5608
G01 X44.2957 Y-4.5690
G01 X44.3178 Y-4.5795
G01 X44.3389 Y-4.5921
G01 X44.3586 Y-4.6067
G01 X44.3768 Y-4.6232
G01 X44.3933 Y-4.6414
G01 X44.4079 Y-4.6611
G01 X44.4205 Y-4.6822
G01 X44.4310 Y-4.7043
G01 X44.4392 Y-4.7274
G01 X44.4452 Y-4.7512
G01 X44.4488 Y-4.7755
G01 X44.4500 Y-4.8000
G00 X44.4500 Y-4.8000
G01 F100.00
G01 Z-2.4000
G01 F200.00
G01 X44.4488 Y-4.8245
G01 X44.4452 Y-4.8488
G01 X44.4392 Y-4.8726
G01 X44.4310 Y-4.8957
G01 X44.4205 Y-4.9178
G01 X44.4079 Y-4.9389
G01 X44.3933 Y-4.9586
G01 X44.3768 Y-4.9768
G01 X44.3586 Y-4.9933
G01 X44.3389 Y-5.0079
G01 X44.3178 Y-5.0205
G01 X44.2957 Y-5.0310
G01 X44.2726 Y-5.0392
G01 X44.2488 Y-5.0452
G01 X44.2245 Y-5.0488
G01 X44.2000 Y-5.0500
G01 X44.1755 Y-5.0488
G01 X44.1512 Y-5.0452
G01 X44.1274 Y-5.0392
G01 X44.1043 Y-5.0310
G01 X44.0822 Y-5.0205
G01 X44.0611 Y-5.0079
G01 X44.0414 Y-4.9933
G01 X44.0232 Y-4.9768
G01 X44.0067 Y-4.9586
G01 X43.9921 Y-4.9389
G01 X43.9795 Y-4.9178
G01 X43.9690 Y-4.8957
G01 X43.9608 Y-4.8726
G01 X43.9548 Y-4.8488
G01 X43.9512 Y-4.8245
G01 X43.9500 Y-4.8000
G01 X43.9512 Y-4.7755
G01 X43.9548 Y-4.7512
G01 X43.9608 Y-4.7274
G01 X43.9690 Y-4.7043
G01 X43.9795 Y-4.6822
G01 X43.9921 Y-4.6611
G01 X44.0067 Y-4.6414
G01 X44.0232 Y-4.6232
G01 X44.0414 Y-4.6067
G01 X44.0611 Y-4.5921
G01 X44.0822 Y-4.5795
G01 X44.1043 Y-4.5690
G01 X44.1274 Y-4.5608
G01 X44.1512 Y-4.5548
G01 X44.1755 Y-4.5512
G01 X44.2000 Y-4.5500
G01 X44.2245 Y-4.5512
G01 X44.2488 Y-4.5548
G01 X44.2726 Y-4.5608
G01 X44.2957 Y-4.5690
G01 X44.3178 Y-4.5795
G01 X44.3389 Y-4.5921
G01 X44.3586 Y-4.6067
G01 X44.3768 Y-4.6232
G01 X44.3933 Y-4.6414
G01 X44.4079 Y-4.6611
G01 X44.4205 Y-4.6822
G01 X44.4310 Y-4.7043
G01 X44.4392 Y-4.7274
G01 X44.4452 Y-4.7512
G01 X44.4488 Y-4.7755
G01 X44.4500 Y-4.8000
G00 Z2.0000
G00 X44.2000 Y-14.0000
G01 F100.00
G01 Z-0.8000
G01 F200.00
G01 X44.1942 Y-14.1176
G01 X44.1769 Y-14.2341
G01 X44.1483 Y-14.3483
G01 X44.1087 Y-14.4592
G01 X44.0583 Y-14.5657
G01 X43.9978 Y-14.6667
G01 X43.9276 Y-14.7613
G01 X43.8485 Y-14.8485
G01 X43.7613 Y-14.9276
G01 X43.6667 Y-14.9978
G01 X43.5657 Y-15.0583
G01 X43.4592 Y-15.1087
G01 X43.3483 Y-15.1483
G01 X43.2341 Y-15.1769
G01 X43.1176 Y-15.1942
G01 X43.0000 Y-15.2000
G01 X42.8824 Y-15.1942
G01 X42.7659 Y-15.1769
G01 X42.6517 Y-15.1483
G01 X42.5408 Y-15.1087
G01 X42.4343 Y-15.0583
G01 X42.3333 Y-14.9978
G01 X42.2387 Y-14.9276
G01 X42.1515 Y-14.8485
G01 X42.0724 Y-14.7613
G01 X42.0022 Y-14.6667
G01 X41.9417 Y-14.5657
G01 X41.8913 Y-14.4592
G01 X41.8517 Y-14.3483
G01 X41.8231 Y-14.2341
G01 X41.8058 Y-14.1176
G01 X41.8000 Y-14.0000
G01 X41.8058 Y-13.8824
G01 X41.8231 Y-13.7659
G01 X41.8517 Y-13.6517
G01 X41.8913 Y-13.5408
G01 X41.9417 Y-13.4343
G01 X42.0022 Y-13.3333
G01 X42.0724 Y-13.2387
G01 X42.1515 Y-13.1515
G01 X42.2387 Y-13.0724
G01 X42.3333 Y-13.0022
G01 X42.4343 Y-12.9417
G01 X42.5408 Y-12.8913
G01 X42.6517 Y-12.8517
G01 X42.7659 Y-12.8231
G01 X42.8824 Y-12.8058
G01 X43.0000 Y-12.8000
G01 X43.1176 Y-12.8058
G01 X43.2341 Y-12.8231
G01 X43.3483 Y-12.8517
G01 X43.4592 Y-12.8913
G01 X43.5657 Y-12.9417
G01 X43.6667 Y-13.0022
G01 X43.7613 Y-13.0724
G01 X43.8485 Y-13.1515
G01 X43.9276 Y-13.2387
G01 X43.9978 Y-13.3333
G01 X44.0583 Y-13.4343
G01 X44.1087 Y-13.5408
G01 X44.1483 Y-13.6517
G01 X44.1769 Y-13.7659
G01 X44.1942 Y-13.8824
G01 X44.2000 Y-14.0000
G00 X44.2000 Y-14.0000
G01 F100.00
G01 Z-1.6000
G01 F200.00
G01 X44.1942 Y-14.1176
G01 X44.1769 Y-14.2341
G01 X44.1483 Y-14.3483
G01 X44.1087 Y-14.4592
G01 X44.0583 Y-14.5657
G01 X43.9978 Y-14.6667
G01 X43.9276 Y-14.7613
G01 X43.8485 Y-14.8485
G01 X43.7613 Y-14.9276
G01 X43.6667 Y-14.9978
G01 X43.5657 Y-15.0583
G01 X43.4592 Y-15.1087
G01 X43.3483 Y-15.1483
G01 X43.2341 Y-15.1769
G01 X43.1176 Y-15.1942
G01 X43.0000 Y-15.2000
G01 X42.8824 Y-15.1942
G01 X42.7659 Y-15.1769
G01 X42.6517 Y-15.1483
G01 X42.5408 Y-15.1087
G01 X42.4343 Y-15.0583
G01 X42.3333 Y-14.9978
G01 X42.2387 Y-14.9276
G01 X42.1515 Y-14.8485
G01 X42.0724 Y-14.7613
G01 X42.0022 Y-14.6667
G01 X41.9417 Y-14.5657
G01 X41.8913 Y-14.4592
G01 X41.8517 Y-14.3483
G01 X41.8231 Y-14.2341
G01 X41.8058 Y-14.1176
G01 X41.8000 Y-14.0000
G01 X41.8058 Y-13.8824
G01 X41.8231 Y-13.7659
G01 X41.8517 Y-13.6517
G01 X41.8913 Y-13.5408
G01 X41.9417 Y-13.4343
G01 X42.0022 Y-13.3333
G01 X42.0724 Y-13.2387
G01 X42.1515 Y-13.1515
G01 X42.2387 Y-13.0724
G01 X42.3333 Y-13.0022
G01 X42.4343 Y-12.9417
G01 X42.5408 Y-12.8913
G01 X42.6517 Y-12.8517
G01 X42.7659 Y-12.8231
G01 X42.8824 Y-12.8058
G01 X43.0000 Y-12.8000
G01 X43.1176 Y-12.8058
G01 X43.2341 Y-12.8231
G01 X43.3483 Y-12.8517
G01 X43.4592 Y-12.8913
G01 X43.5657 Y-12.9417
G01 X43.6667 Y-13.0022
G01 X43.7613 Y-13.0724
G01 X43.8485 Y-13.1515
G01 X43.9276 Y-13.2387
G01 X43.9978 Y-13.3333
G01 X44.0583 Y-13.4343
G01 X44.1087 Y-13.5408
G01 X44.1483 Y-13.6517
G01 X44.1769 Y-13.7659
G01 X44.1942 Y-13.8824
G01 X44.2000 Y-14.0000
G00 X44.2000 Y-14.0000
G01 F100.00
G01 Z-2.4000
G01 F200.00
G01 X44.1942 Y-14.1176
G01 X44.1769 Y-14.2341
G01 X44.1483 Y-14.3483
G01 X44.1087 Y-14.4592
G01 X44.0583 Y-14.5657
G01 X43.9978 Y-14.6667
G01 X43.9276 Y-14.7613
G01 X43.8485 Y-14.8485
G01 X43.7613 Y-14.9276
G01 X43.6667 Y-14.9978
G01 X43.5657 Y-15.0583
G01 X43.4592 Y-15.1087
G01 X43.3483 Y-15.1483
G01 X43.2341 Y-15.1769
G01 X43.1176 Y-15.1942
G01 X43.0000 Y-15.2000
G01 X42.8824 Y-15.1942
G01 X42.7659 Y-15.1769
G01 X42.6517 Y-15.1483
G01 X42.5408 Y-15.1087
G01 X42.4343 Y-15.0583
G01 X42.3333 Y-14.9978
G01 X42.2387 Y-14.9276
G01 X42.1515 Y-14.8485
G01 X42.0724 Y-14.7613
G01 X42.0022 Y-14.6667
G01 X41.9417 Y-14.5657
G01 X41.8913 Y-14.4592
G01 X41.8517 Y-14.3483
G01 X41.8231 Y-14.2341
G01 X41.8058 Y-14.1176
G01 X41.8000 Y-14.0000
G01 X41.8058 Y-13.8824
G01 X41.8231 Y-13.7659
G01 X41.8517 Y-13.6517
G01 X41.8913 Y-13.5408
G01 X41.9417 Y-13.4343
G01 X42.0022 Y-13.3333
G01 X42.0724 Y-13.2387
G01 X42.1515 Y-13.1515
G01 X42.2387 Y-13.0724
G01 X42.3333 Y-13.0022
G01 X42.4343 Y-12.9417
G01 X42.5408 Y-12.8913
G01 X42.6517 Y-12.8517
G01 X42.7659 Y-12.8231
G01 X42.8824 Y-12.8058
G01 X43.0000 Y-12.8000
G01 X43.1176 Y-12.8058
G01 X43.2341 Y-12.8231
G01 X43.3483 Y-12.8517
G01 X43.4592 Y-12.8913
G01 X43.5657 Y-12.9417
G01 X43.6667 Y-13.0022
G01 X43.7613 Y-13.0724
G01 X43.8485 Y-13.1515
G01 X43.9276 Y-13.2387
G01 X43.9978 Y-13.3333
G01 X44.0583 Y-13.4343
G01 X44.1087 Y-13.5408
G01 X44.1483 Y-13.6517
G01 X44.1769 Y-13.7659
G01 X44.1942 Y-13.8824
G01 X44.2000 Y-14.0000
G00 Z2.0000
G00 X45.5000 Y-19.0000
G01 F100.00
G01 Z-0.8000
G01 F200.00
G01 X45.5000 Y-19.0000
G01 X45.5000 Y-19.0000
G01 X45.5000 Y-19.0000
G01 X45.5000 Y-19.0000
G00 X45.5000 Y-19.0000
G01 F100.00
G01 Z-1.6000
G01 F200.00
G01 X45.5000 Y-19.0000
G01 X45.5000 Y-19.0000
G01 X45.5000 Y-19.0000
G01 X45.5000 Y-19.0000
G00 X45.5000 Y-19.0000
G01 F100.00
G01 Z-2.4000
G01 F200.00
G01 X45.5000 Y-19.0000
G01 X45.5000 Y-19.0000
G01 X45.5000 Y-19.0000
G01 X45.5000 Y-19.0000
G00 Z2.0000
G00 X29.4500 Y-4.8000
G01 F100.00
G01 Z-0.8000
G01 F200.00
G01 X29.4488 Y-4.8245
G01 X29.4452 Y-4.8488
G01 X29.4392 Y-4.8726
G01 X29.4310 Y-4.8957
G01 X29.4205 Y-4.9178
G01 X29.4079 Y-4.9389
G01 X29.3933 Y-4.9586
G01 X29.3768 Y-4.9768
G01 X29.3586 Y-4.9933
G01 X29.3389 Y-5.0079
G01 X29.3178 Y-5.0205
G01 X29.2957 Y-5.0310
G01 X29.2726 Y-5.0392
G01 X29.2488 Y-5.0452
G01 X29.2245 Y-5.0488
G01 X29.2000 Y-5.0500
G01 X29.1755 Y-5.0488
G01 X29.1512 Y-5.0452
G01 X29.1274 Y-5.0392
G01 X29.1043 Y-5.0310
G01 X29.0822 Y-5.0205
G01 X29.0611 Y-5.0079
G01 X29.0414 Y-4.9933
G01 X29.0232 Y-4.9768
G01 X29.0067 Y-4.9586
G01 X28.9921 Y-4.9389
G01 X28.9795 Y-4.9178
G01 X28.9690 Y-4.8957
G01 X28.9608 Y-4.8726
G01 X28.9548 Y-4.8488
G01 X28.9512 Y-4.8245
G01 X28.9500 Y-4.8000
G01 X28.9512 Y-4.7755
G01 X28.9548 Y-4.7512
G01 X28.9608 Y-4.7274
G01 X28.9690 Y-4.7043
G01 X28.9795 Y-4.6822
G01 X28.9921 Y-4.6611
G01 X29.0067 Y-4.6414
G01 X29.0232 Y-4.6232
G01 X29.0414 Y-4.6067
G01 X29.0611 Y-4.5921
G01 X29.0822 Y-4.5795
G01 X29.1043 Y-4.5690
G01 X29.1274 Y-4.5608
G01 X29.1512 Y-4.5548
G01 X29.1755 Y-4.5512
G01 X29.2000 Y-4.5500
G01 X29.2245 Y-4.5512
G01 X29.2488 Y-4.5548
G01 X29.2726 Y-4.5608
G01 X29.2957 Y-4.5690
G01 X29.3178 Y-4.5795
G01 X29.3389 Y-4.5921
G01 X29.3586 Y-4.6067
G01 X29.3768 Y-4.6232
G01 X29.3933 Y-4.6414
G01 X29.4079 Y-4.6611
G01 X29.4205 Y-4.6822
G01 X29.4310 Y-4.7043
G01 X29.4392 Y-4.7274
G01 X29.4452 Y-4.7512
G01 X29.4488 Y-4.7755
G01 X29.4500 Y-4.8000
G00 X29.4500 Y-4.8000
G01 F100.00
G01 Z-1.6000
G01 F200.00
G01 X29.4488 Y-4.8245
G01 X29.4452 Y-4.8488
G01 X29.4392 Y-4.8726
G01 X29.4310 Y-4.8957
G01 X29.4205 Y-4.9178
G01 X29.4079 Y-4.9389
G01 X29.3933 Y-4.9586
G01 X29.3768 Y-4.9768
G01 X29.3586 Y-4.9933
G01 X29.3389 Y-5.0079
G01 X29.3178 Y-5.0205
G01 X29.2957 Y-5.0310
G01 X29.2726 Y-5.0392
G01 X29.2488 Y-5.0452
G01 X29.2245 Y-5.0488
G01 X29.2000 Y-5.0500
G01 X29.1755 Y-5.0488
G01 X29.1512 Y-5.0452
G01 X29.1274 Y-5.0392
G01 X29.1043 Y-5.0310
G01 X29.0822 Y-5.0205
G01 X29.0611 Y-5.0079
G01 X29.0414 Y-4.9933
G01 X29.0232 Y-4.9768
G01 X29.0067 Y-4.9586
G01 X28.9921 Y-4.9389
G01 X28.9795 Y-4.9178
G01 X28.9690 Y-4.8957
G01 X28.9608 Y-4.8726
G01 X28.9548 Y-4.8488
G01 X28.9512 Y-4.8245
G01 X28.9500 Y-4.8000
G01 X28.9512 Y-4.7755
G01 X28.9548 Y-4.7512
G01 X28.9608 Y-4.7274
G01 X28.9690 Y-4.7043
G01 X28.9795 Y-4.6822
G01 X28.9921 Y-4.6611
G01 X29.0067 Y-4.6414
G01 X29.0232 Y-4.6232
G01 X29.0414 Y-4.6067
G01 X29.0611 Y-4.5921
G01 X29.0822 Y-4.5795
G01 X29.1043 Y-4.5690
G01 X29.1274 Y-4.5608
G01 X29.1512 Y-4.5548
G01 X29.1755 Y-4.5512
G01 X29.2000 Y-4.5500
G01 X29.2245 Y-4.5512
G01 X29.2488 Y-4.5548
G01 X29.2726 Y-4.5608
G01 X29.2957 Y-4.5690
G01 X29.3178 Y-4.5795
G01 X29.3389 Y-4.5921
G01 X29.3586 Y-4.6067
G01 X29.3768 Y-4.6232
G01 X29.3933 Y-4.6414
G01 X29.4079 Y-4.6611
G01 X29.4205 Y-4.6822
G01 X29.4310 Y-4.7043
G01 X29.4392 Y-4.7274
G01 X29.4452 Y-4.7512
G01 X29.4488 Y-4.7755
G01 X29.4500 Y-4.8000
G00 X29.4500 Y-4.8000
G01 F100.00
G01 Z-2.4000
G01 F200.00
G01 X29.4488 Y-4.8245
G01 X29.4452 Y-4.8488
G01 X29.4392 Y-4.8726
G01 X29.4310 Y-4.8957
G01 X29.4205 Y-4.9178
G01 X29.4079 Y-4.9389
G01 X29.3933 Y-4.9586
G01 X29.3768 Y-4.9768
G01 X29.3586 Y-4.9933
G01 X29.3389 Y-5.0079
G01 X29.3178 Y-5.0205
G01 X29.2957 Y-5.0310
G01 X29.2726 Y-5.0392
G01 X29.2488 Y-5.0452
G01 X29.2245 Y-5.0488
G01 X29.2000 Y-5.0500
G01 X29.1755 Y-5.0488
G01 X29.1512 Y-5.0452
G01 X29.1274 Y-5.0392
G01 X29.1043 Y-5.0310
G01 X29.0822 Y-5.0205
G01 X29.0611 Y-5.0079
G01 X29.0414 Y-4.9933
G01 X29.0232 Y-4.9768
G01 X29.0067 Y-4.9586
G01 X28.9921 Y-4.9389
G01 X28.9795 Y-4.9178
G01 X28.9690 Y-4.8957
G01 X28.9608 Y-4.8726
G01 X28.9548 Y-4.8488
G01 X28.9512 Y-4.8245
G01 X28.9500 Y-4.8000
G01 X28.9512 Y-4.7755
G01 X28.9548 Y-4.7512
G01 X28.9608 Y-4.7274
G01 X28.9690 Y-4.7043
G01 X28.9795 Y-4.6822
G01 X28.9921 Y-4.6611
G01 X29.0067 Y-4.6414
G01 X29.0232 Y-4.6232
G01 X29.0414 Y-4.6067
G01 X29.0611 Y-4.5921
G01 X29.0822 Y-4.5795
G01 X29.1043 Y-4.5690
G01 X29.1274 Y-4.5608
G01 X29.1512 Y-4.5548
G01 X29.1755 Y-4.5512
G01 X29.2000 Y-4.5500
G01 X29.2245 Y-4.5512
G01 X29.2488 Y-4.5548
G01 X29.2726 Y-4.5608
G01 X29.2957 Y-4.5690
G01 X29.3178 Y-4.5795
G01 X29.3389 Y-4.5921
G01 X29.3586 Y-4.6067
G01 X29.3768 Y-4.6232
G01 X29.3933 Y-4.6414
G01 X29.4079 Y-4.6611
G01 X29.4205 Y-4.6822
G01 X29.4310 Y-4.7043
G01 X29.4392 Y-4.7274
G01 X29.4452 Y-4.7512
G01 X29.4488 Y-4.7755
G01 X29.4500 Y-4.8000
G00 Z2.0000
M05
G00 Z2.0000
G00 Z15.00


M2
