(G-CODE GENERATED BY FLATCAM v8.994 - www.flatcam.org - Version Date: 2020/11/7)

(Name: buck_regulator-Edge_Cuts.gbr_cutout_cnc)
(Type: G-code from Geometry)
(Units: MM)

(Created on Saturday, 11 February 2023 at 14:11)

(This preprocessor is the default preprocessor used by FlatCAM.)
(It is made to work with MACH3 compatible motion controllers.)

(TOOL DIAMETER: 0.8 mm)
(Feedrate_XY: 200.0 mm/min)
(Feedrate_Z: 100.0 mm/min)
(Feedrate rapids 1500.0 mm/min)

(Z_Cut: -1.8 mm)
(DepthPerCut: 0.6 mm <=>3 passes)
(Z_Move: 2.0 mm)
(Z Start: None mm)
(Z End: 15.0 mm)
(X,Y End: None mm)
(Steps per circle: 64)
(Preprocessor Geometry: default)

(X range:   -0.5500 ...   48.5500  mm)
(Y range:  -32.5500 ...    0.5500  mm)

(Spindle Speed: 24000.0 RPM)
G21
G90
G94

G01 F200.00

M5
G00 Z15.0000
G00 X0.0000 Y0.0000
T1
M6    
(MSG, Change to Tool Dia = 0.8000)
M0
G00 Z15.0000

M03 S24000.0
G01 F200.00
G00 X-0.5500 Y-1.0000
G01 F100.00
G01 Z-0.6000
G01 F200.00
G01 X-0.5494 Y-0.9730
G01 X-0.5445 Y-0.8750
G01 X-0.5427 Y-0.8505
G01 X-0.5393 Y-0.8213
G01 X-0.5249 Y-0.7242
G01 X-0.5207 Y-0.7000
G01 X-0.5143 Y-0.6713
G01 X-0.4905 Y-0.5761
G01 X-0.4839 Y-0.5524
G01 X-0.4748 Y-0.5244
G01 X-0.4418 Y-0.4320
G01 X-0.4329 Y-0.4091
G01 X-0.4211 Y-0.3822
G01 X-0.3791 Y-0.2934
G01 X-0.3681 Y-0.2715
G01 X-0.3537 Y-0.2458
G01 X-0.3032 Y-0.1617
G01 X-0.2901 Y-0.1409
G01 X-0.2733 Y-0.1168
G01 X-0.2148 Y-0.0380
G01 X-0.1997 Y-0.0186
G01 X-0.1806 Y0.0038
G01 X-0.1146 Y0.0765
G01 X-0.0977 Y0.0943
G01 X-0.0765 Y0.1146
G01 X-0.0038 Y0.1806
G01 X0.0148 Y0.1966
G01 X0.0380 Y0.2148
G01 X0.1168 Y0.2733
G01 X0.1368 Y0.2874
G01 X0.1617 Y0.3032
G01 X0.2458 Y0.3537
G01 X0.2672 Y0.3658
G01 X0.2934 Y0.3791
G01 X0.3822 Y0.4211
G01 X0.4046 Y0.4310
G01 X0.4320 Y0.4418
G01 X0.5244 Y0.4748
G01 X0.5477 Y0.4825
G01 X0.5761 Y0.4905
G01 X0.6713 Y0.5143
G01 X0.6952 Y0.5197
G01 X0.7242 Y0.5249
G01 X0.8213 Y0.5393
G01 X0.8456 Y0.5423
G01 X0.8750 Y0.5445
G01 X0.9853 Y0.5498
G01 X47.0000 Y0.5500
G01 X47.0270 Y0.5494
G01 X47.1250 Y0.5445
G01 X47.1544 Y0.5423
G01 X47.1787 Y0.5393
G01 X47.2758 Y0.5249
G01 X47.3048 Y0.5197
G01 X47.3287 Y0.5143
G01 X47.4239 Y0.4905
G01 X47.4476 Y0.4839
G01 X47.4756 Y0.4748
G01 X47.5680 Y0.4418
G01 X47.5954 Y0.4310
G01 X47.6178 Y0.4211
G01 X47.7066 Y0.3791
G01 X47.7328 Y0.3658
G01 X47.7542 Y0.3537
G01 X47.8383 Y0.3032
G01 X47.8632 Y0.2874
G01 X47.8832 Y0.2733
G01 X47.9620 Y0.2148
G01 X47.9852 Y0.1966
G01 X48.0038 Y0.1806
G01 X48.0765 Y0.1146
G01 X48.0977 Y0.0943
G01 X48.1146 Y0.0765
G01 X48.1806 Y0.0038
G01 X48.1997 Y-0.0186
G01 X48.2148 Y-0.0380
G01 X48.2733 Y-0.1168
G01 X48.2901 Y-0.1409
G01 X48.3032 Y-0.1617
G01 X48.3537 Y-0.2458
G01 X48.3658 Y-0.2672
G01 X48.3791 Y-0.2934
G01 X48.4211 Y-0.3822
G01 X48.4329 Y-0.4091
G01 X48.4418 Y-0.4320
G01 X48.4748 Y-0.5244
G01 X48.4839 Y-0.5524
G01 X48.4905 Y-0.5761
G01 X48.5143 Y-0.6713
G01 X48.5207 Y-0.7000
G01 X48.5249 Y-0.7242
G01 X48.5393 Y-0.8213
G01 X48.5427 Y-0.8505
G01 X48.5445 Y-0.8750
G01 X48.5499 Y-0.9877
G01 X48.5500 Y-31.0000
G01 X48.5494 Y-31.0270
G01 X48.5445 Y-31.1250
G01 X48.5423 Y-31.1544
G01 X48.5393 Y-31.1787
G01 X48.5249 Y-31.2758
G01 X48.5197 Y-31.3048
G01 X48.5143 Y-31.3287
G01 X48.4905 Y-31.4239
G01 X48.4839 Y-31.4476
G01 X48.4748 Y-31.4756
G01 X48.4418 Y-31.5680
G01 X48.4310 Y-31.5954
G01 X48.4211 Y-31.6178
G01 X48.3791 Y-31.7066
G01 X48.3658 Y-31.7328
G01 X48.3537 Y-31.7542
G01 X48.3032 Y-31.8383
G01 X48.2874 Y-31.8632
G01 X48.2733 Y-31.8832
G01 X48.2148 Y-31.9620
G01 X48.1966 Y-31.9852
G01 X48.1806 Y-32.0038
G01 X48.1146 Y-32.0765
G01 X48.0943 Y-32.0977
G01 X48.0765 Y-32.1146
G01 X48.0038 Y-32.1806
G01 X47.9814 Y-32.1997
G01 X47.9620 Y-32.2148
G01 X47.8832 Y-32.2733
G01 X47.8591 Y-32.2901
G01 X47.8383 Y-32.3032
G01 X47.7542 Y-32.3537
G01 X47.7328 Y-32.3658
G01 X47.7066 Y-32.3791
G01 X47.6178 Y-32.4211
G01 X47.5909 Y-32.4329
G01 X47.5680 Y-32.4418
G01 X47.4756 Y-32.4748
G01 X47.4476 Y-32.4839
G01 X47.4239 Y-32.4905
G01 X47.3287 Y-32.5143
G01 X47.3000 Y-32.5207
G01 X47.2758 Y-32.5249
G01 X47.1787 Y-32.5393
G01 X47.1495 Y-32.5427
G01 X47.1250 Y-32.5445
G01 X47.0270 Y-32.5494
G01 X47.0000 Y-32.5500
G01 X1.0000 Y-32.5500
G01 X0.9730 Y-32.5494
G01 X0.8750 Y-32.5445
G01 X0.8456 Y-32.5423
G01 X0.8213 Y-32.5393
G01 X0.7242 Y-32.5249
G01 X0.6952 Y-32.5197
G01 X0.6713 Y-32.5143
G01 X0.5761 Y-32.4905
G01 X0.5524 Y-32.4839
G01 X0.5244 Y-32.4748
G01 X0.4320 Y-32.4418
G01 X0.4046 Y-32.4310
G01 X0.3822 Y-32.4211
G01 X0.2934 Y-32.3791
G01 X0.2672 Y-32.3658
G01 X0.2458 Y-32.3537
G01 X0.1617 Y-32.3032
G01 X0.1368 Y-32.2874
G01 X0.1168 Y-32.2733
G01 X0.0380 Y-32.2148
G01 X0.0148 Y-32.1966
G01 X-0.0038 Y-32.1806
G01 X-0.0765 Y-32.1146
G01 X-0.0977 Y-32.0943
G01 X-0.1146 Y-32.0765
G01 X-0.1806 Y-32.0038
G01 X-0.1997 Y-31.9814
G01 X-0.2148 Y-31.9620
G01 X-0.2733 Y-31.8832
G01 X-0.2901 Y-31.8591
G01 X-0.3032 Y-31.8383
G01 X-0.3537 Y-31.7542
G01 X-0.3658 Y-31.7328
G01 X-0.3791 Y-31.7066
G01 X-0.4211 Y-31.6178
G01 X-0.4329 Y-31.5909
G01 X-0.4418 Y-31.5680
G01 X-0.4748 Y-31.4756
G01 X-0.4839 Y-31.4476
G01 X-0.4905 Y-31.4239
G01 X-0.5143 Y-31.3287
G01 X-0.5207 Y-31.3000
G01 X-0.5249 Y-31.2758
G01 X-0.5393 Y-31.1787
G01 X-0.5427 Y-31.1495
G01 X-0.5445 Y-31.1250
G01 X-0.5499 Y-31.0123
G01 X-0.5500 Y-1.0000
G00 X-0.5500 Y-1.0000
G01 F100.00
G01 Z-1.2000
G01 F200.00
G01 X-0.5499 Y-31.0123
G01 X-0.5445 Y-31.1250
G01 X-0.5427 Y-31.1495
G01 X-0.5393 Y-31.1787
G01 X-0.5249 Y-31.2758
G01 X-0.5207 Y-31.3000
G01 X-0.5143 Y-31.3287
G01 X-0.4905 Y-31.4239
G01 X-0.4839 Y-31.4476
G01 X-0.4748 Y-31.4756
G01 X-0.4418 Y-31.5680
G01 X-0.4329 Y-31.5909
G01 X-0.4211 Y-31.6178
G01 X-0.3791 Y-31.7066
G01 X-0.3658 Y-31.7328
G01 X-0.3537 Y-31.7542
G01 X-0.3032 Y-31.8383
G01 X-0.2901 Y-31.8591
G01 X-0.2733 Y-31.8832
G01 X-0.2148 Y-31.9620
G01 X-0.1997 Y-31.9814
G01 X-0.1806 Y-32.0038
G01 X-0.1146 Y-32.0765
G01 X-0.0977 Y-32.0943
G01 X-0.0765 Y-32.1146
G01 X-0.0038 Y-32.1806
G01 X0.0148 Y-32.1966
G01 X0.0380 Y-32.2148
G01 X0.1168 Y-32.2733
G01 X0.1368 Y-32.2874
G01 X0.1617 Y-32.3032
G01 X0.2458 Y-32.3537
G01 X0.2672 Y-32.3658
G01 X0.2934 Y-32.3791
G01 X0.3822 Y-32.4211
G01 X0.4046 Y-32.4310
G01 X0.4320 Y-32.4418
G01 X0.5244 Y-32.4748
G01 X0.5524 Y-32.4839
G01 X0.5761 Y-32.4905
G01 X0.6713 Y-32.5143
G01 X0.6952 Y-32.5197
G01 X0.7242 Y-32.5249
G01 X0.8213 Y-32.5393
G01 X0.8456 Y-32.5423
G01 X0.8750 Y-32.5445
G01 X0.9730 Y-32.5494
G01 X1.0000 Y-32.5500
G01 X47.0000 Y-32.5500
G01 X47.0270 Y-32.5494
G01 X47.1250 Y-32.5445
G01 X47.1495 Y-32.5427
G01 X47.1787 Y-32.5393
G01 X47.2758 Y-32.5249
G01 X47.3000 Y-32.5207
G01 X47.3287 Y-32.5143
G01 X47.4239 Y-32.4905
G01 X47.4476 Y-32.4839
G01 X47.4756 Y-32.4748
G01 X47.5680 Y-32.4418
G01 X47.5909 Y-32.4329
G01 X47.6178 Y-32.4211
G01 X47.7066 Y-32.3791
G01 X47.7328 Y-32.3658
G01 X47.7542 Y-32.3537
G01 X47.8383 Y-32.3032
G01 X47.8591 Y-32.2901
G01 X47.8832 Y-32.2733
G01 X47.9620 Y-32.2148
G01 X47.9814 Y-32.1997
G01 X48.0038 Y-32.1806
G01 X48.0765 Y-32.1146
G01 X48.0943 Y-32.0977
G01 X48.1146 Y-32.0765
G01 X48.1806 Y-32.0038
G01 X48.1966 Y-31.9852
G01 X48.2148 Y-31.9620
G01 X48.2733 Y-31.8832
G01 X48.2874 Y-31.8632
G01 X48.3032 Y-31.8383
G01 X48.3537 Y-31.7542
G01 X48.3658 Y-31.7328
G01 X48.3791 Y-31.7066
G01 X48.4211 Y-31.6178
G01 X48.4310 Y-31.5954
G01 X48.4418 Y-31.5680
G01 X48.4748 Y-31.4756
G01 X48.4839 Y-31.4476
G01 X48.4905 Y-31.4239
G01 X48.5143 Y-31.3287
G01 X48.5197 Y-31.3048
G01 X48.5249 Y-31.2758
G01 X48.5393 Y-31.1787
G01 X48.5423 Y-31.1544
G01 X48.5445 Y-31.1250
G01 X48.5494 Y-31.0270
G01 X48.5500 Y-31.0000
G01 X48.5499 Y-0.9877
G01 X48.5445 Y-0.8750
G01 X48.5427 Y-0.8505
G01 X48.5393 Y-0.8213
G01 X48.5249 Y-0.7242
G01 X48.5207 Y-0.7000
G01 X48.5143 Y-0.6713
G01 X48.4905 Y-0.5761
G01 X48.4839 Y-0.5524
G01 X48.4748 Y-0.5244
G01 X48.4418 Y-0.4320
G01 X48.4329 Y-0.4091
G01 X48.4211 Y-0.3822
G01 X48.3791 Y-0.2934
G01 X48.3658 Y-0.2672
G01 X48.3537 Y-0.2458
G01 X48.3032 Y-0.1617
G01 X48.2901 Y-0.1409
G01 X48.2733 Y-0.1168
G01 X48.2148 Y-0.0380
G01 X48.1997 Y-0.0186
G01 X48.1806 Y0.0038
G01 X48.1146 Y0.0765
G01 X48.0977 Y0.0943
G01 X48.0765 Y0.1146
G01 X48.0038 Y0.1806
G01 X47.9852 Y0.1966
G01 X47.9620 Y0.2148
G01 X47.8832 Y0.2733
G01 X47.8632 Y0.2874
G01 X47.8383 Y0.3032
G01 X47.7542 Y0.3537
G01 X47.7328 Y0.3658
G01 X47.7066 Y0.3791
G01 X47.6178 Y0.4211
G01 X47.5954 Y0.4310
G01 X47.5680 Y0.4418
G01 X47.4756 Y0.4748
G01 X47.4476 Y0.4839
G01 X47.4239 Y0.4905
G01 X47.3287 Y0.5143
G01 X47.3048 Y0.5197
G01 X47.2758 Y0.5249
G01 X47.1787 Y0.5393
G01 X47.1544 Y0.5423
G01 X47.1250 Y0.5445
G01 X47.0270 Y0.5494
G01 X47.0000 Y0.5500
G01 X0.9853 Y0.5498
G01 X0.8750 Y0.5445
G01 X0.8456 Y0.5423
G01 X0.8213 Y0.5393
G01 X0.7242 Y0.5249
G01 X0.6952 Y0.5197
G01 X0.6713 Y0.5143
G01 X0.5761 Y0.4905
G01 X0.5477 Y0.4825
G01 X0.5244 Y0.4748
G01 X0.4320 Y0.4418
G01 X0.4046 Y0.4310
G01 X0.3822 Y0.4211
G01 X0.2934 Y0.3791
G01 X0.2672 Y0.3658
G01 X0.2458 Y0.3537
G01 X0.1617 Y0.3032
G01 X0.1368 Y0.2874
G01 X0.1168 Y0.2733
G01 X0.0380 Y0.2148
G01 X0.0148 Y0.1966
G01 X-0.0038 Y0.1806
G01 X-0.0765 Y0.1146
G01 X-0.0977 Y0.0943
G01 X-0.1146 Y0.0765
G01 X-0.1806 Y0.0038
G01 X-0.1997 Y-0.0186
G01 X-0.2148 Y-0.0380
G01 X-0.2733 Y-0.1168
G01 X-0.2901 Y-0.1409
G01 X-0.3032 Y-0.1617
G01 X-0.3537 Y-0.2458
G01 X-0.3681 Y-0.2715
G01 X-0.3791 Y-0.2934
G01 X-0.4211 Y-0.3822
G01 X-0.4329 Y-0.4091
G01 X-0.4418 Y-0.4320
G01 X-0.4748 Y-0.5244
G01 X-0.4839 Y-0.5524
G01 X-0.4905 Y-0.5761
G01 X-0.5143 Y-0.6713
G01 X-0.5207 Y-0.7000
G01 X-0.5249 Y-0.7242
G01 X-0.5393 Y-0.8213
G01 X-0.5427 Y-0.8505
G01 X-0.5445 Y-0.8750
G01 X-0.5494 Y-0.9730
G01 X-0.5500 Y-1.0000
G00 X-0.5500 Y-1.0000
G01 F100.00
G01 Z-1.8000
G01 F200.00
G01 X-0.5494 Y-0.9730
G01 X-0.5445 Y-0.8750
G01 X-0.5427 Y-0.8505
G01 X-0.5393 Y-0.8213
G01 X-0.5249 Y-0.7242
G01 X-0.5207 Y-0.7000
G01 X-0.5143 Y-0.6713
G01 X-0.4905 Y-0.5761
G01 X-0.4839 Y-0.5524
G01 X-0.4748 Y-0.5244
G01 X-0.4418 Y-0.4320
G01 X-0.4329 Y-0.4091
G01 X-0.4211 Y-0.3822
G01 X-0.3791 Y-0.2934
G01 X-0.3681 Y-0.2715
G01 X-0.3537 Y-0.2458
G01 X-0.3032 Y-0.1617
G01 X-0.2901 Y-0.1409
G01 X-0.2733 Y-0.1168
G01 X-0.2148 Y-0.0380
G01 X-0.1997 Y-0.0186
G01 X-0.1806 Y0.0038
G01 X-0.1146 Y0.0765
G01 X-0.0977 Y0.0943
G01 X-0.0765 Y0.1146
G01 X-0.0038 Y0.1806
G01 X0.0148 Y0.1966
G01 X0.0380 Y0.2148
G01 X0.1168 Y0.2733
G01 X0.1368 Y0.2874
G01 X0.1617 Y0.3032
G01 X0.2458 Y0.3537
G01 X0.2672 Y0.3658
G01 X0.2934 Y0.3791
G01 X0.3822 Y0.4211
G01 X0.4046 Y0.4310
G01 X0.4320 Y0.4418
G01 X0.5244 Y0.4748
G01 X0.5477 Y0.4825
G01 X0.5761 Y0.4905
G01 X0.6713 Y0.5143
G01 X0.6952 Y0.5197
G01 X0.7242 Y0.5249
G01 X0.8213 Y0.5393
G01 X0.8456 Y0.5423
G01 X0.8750 Y0.5445
G01 X0.9853 Y0.5498
G01 X47.0000 Y0.5500
G01 X47.0270 Y0.5494
G01 X47.1250 Y0.5445
G01 X47.1544 Y0.5423
G01 X47.1787 Y0.5393
G01 X47.2758 Y0.5249
G01 X47.3048 Y0.5197
G01 X47.3287 Y0.5143
G01 X47.4239 Y0.4905
G01 X47.4476 Y0.4839
G01 X47.4756 Y0.4748
G01 X47.5680 Y0.4418
G01 X47.5954 Y0.4310
G01 X47.6178 Y0.4211
G01 X47.7066 Y0.3791
G01 X47.7328 Y0.3658
G01 X47.7542 Y0.3537
G01 X47.8383 Y0.3032
G01 X47.8632 Y0.2874
G01 X47.8832 Y0.2733
G01 X47.9620 Y0.2148
G01 X47.9852 Y0.1966
G01 X48.0038 Y0.1806
G01 X48.0765 Y0.1146
G01 X48.0977 Y0.0943
G01 X48.1146 Y0.0765
G01 X48.1806 Y0.0038
G01 X48.1997 Y-0.0186
G01 X48.2148 Y-0.0380
G01 X48.2733 Y-0.1168
G01 X48.2901 Y-0.1409
G01 X48.3032 Y-0.1617
G01 X48.3537 Y-0.2458
G01 X48.3658 Y-0.2672
G01 X48.3791 Y-0.2934
G01 X48.4211 Y-0.3822
G01 X48.4329 Y-0.4091
G01 X48.4418 Y-0.4320
G01 X48.4748 Y-0.5244
G01 X48.4839 Y-0.5524
G01 X48.4905 Y-0.5761
G01 X48.5143 Y-0.6713
G01 X48.5207 Y-0.7000
G01 X48.5249 Y-0.7242
G01 X48.5393 Y-0.8213
G01 X48.5427 Y-0.8505
G01 X48.5445 Y-0.8750
G01 X48.5499 Y-0.9877
G01 X48.5500 Y-31.0000
G01 X48.5494 Y-31.0270
G01 X48.5445 Y-31.1250
G01 X48.5423 Y-31.1544
G01 X48.5393 Y-31.1787
G01 X48.5249 Y-31.2758
G01 X48.5197 Y-31.3048
G01 X48.5143 Y-31.3287
G01 X48.4905 Y-31.4239
G01 X48.4839 Y-31.4476
G01 X48.4748 Y-31.4756
G01 X48.4418 Y-31.5680
G01 X48.4310 Y-31.5954
G01 X48.4211 Y-31.6178
G01 X48.3791 Y-31.7066
G01 X48.3658 Y-31.7328
G01 X48.3537 Y-31.7542
G01 X48.3032 Y-31.8383
G01 X48.2874 Y-31.8632
G01 X48.2733 Y-31.8832
G01 X48.2148 Y-31.9620
G01 X48.1966 Y-31.9852
G01 X48.1806 Y-32.0038
G01 X48.1146 Y-32.0765
G01 X48.0943 Y-32.0977
G01 X48.0765 Y-32.1146
G01 X48.0038 Y-32.1806
G01 X47.9814 Y-32.1997
G01 X47.9620 Y-32.2148
G01 X47.8832 Y-32.2733
G01 X47.8591 Y-32.2901
G01 X47.8383 Y-32.3032
G01 X47.7542 Y-32.3537
G01 X47.7328 Y-32.3658
G01 X47.7066 Y-32.3791
G01 X47.6178 Y-32.4211
G01 X47.5909 Y-32.4329
G01 X47.5680 Y-32.4418
G01 X47.4756 Y-32.4748
G01 X47.4476 Y-32.4839
G01 X47.4239 Y-32.4905
G01 X47.3287 Y-32.5143
G01 X47.3000 Y-32.5207
G01 X47.2758 Y-32.5249
G01 X47.1787 Y-32.5393
G01 X47.1495 Y-32.5427
G01 X47.1250 Y-32.5445
G01 X47.0270 Y-32.5494
G01 X47.0000 Y-32.5500
G01 X1.0000 Y-32.5500
G01 X0.9730 Y-32.5494
G01 X0.8750 Y-32.5445
G01 X0.8456 Y-32.5423
G01 X0.8213 Y-32.5393
G01 X0.7242 Y-32.5249
G01 X0.6952 Y-32.5197
G01 X0.6713 Y-32.5143
G01 X0.5761 Y-32.4905
G01 X0.5524 Y-32.4839
G01 X0.5244 Y-32.4748
G01 X0.4320 Y-32.4418
G01 X0.4046 Y-32.4310
G01 X0.3822 Y-32.4211
G01 X0.2934 Y-32.3791
G01 X0.2672 Y-32.3658
G01 X0.2458 Y-32.3537
G01 X0.1617 Y-32.3032
G01 X0.1368 Y-32.2874
G01 X0.1168 Y-32.2733
G01 X0.0380 Y-32.2148
G01 X0.0148 Y-32.1966
G01 X-0.0038 Y-32.1806
G01 X-0.0765 Y-32.1146
G01 X-0.0977 Y-32.0943
G01 X-0.1146 Y-32.0765
G01 X-0.1806 Y-32.0038
G01 X-0.1997 Y-31.9814
G01 X-0.2148 Y-31.9620
G01 X-0.2733 Y-31.8832
G01 X-0.2901 Y-31.8591
G01 X-0.3032 Y-31.8383
G01 X-0.3537 Y-31.7542
G01 X-0.3658 Y-31.7328
G01 X-0.3791 Y-31.7066
G01 X-0.4211 Y-31.6178
G01 X-0.4329 Y-31.5909
G01 X-0.4418 Y-31.5680
G01 X-0.4748 Y-31.4756
G01 X-0.4839 Y-31.4476
G01 X-0.4905 Y-31.4239
G01 X-0.5143 Y-31.3287
G01 X-0.5207 Y-31.3000
G01 X-0.5249 Y-31.2758
G01 X-0.5393 Y-31.1787
G01 X-0.5427 Y-31.1495
G01 X-0.5445 Y-31.1250
G01 X-0.5499 Y-31.0123
G01 X-0.5500 Y-1.0000
G00 Z2.0000
M05
G00 Z2.0000
G00 Z15.00


M2
