(G-CODE GENERATED BY FLATCAM v8.994 - www.flatcam.org - Version Date: 2020/11/7)

(Name: buck_regulator-F_Cu.gbr_iso_combined_cnc)
(Type: G-code from Geometry)
(Units: MM)

(Created on Saturday, 11 February 2023 at 13:47)

(This preprocessor is the default preprocessor used by FlatCAM.)
(It is made to work with MACH3 compatible motion controllers.)

(TOOL DIAMETER: 0.19 mm)
(Feedrate_XY: 500.0 mm/min)
(Feedrate_Z: 250.0 mm/min)
(Feedrate rapids 1500.0 mm/min)

(Z_Cut: -0.1086 mm)
(Z_Move: 2.0 mm)
(Z Start: None mm)
(Z End: 15.0 mm)
(X,Y End: None mm)
(Steps per circle: 64)
(Preprocessor Geometry: default)

(X range:   -0.4785 ...   48.0005  mm)
(Y range:  -32.4785 ...    0.4785  mm)

(Spindle Speed: 24000.0 RPM)
G21
G90
G94

G01 F500.00

M5
G00 Z15.0000
G00 X0.0000 Y0.0000
T1
M6    
(MSG, Change to Tool Dia = 0.1900)
M0
G00 Z15.0000

M03 S24000.0
G01 F500.00
G00 X0.2055 Y-1.0393
G01 F250.00
G01 Z-0.1086
G01 F500.00
G01 X0.2055 Y-30.9627
G01 X0.2087 Y-31.0001
G01 X0.2080 Y-31.0081
G01 X0.2079 Y-31.0168
G01 X0.2088 Y-31.0384
G01 X0.2180 Y-31.1312
G01 X0.2193 Y-31.1404
G01 X0.2266 Y-31.1759
G01 X0.2593 Y-31.2834
G01 X0.2729 Y-31.3170
G01 X0.2769 Y-31.3254
G01 X0.3312 Y-31.4265
G01 X0.3528 Y-31.4584
G01 X0.4226 Y-31.5435
G01 X0.4289 Y-31.5505
G01 X0.4547 Y-31.5759
G01 X0.5398 Y-31.6457
G01 X0.5473 Y-31.6513
G01 X0.5775 Y-31.6712
G01 X0.6767 Y-31.7242
G01 X0.7100 Y-31.7383
G01 X0.7188 Y-31.7414
G01 X0.8241 Y-31.7734
G01 X0.8596 Y-31.7807
G01 X0.8688 Y-31.7820
G01 X0.9616 Y-31.7912
G01 X0.9832 Y-31.7921
G01 X0.9919 Y-31.7920
G01 X0.9999 Y-31.7913
G01 X1.0310 Y-31.7941
G01 X1.0393 Y-31.7945
G01 X9.5613 Y-31.7945
G01 X9.5737 Y-31.7937
G01 X9.6168 Y-31.7879
G01 X9.6281 Y-31.7851
G01 X9.6390 Y-31.7810
G01 X9.6473 Y-31.7767
G01 X9.7201 Y-31.7344
G01 X9.7277 Y-31.7286
G01 X9.7346 Y-31.7222
G01 X9.7409 Y-31.7151
G01 X9.7451 Y-31.7094
G01 X9.7875 Y-31.6366
G01 X9.7918 Y-31.6281
G01 X9.7952 Y-31.6193
G01 X9.7983 Y-31.6079
G01 X9.7997 Y-31.5985
G01 X9.8002 Y-31.5891
G01 X9.8002 Y-31.5096
G01 X9.7991 Y-31.4978
G01 X9.7966 Y-31.4862
G01 X9.7927 Y-31.4750
G01 X9.7886 Y-31.4665
G01 X9.7465 Y-31.3938
G01 X9.7399 Y-31.3847
G01 X9.7338 Y-31.3780
G01 X8.8946 Y-30.5388
G01 X8.8887 Y-30.5334
G01 X8.8697 Y-30.5173
G01 X8.8603 Y-30.5102
G01 X8.8423 Y-30.4880
G01 X8.8302 Y-30.4745
G01 X8.8070 Y-30.4512
G01 X8.8015 Y-30.4419
G01 X8.7867 Y-30.4200
G01 X8.7817 Y-30.4132
G01 X8.7682 Y-30.3821
G01 X8.7610 Y-30.3675
G01 X8.7457 Y-30.3398
G01 X8.7435 Y-30.3317
G01 X8.7351 Y-30.3065
G01 X8.7321 Y-30.2986
G01 X8.7278 Y-30.2673
G01 X8.7249 Y-30.2513
G01 X8.7173 Y-30.2183
G01 X8.7181 Y-30.1950
G01 X8.7168 Y-30.1638
G01 X8.7159 Y-30.1569
G01 X8.7146 Y-30.1500
G01 X8.7127 Y-30.1433
G01 X8.7103 Y-30.1368
G01 X8.6816 Y-30.0652
G01 X8.6757 Y-30.0530
G01 X8.6695 Y-30.0436
G01 X8.6157 Y-29.9717
G01 X8.5743 Y-29.8614
G01 X8.5695 Y-29.8172
G01 X8.5695 Y-29.1828
G01 X8.5743 Y-29.1386
G01 X8.6157 Y-29.0283
G01 X8.6853 Y-28.9353
G01 X8.7237 Y-28.9065
G01 X8.7310 Y-28.9002
G01 X8.7771 Y-28.8485
G01 X8.7828 Y-28.8411
G01 X8.7865 Y-28.8352
G01 X8.7917 Y-28.8249
G01 X8.7957 Y-28.8140
G01 X8.8168 Y-28.7351
G01 X8.8188 Y-28.7240
G01 X8.8195 Y-28.7127
G01 X8.8195 Y-28.3893
G01 X8.8188 Y-28.3747
G01 X8.8176 Y-28.3655
G01 X8.8195 Y-28.3144
G01 X8.8194 Y-28.2700
G01 X8.8185 Y-28.2610
G01 X8.8168 Y-28.2521
G01 X8.7963 Y-28.1754
G01 X8.7925 Y-28.1642
G01 X8.7885 Y-28.1556
G01 X8.7837 Y-28.1475
G01 X8.7765 Y-28.1380
G01 X8.7172 Y-28.0783
G01 X8.7102 Y-28.0719
G01 X8.7045 Y-28.0676
G01 X8.6985 Y-28.0638
G01 X8.6923 Y-28.0604
G01 X8.6858 Y-28.0575
G01 X8.6791 Y-28.0550
G01 X8.5979 Y-28.0332
G01 X8.5868 Y-28.0312
G01 X8.5755 Y-28.0305
G01 X8.1828 Y-28.0305
G01 X8.1386 Y-28.0257
G01 X8.0283 Y-27.9843
G01 X7.9353 Y-27.9147
G01 X7.8657 Y-27.8217
G01 X7.8243 Y-27.7114
G01 X7.8195 Y-27.6672
G01 X7.8195 Y-27.1828
G01 X7.8243 Y-27.1386
G01 X7.8657 Y-27.0283
G01 X7.9353 Y-26.9353
G01 X8.0283 Y-26.8657
G01 X8.1274 Y-26.8285
G01 X8.1377 Y-26.8239
G01 X8.1900 Y-26.7935
G01 X8.1958 Y-26.7893
G01 X8.2012 Y-26.7846
G01 X8.2062 Y-26.7795
G01 X8.2109 Y-26.7741
G01 X8.2613 Y-26.7036
G01 X8.2649 Y-26.6975
G01 X8.2680 Y-26.6911
G01 X8.2722 Y-26.6800
G01 X8.2745 Y-26.6709
G01 X8.2756 Y-26.6638
G01 X8.2835 Y-26.5824
G01 X8.2838 Y-26.5753
G01 X8.2835 Y-26.5682
G01 X8.2827 Y-26.5611
G01 X8.2808 Y-26.5518
G01 X8.2787 Y-26.5450
G01 X8.2762 Y-26.5384
G01 X8.2413 Y-26.4617
G01 X8.2365 Y-26.4536
G01 X8.2324 Y-26.4477
G01 X8.2279 Y-26.4423
G01 X8.2213 Y-26.4355
G01 X8.2121 Y-26.4280
G01 X8.1493 Y-26.3832
G01 X8.1378 Y-26.3761
G01 X8.1274 Y-26.3715
G01 X8.0283 Y-26.3343
G01 X7.9353 Y-26.2647
G01 X7.8657 Y-26.1717
G01 X7.8243 Y-26.0614
G01 X7.8195 Y-26.0172
G01 X7.8194 Y-25.8348
G01 X7.8187 Y-25.8273
G01 X7.8124 Y-25.7819
G01 X7.8094 Y-25.7706
G01 X7.8069 Y-25.7641
G01 X7.8039 Y-25.7578
G01 X7.7595 Y-25.6811
G01 X7.7541 Y-25.6739
G01 X7.7480 Y-25.6672
G01 X7.1196 Y-25.0388
G01 X7.1137 Y-25.0334
G01 X7.0947 Y-25.0173
G01 X7.0853 Y-25.0102
G01 X7.0673 Y-24.9880
G01 X7.0552 Y-24.9745
G01 X7.0320 Y-24.9512
G01 X7.0265 Y-24.9419
G01 X7.0117 Y-24.9200
G01 X7.0067 Y-24.9132
G01 X6.9932 Y-24.8821
G01 X6.9860 Y-24.8675
G01 X6.9707 Y-24.8398
G01 X6.9685 Y-24.8317
G01 X6.9601 Y-24.8065
G01 X6.9571 Y-24.7986
G01 X6.9536 Y-24.7748
G01 X6.9415 Y-24.7302
G01 X6.9375 Y-24.7193
G01 X6.9321 Y-24.7089
G01 X6.9256 Y-24.6993
G01 X6.8740 Y-24.6331
G01 X6.8642 Y-24.6237
G01 X6.8427 Y-24.6073
G01 X6.7714 Y-24.5133
G01 X6.7277 Y-24.4030
G01 X6.7195 Y-24.3351
G01 X6.7195 Y-23.8149
G01 X6.7277 Y-23.7471
G01 X6.7714 Y-23.6367
G01 X6.8430 Y-23.5424
G01 X6.8518 Y-23.5341
G01 X6.8671 Y-23.5165
G01 X6.8727 Y-23.5088
G01 X6.8774 Y-23.5006
G01 X6.8804 Y-23.4941
G01 X6.9128 Y-23.4164
G01 X6.9154 Y-23.4072
G01 X6.9170 Y-23.3979
G01 X6.9177 Y-23.3885
G01 X6.9174 Y-23.3790
G01 X6.9066 Y-23.2931
G01 X6.9051 Y-23.2861
G01 X6.9031 Y-23.2793
G01 X6.9006 Y-23.2727
G01 X6.8964 Y-23.2642
G01 X6.8928 Y-23.2581
G01 X6.8887 Y-23.2522
G01 X6.8378 Y-23.1856
G01 X6.8299 Y-23.1775
G01 X6.8202 Y-23.1697
G01 X6.7303 Y-23.0798
G01 X6.7262 Y-23.0745
G01 X6.6614 Y-22.9650
G01 X6.6588 Y-22.9589
G01 X6.6329 Y-22.8700
G01 X6.8534 Y-22.8700
G01 X6.8678 Y-22.9008
G01 X6.8814 Y-22.9238
G01 X6.8866 Y-22.9316
G01 X6.9026 Y-22.9530
G01 X6.9205 Y-22.9729
G01 X6.9271 Y-22.9795
G01 X6.9470 Y-22.9974
G01 X6.9722 Y-23.0161
G01 X6.9951 Y-23.0299
G01 X7.0033 Y-23.0343
G01 X7.0275 Y-23.0456
G01 X7.0527 Y-23.0548
G01 X7.0616 Y-23.0575
G01 X7.0876 Y-23.0639
G01 X7.1186 Y-23.0685
G01 X7.1500 Y-23.0700
G01 X7.6500 Y-23.0700
G01 X7.6767 Y-23.0688
G01 X7.6860 Y-23.0679
G01 X7.7124 Y-23.0639
G01 X7.7429 Y-23.0562
G01 X7.7725 Y-23.0456
G01 X7.7967 Y-23.0343
G01 X7.8049 Y-23.0299
G01 X7.8278 Y-23.0161
G01 X7.8530 Y-22.9974
G01 X7.8729 Y-22.9795
G01 X7.8795 Y-22.9729
G01 X7.8974 Y-22.9530
G01 X7.9161 Y-22.9278
G01 X7.9299 Y-22.9049
G01 X7.9343 Y-22.8967
G01 X7.9466 Y-22.8700
G01 X8.2105 Y-22.8700
G01 X8.2229 Y-22.8692
G01 X8.2660 Y-22.8634
G01 X8.2751 Y-22.8613
G01 X8.2818 Y-22.8591
G01 X8.2882 Y-22.8565
G01 X8.2945 Y-22.8533
G01 X8.3521 Y-22.8201
G01 X8.3683 Y-22.8201
G01 X8.3797 Y-22.8389
G01 X8.3941 Y-22.8585
G01 X8.3985 Y-22.8639
G01 X8.4148 Y-22.8819
G01 X8.4379 Y-22.9030
G01 X8.4573 Y-22.9176
G01 X8.4650 Y-22.9228
G01 X8.4859 Y-22.9352
G01 X8.5078 Y-22.9457
G01 X8.5143 Y-22.9484
G01 X8.5349 Y-22.9558
G01 X8.5439 Y-22.9585
G01 X8.5674 Y-22.9643
G01 X8.5984 Y-22.9688
G01 X8.6250 Y-22.9700
G01 X9.1750 Y-22.9700
G01 X9.2062 Y-22.9683
G01 X9.2303 Y-22.9648
G01 X9.2371 Y-22.9633
G01 X9.2606 Y-22.9573
G01 X9.2835 Y-22.9492
G01 X9.2922 Y-22.9457
G01 X9.3141 Y-22.9352
G01 X9.3389 Y-22.9203
G01 X9.3621 Y-22.9030
G01 X9.3802 Y-22.8868
G01 X9.3868 Y-22.8802
G01 X9.4015 Y-22.8639
G01 X9.4059 Y-22.8585
G01 X9.4203 Y-22.8389
G01 X9.4317 Y-22.8201
G01 X9.8683 Y-22.8201
G01 X9.8797 Y-22.8389
G01 X9.8941 Y-22.8585
G01 X9.8985 Y-22.8639
G01 X9.9132 Y-22.8802
G01 X9.9181 Y-22.8852
G01 X9.9361 Y-22.9015
G01 X9.9592 Y-22.9190
G01 X9.9859 Y-22.9352
G01 X10.0121 Y-22.9475
G01 X10.0394 Y-22.9573
G01 X10.0697 Y-22.9648
G01 X10.0961 Y-22.9686
G01 X10.1250 Y-22.9700
G01 X10.6750 Y-22.9700
G01 X10.6993 Y-22.9689
G01 X10.7085 Y-22.9680
G01 X10.7326 Y-22.9643
G01 X10.7561 Y-22.9585
G01 X10.7651 Y-22.9558
G01 X10.7879 Y-22.9475
G01 X10.8099 Y-22.9373
G01 X10.8181 Y-22.9329
G01 X10.8389 Y-22.9203
G01 X10.8585 Y-22.9059
G01 X10.8657 Y-22.9000
G01 X10.8836 Y-22.8836
G01 X10.9000 Y-22.8657
G01 X10.9059 Y-22.8585
G01 X10.9203 Y-22.8389
G01 X10.9317 Y-22.8200
G01 X11.1615 Y-22.8200
G01 X11.1175 Y-22.9265
G01 X11.1140 Y-22.9324
G01 X11.0373 Y-23.0324
G01 X11.0324 Y-23.0373
G01 X10.9324 Y-23.1140
G01 X10.9265 Y-23.1175
G01 X10.8925 Y-23.1318
G01 X10.8681 Y-23.1443
G01 X10.8566 Y-23.1520
G01 X10.8464 Y-23.1613
G01 X10.7931 Y-23.2170
G01 X10.7869 Y-23.2242
G01 X10.7815 Y-23.2319
G01 X10.7779 Y-23.2381
G01 X10.7739 Y-23.2466
G01 X10.7707 Y-23.2556
G01 X10.7507 Y-23.3374
G01 X10.7495 Y-23.3444
G01 X10.7487 Y-23.3515
G01 X10.7486 Y-23.3609
G01 X10.7491 Y-23.3680
G01 X10.7506 Y-23.3774
G01 X10.7524 Y-23.3842
G01 X10.7754 Y-23.4628
G01 X10.7800 Y-23.4737
G01 X10.7859 Y-23.4840
G01 X10.7915 Y-23.4916
G01 X10.7979 Y-23.4986
G01 X10.8550 Y-23.5531
G01 X10.9647 Y-23.6353
G01 X11.0343 Y-23.7283
G01 X11.0757 Y-23.8386
G01 X11.0805 Y-23.8828
G01 X11.0805 Y-24.3672
G01 X11.0757 Y-24.4114
G01 X11.0343 Y-24.5217
G01 X10.9647 Y-24.6147
G01 X10.8717 Y-24.6843
G01 X10.7614 Y-24.7257
G01 X10.7172 Y-24.7305
G01 X10.5995 Y-24.7305
G01 X10.5860 Y-24.7315
G01 X10.5749 Y-24.7337
G01 X10.4981 Y-24.7543
G01 X10.4914 Y-24.7566
G01 X10.4849 Y-24.7594
G01 X10.4785 Y-24.7626
G01 X10.4725 Y-24.7663
G01 X10.4648 Y-24.7719
G01 X10.4595 Y-24.7766
G01 X10.4033 Y-24.8328
G01 X10.3955 Y-24.8417
G01 X10.3888 Y-24.8515
G01 X10.3834 Y-24.8620
G01 X10.3793 Y-24.8731
G01 X10.3582 Y-24.9521
G01 X10.3559 Y-24.9655
G01 X10.3555 Y-24.9745
G01 X10.3555 Y-25.2010
G01 X10.3559 Y-25.2100
G01 X10.3582 Y-25.2234
G01 X10.3800 Y-25.3046
G01 X10.3825 Y-25.3113
G01 X10.3865 Y-25.3199
G01 X10.3913 Y-25.3280
G01 X10.3955 Y-25.3338
G01 X10.4033 Y-25.3427
G01 X10.4595 Y-25.3989
G01 X10.4667 Y-25.4050
G01 X10.4765 Y-25.4117
G01 X10.4870 Y-25.4171
G01 X10.4981 Y-25.4212
G01 X10.5793 Y-25.4428
G01 X10.5905 Y-25.4446
G01 X10.5995 Y-25.4450
G01 X10.9050 Y-25.4450
G01 X10.9050 Y-25.6550
G01 X10.6250 Y-25.6550
G01 X10.6083 Y-25.6558
G01 X10.5918 Y-25.6583
G01 X10.5801 Y-25.6611
G01 X10.5734 Y-25.6630
G01 X10.5599 Y-25.6679
G01 X10.5469 Y-25.6740
G01 X10.5408 Y-25.6774
G01 X10.5306 Y-25.6837
G01 X10.5190 Y-25.6921
G01 X10.5065 Y-25.7032
G01 X10.4966 Y-25.7136
G01 X10.4863 Y-25.7267
G01 X10.4812 Y-25.7345
G01 X10.4740 Y-25.7469
G01 X10.4671 Y-25.7621
G01 X10.4623 Y-25.7757
G01 X10.4583 Y-25.7918
G01 X10.4558 Y-25.8083
G01 X10.4550 Y-25.8250
G01 X10.4550 Y-25.9773
G01 X10.4558 Y-25.9917
G01 X10.4575 Y-26.0036
G01 X10.4593 Y-26.0127
G01 X10.4630 Y-26.0266
G01 X10.4679 Y-26.0401
G01 X10.4751 Y-26.0551
G01 X10.4837 Y-26.0694
G01 X10.4907 Y-26.0792
G01 X10.4966 Y-26.0864
G01 X10.5065 Y-26.0968
G01 X10.5172 Y-26.1064
G01 X10.5306 Y-26.1163
G01 X10.5449 Y-26.1249
G01 X10.5557 Y-26.1302
G01 X10.5643 Y-26.1337
G01 X10.5779 Y-26.1383
G01 X10.5918 Y-26.1417
G01 X10.6083 Y-26.1442
G01 X10.6250 Y-26.1450
G01 X12.0171 Y-26.1451
G01 X12.0131 Y-26.1558
G01 X12.0095 Y-26.1624
G01 X12.0026 Y-26.1717
G01 X11.9899 Y-26.1909
G01 X11.9853 Y-26.1991
G01 X11.9816 Y-26.2077
G01 X11.9787 Y-26.2166
G01 X11.9587 Y-26.2911
G01 X11.9568 Y-26.3000
G01 X11.9557 Y-26.3089
G01 X11.9555 Y-26.3157
G01 X11.9555 Y-26.5037
G01 X11.9479 Y-26.5556
G01 X11.9447 Y-26.5638
G01 X11.9388 Y-26.5839
G01 X11.9371 Y-26.5931
G01 X11.9364 Y-26.6017
G01 X11.9324 Y-26.6165
G01 X11.9310 Y-26.6235
G01 X11.9298 Y-26.6354
G01 X11.9299 Y-26.6449
G01 X11.9307 Y-26.6520
G01 X11.9366 Y-26.6840
G01 X11.9361 Y-26.6971
G01 X11.9372 Y-26.7087
G01 X11.9385 Y-26.7156
G01 X11.9404 Y-26.7223
G01 X11.9446 Y-26.7357
G01 X11.9478 Y-26.7439
G01 X11.9555 Y-26.7964
G01 X11.9555 Y-27.0037
G01 X11.9479 Y-27.0556
G01 X11.9440 Y-27.0661
G01 X11.9399 Y-27.0794
G01 X11.9383 Y-27.0862
G01 X11.9371 Y-27.0931
G01 X11.9364 Y-27.1017
G01 X11.9324 Y-27.1165
G01 X11.9310 Y-27.1235
G01 X11.9299 Y-27.1330
G01 X11.9298 Y-27.1401
G01 X11.9301 Y-27.1473
G01 X11.9310 Y-27.1544
G01 X11.9366 Y-27.1840
G01 X11.9361 Y-27.1971
G01 X11.9372 Y-27.2087
G01 X11.9385 Y-27.2156
G01 X11.9404 Y-27.2223
G01 X11.9446 Y-27.2357
G01 X11.9478 Y-27.2439
G01 X11.9555 Y-27.2964
G01 X11.9555 Y-27.5037
G01 X11.9479 Y-27.5556
G01 X11.9440 Y-27.5661
G01 X11.9399 Y-27.5794
G01 X11.9383 Y-27.5862
G01 X11.9371 Y-27.5931
G01 X11.9364 Y-27.6017
G01 X11.9324 Y-27.6165
G01 X11.9310 Y-27.6235
G01 X11.9299 Y-27.6330
G01 X11.9298 Y-27.6401
G01 X11.9301 Y-27.6473
G01 X11.9310 Y-27.6544
G01 X11.9366 Y-27.6840
G01 X11.9361 Y-27.6971
G01 X11.9372 Y-27.7087
G01 X11.9385 Y-27.7156
G01 X11.9404 Y-27.7223
G01 X11.9446 Y-27.7357
G01 X11.9478 Y-27.7439
G01 X11.9555 Y-27.7964
G01 X11.9555 Y-28.0037
G01 X11.9480 Y-28.0554
G01 X11.9065 Y-28.1401
G01 X11.8405 Y-28.2062
G01 X11.7559 Y-28.2478
G01 X11.7036 Y-28.2555
G01 X11.2239 Y-28.2555
G01 X11.2140 Y-28.2563
G01 X11.1754 Y-28.2614
G01 X11.1662 Y-28.2631
G01 X11.1595 Y-28.2649
G01 X11.1529 Y-28.2672
G01 X11.1465 Y-28.2700
G01 X11.1403 Y-28.2733
G01 X11.0715 Y-28.3131
G01 X11.0637 Y-28.3184
G01 X11.0547 Y-28.3261
G01 X11.0468 Y-28.3349
G01 X11.0400 Y-28.3446
G01 X10.9990 Y-28.4155
G01 X10.9959 Y-28.4219
G01 X10.9932 Y-28.4284
G01 X10.9910 Y-28.4352
G01 X10.9893 Y-28.4421
G01 X10.9882 Y-28.4491
G01 X10.9875 Y-28.4586
G01 X10.9875 Y-28.5404
G01 X10.9882 Y-28.5499
G01 X10.9898 Y-28.5592
G01 X10.9917 Y-28.5661
G01 X10.9940 Y-28.5728
G01 X10.9990 Y-28.5835
G01 X11.0388 Y-28.6524
G01 X11.0438 Y-28.6602
G01 X11.0481 Y-28.6657
G01 X11.0544 Y-28.6726
G01 X11.0596 Y-28.6773
G01 X11.0670 Y-28.6830
G01 X11.1374 Y-28.7245
G01 X11.1504 Y-28.7308
G01 X11.1594 Y-28.7341
G01 X11.2765 Y-28.7825
G01 X11.2824 Y-28.7860
G01 X11.3824 Y-28.8627
G01 X11.3873 Y-28.8676
G01 X11.4640 Y-28.9676
G01 X11.4675 Y-28.9735
G01 X11.5157 Y-29.0899
G01 X11.5175 Y-29.0966
G01 X11.5251 Y-29.1550
G01 X11.3113 Y-29.1550
G01 X11.3066 Y-29.1371
G01 X11.2966 Y-29.1100
G01 X11.2852 Y-29.0859
G01 X11.2716 Y-29.0631
G01 X11.2559 Y-29.0415
G01 X11.2500 Y-29.0343
G01 X11.2336 Y-29.0164
G01 X11.2139 Y-28.9985
G01 X11.1927 Y-28.9824
G01 X11.1850 Y-28.9772
G01 X11.1641 Y-28.9648
G01 X11.1379 Y-28.9525
G01 X11.1106 Y-28.9427
G01 X11.0871 Y-28.9367
G01 X11.0780 Y-28.9349
G01 X11.0562 Y-28.9317
G01 X11.0493 Y-28.9311
G01 X11.0250 Y-28.9300
G01 X10.6250 Y-28.9300
G01 X10.5961 Y-28.9314
G01 X10.5652 Y-28.9362
G01 X10.5371 Y-28.9434
G01 X10.5143 Y-28.9516
G01 X10.5078 Y-28.9543
G01 X10.4880 Y-28.9638
G01 X10.4819 Y-28.9671
G01 X10.4611 Y-28.9797
G01 X10.4415 Y-28.9941
G01 X10.4343 Y-29.0000
G01 X10.4164 Y-29.0164
G01 X10.3970 Y-29.0379
G01 X10.3797 Y-29.0611
G01 X10.3648 Y-29.0859
G01 X10.3525 Y-29.1121
G01 X10.3442 Y-29.1349
G01 X10.3415 Y-29.1439
G01 X10.3362 Y-29.1652
G01 X10.3349 Y-29.1720
G01 X10.3314 Y-29.1961
G01 X10.3301 Y-29.2203
G01 X10.3300 Y-29.7750
G01 X10.3314 Y-29.8039
G01 X10.3349 Y-29.8280
G01 X10.3367 Y-29.8371
G01 X10.3427 Y-29.8606
G01 X10.3508 Y-29.8835
G01 X10.3543 Y-29.8922
G01 X10.3648 Y-29.9141
G01 X10.3797 Y-29.9389
G01 X10.3970 Y-29.9621
G01 X10.4132 Y-29.9802
G01 X10.4198 Y-29.9868
G01 X10.4361 Y-30.0015
G01 X10.4415 Y-30.0059
G01 X10.4611 Y-30.0203
G01 X10.4800 Y-30.0317
G01 X10.4800 Y-30.2744
G01 X10.4567 Y-30.2760
G01 X10.4476 Y-30.2772
G01 X10.4343 Y-30.2807
G01 X10.4237 Y-30.2851
G01 X10.3468 Y-30.3293
G01 X10.3392 Y-30.3349
G01 X10.3338 Y-30.3395
G01 X10.3272 Y-30.3463
G01 X10.3227 Y-30.3518
G01 X10.3161 Y-30.3616
G01 X10.2764 Y-30.4305
G01 X10.2723 Y-30.4390
G01 X10.2684 Y-30.4502
G01 X10.2659 Y-30.4618
G01 X10.2648 Y-30.4736
G01 X10.2649 Y-30.5578
G01 X10.2659 Y-30.5672
G01 X10.2678 Y-30.5765
G01 X10.2705 Y-30.5856
G01 X10.2742 Y-30.5943
G01 X10.3161 Y-30.6674
G01 X10.3237 Y-30.6786
G01 X10.3312 Y-30.6870
G01 X10.4190 Y-30.7748
G01 X10.4266 Y-30.7812
G01 X10.4574 Y-30.8049
G01 X10.4671 Y-30.8114
G01 X10.4775 Y-30.8167
G01 X10.4840 Y-30.8192
G01 X10.4907 Y-30.8213
G01 X10.5673 Y-30.8418
G01 X10.5785 Y-30.8438
G01 X10.5897 Y-30.8445
G01 X19.5478 Y-30.8445
G01 X19.5590 Y-30.8435
G01 X19.5679 Y-30.8418
G01 X19.6491 Y-30.8200
G01 X19.6601 Y-30.8156
G01 X19.6685 Y-30.8112
G01 X19.6764 Y-30.8060
G01 X19.6855 Y-30.7984
G01 X19.7434 Y-30.7405
G01 X19.7510 Y-30.7314
G01 X19.7574 Y-30.7215
G01 X19.7616 Y-30.7130
G01 X19.7657 Y-30.7019
G01 X19.7863 Y-30.6251
G01 X19.7888 Y-30.6118
G01 X19.7895 Y-30.6005
G01 X19.7895 Y-30.5141
G01 X19.7892 Y-30.5070
G01 X19.7880 Y-30.4975
G01 X19.7723 Y-30.4280
G01 X19.7689 Y-30.4166
G01 X19.7652 Y-30.4079
G01 X19.7303 Y-30.3358
G01 X19.6945 Y-30.1806
G01 X19.6945 Y-30.1009
G01 X19.6938 Y-30.0892
G01 X19.6922 Y-30.0799
G01 X19.6776 Y-30.0158
G01 X19.6759 Y-30.0091
G01 X19.6736 Y-30.0026
G01 X19.6709 Y-29.9962
G01 X19.6677 Y-29.9901
G01 X19.6629 Y-29.9823
G01 X19.6587 Y-29.9768
G01 X19.6056 Y-29.9146
G01 X19.6006 Y-29.9095
G01 X19.5935 Y-29.9033
G01 X19.5837 Y-29.8966
G01 X19.5775 Y-29.8932
G01 X19.5710 Y-29.8902
G01 X19.4920 Y-29.8624
G01 X19.4853 Y-29.8608
G01 X19.4679 Y-29.8578
G01 X19.4500 Y-29.8561
G01 X19.4327 Y-29.8555
G01 X19.3575 Y-29.8556
G01 X19.3456 Y-29.8570
G01 X19.2847 Y-29.8694
G01 X19.2757 Y-29.8717
G01 X19.2670 Y-29.8749
G01 X19.2566 Y-29.8800
G01 X19.2469 Y-29.8864
G01 X19.1826 Y-29.9368
G01 X19.1759 Y-29.9429
G01 X19.1699 Y-29.9496
G01 X19.1397 Y-29.9897
G01 X19.0467 Y-30.0593
G01 X18.9364 Y-30.1007
G01 X18.8922 Y-30.1055
G01 X17.7078 Y-30.1055
G01 X17.6636 Y-30.1007
G01 X17.5533 Y-30.0593
G01 X17.4603 Y-29.9897
G01 X17.3907 Y-29.8967
G01 X17.3493 Y-29.7864
G01 X17.3445 Y-29.7422
G01 X17.3445 Y-29.2578
G01 X17.3493 Y-29.2136
G01 X17.3907 Y-29.1033
G01 X17.4559 Y-29.0157
G01 X17.4793 Y-28.9751
G01 X17.4836 Y-28.9646
G01 X17.4866 Y-28.9537
G01 X17.4991 Y-28.8683
G01 X17.4997 Y-28.8565
G01 X17.4992 Y-28.8471
G01 X17.4972 Y-28.8354
G01 X17.4938 Y-28.8241
G01 X17.4615 Y-28.7441
G01 X17.4571 Y-28.7361
G01 X17.4534 Y-28.7305
G01 X17.3902 Y-28.6462
G01 X17.3623 Y-28.6157
G01 X17.3555 Y-28.6094
G01 X17.3481 Y-28.6038
G01 X17.3422 Y-28.6001
G01 X17.3361 Y-28.5968
G01 X17.2641 Y-28.5618
G01 X17.2461 Y-28.5559
G01 X17.2338 Y-28.5536
G01 X17.1852 Y-28.5366
G01 X17.1406 Y-28.5225
G01 X17.1328 Y-28.5185
G01 X17.0951 Y-28.4907
G01 X17.0539 Y-28.4621
G01 X17.0408 Y-28.4455
G01 X17.0235 Y-28.4262
G01 X16.6225 Y-28.0252
G01 X16.6141 Y-28.0178
G01 X16.5686 Y-27.9852
G01 X16.5583 Y-27.9792
G01 X16.5496 Y-27.9753
G01 X16.5429 Y-27.9730
G01 X16.5336 Y-27.9707
G01 X16.4579 Y-27.9559
G01 X16.4462 Y-27.9543
G01 X16.4391 Y-27.9541
G01 X16.4320 Y-27.9544
G01 X16.4249 Y-27.9553
G01 X16.4156 Y-27.9572
G01 X16.3337 Y-27.9851
G01 X16.3228 Y-27.9899
G01 X16.3127 Y-27.9960
G01 X16.3034 Y-28.0034
G01 X16.2951 Y-28.0118
G01 X16.2444 Y-28.0699
G01 X16.2388 Y-28.0770
G01 X16.2318 Y-28.0886
G01 X16.2065 Y-28.1401
G01 X16.1984 Y-28.1485
G01 X16.1937 Y-28.1542
G01 X16.1687 Y-28.1868
G01 X16.1624 Y-28.1966
G01 X16.1574 Y-28.2071
G01 X16.1537 Y-28.2182
G01 X16.1332 Y-28.2948
G01 X16.1318 Y-28.3015
G01 X16.1307 Y-28.3105
G01 X16.1305 Y-28.6898
G01 X16.1310 Y-28.6969
G01 X16.1324 Y-28.7062
G01 X16.1440 Y-28.7639
G01 X16.1470 Y-28.7751
G01 X16.1494 Y-28.7815
G01 X16.1523 Y-28.7878
G01 X16.1556 Y-28.7939
G01 X16.1593 Y-28.7997
G01 X16.2137 Y-28.8695
G01 X16.2200 Y-28.8760
G01 X16.2252 Y-28.8804
G01 X16.3073 Y-28.9427
G01 X16.3786 Y-29.0367
G01 X16.4223 Y-29.1470
G01 X16.4305 Y-29.2149
G01 X16.4305 Y-29.7851
G01 X16.4223 Y-29.8529
G01 X16.3786 Y-29.9633
G01 X16.3073 Y-30.0573
G01 X16.2133 Y-30.1286
G01 X16.1030 Y-30.1723
G01 X16.0351 Y-30.1805
G01 X15.5149 Y-30.1805
G01 X15.4471 Y-30.1723
G01 X15.3367 Y-30.1286
G01 X15.2424 Y-30.0570
G01 X15.2341 Y-30.0482
G01 X15.2183 Y-30.0344
G01 X15.2108 Y-30.0286
G01 X15.2027 Y-30.0237
G01 X15.1941 Y-30.0196
G01 X15.1230 Y-29.9897
G01 X15.1141 Y-29.9865
G01 X15.1049 Y-29.9841
G01 X15.0956 Y-29.9827
G01 X15.0861 Y-29.9823
G01 X15.0743 Y-29.9830
G01 X14.9908 Y-29.9939
G01 X14.9839 Y-29.9955
G01 X14.9771 Y-29.9977
G01 X14.9705 Y-30.0004
G01 X14.9621 Y-30.0047
G01 X14.9522 Y-30.0113
G01 X14.8908 Y-30.0579
G01 X14.8839 Y-30.0637
G01 X14.8775 Y-30.0701
G01 X14.8697 Y-30.0798
G01 X14.7798 Y-30.1697
G01 X14.7745 Y-30.1738
G01 X14.6650 Y-30.2386
G01 X14.6589 Y-30.2412
G01 X14.5700 Y-30.2671
G01 X14.5700 Y-30.0466
G01 X14.6008 Y-30.0322
G01 X14.6238 Y-30.0186
G01 X14.6316 Y-30.0134
G01 X14.6530 Y-29.9974
G01 X14.6729 Y-29.9795
G01 X14.6795 Y-29.9729
G01 X14.6974 Y-29.9530
G01 X14.7161 Y-29.9278
G01 X14.7299 Y-29.9049
G01 X14.7343 Y-29.8967
G01 X14.7456 Y-29.8725
G01 X14.7548 Y-29.8473
G01 X14.7575 Y-29.8384
G01 X14.7639 Y-29.8124
G01 X14.7685 Y-29.7814
G01 X14.7700 Y-29.7500
G01 X14.7700 Y-29.2500
G01 X14.7688 Y-29.2233
G01 X14.7679 Y-29.2140
G01 X14.7639 Y-29.1876
G01 X14.7562 Y-29.1571
G01 X14.7456 Y-29.1275
G01 X14.7343 Y-29.1033
G01 X14.7299 Y-29.0951
G01 X14.7161 Y-29.0722
G01 X14.6974 Y-29.0470
G01 X14.6795 Y-29.0271
G01 X14.6729 Y-29.0205
G01 X14.6530 Y-29.0026
G01 X14.6278 Y-28.9839
G01 X14.6049 Y-28.9701
G01 X14.5967 Y-28.9657
G01 X14.5700 Y-28.9534
G01 X14.5700 Y-28.7329
G01 X14.6589 Y-28.7588
G01 X14.6650 Y-28.7614
G01 X14.7745 Y-28.8262
G01 X14.7798 Y-28.8303
G01 X14.8697 Y-28.9202
G01 X14.8757 Y-28.9277
G01 X14.8894 Y-28.9433
G01 X14.8943 Y-28.9484
G01 X14.8995 Y-28.9532
G01 X14.9071 Y-28.9589
G01 X14.9131 Y-28.9627
G01 X14.9862 Y-29.0046
G01 X14.9949 Y-29.0083
G01 X15.0040 Y-29.0111
G01 X15.0133 Y-29.0130
G01 X15.0227 Y-29.0139
G01 X15.1069 Y-29.0140
G01 X15.1187 Y-29.0130
G01 X15.1303 Y-29.0105
G01 X15.1393 Y-29.0075
G01 X15.1500 Y-29.0024
G01 X15.2237 Y-28.9596
G01 X15.2331 Y-28.9523
G01 X15.2421 Y-28.9432
G01 X15.3249 Y-28.8803
G01 X15.3303 Y-28.8757
G01 X15.3353 Y-28.8707
G01 X15.3758 Y-28.8247
G01 X15.3815 Y-28.8175
G01 X15.3877 Y-28.8078
G01 X15.3927 Y-28.7974
G01 X15.3957 Y-28.7887
G01 X15.4168 Y-28.7098
G01 X15.4191 Y-28.6965
G01 X15.4195 Y-28.6874
G01 X15.4195 Y-28.4972
G01 X15.4185 Y-28.4860
G01 X15.4168 Y-28.4771
G01 X15.3963 Y-28.4004
G01 X15.3942 Y-28.3936
G01 X15.3916 Y-28.3870
G01 X15.3862 Y-28.3765
G01 X15.3810 Y-28.3686
G01 X15.3734 Y-28.3595
G01 X15.3172 Y-28.3033
G01 X15.3083 Y-28.2955
G01 X15.3025 Y-28.2913
G01 X15.2965 Y-28.2876
G01 X15.2880 Y-28.2834
G01 X15.2769 Y-28.2793
G01 X15.1979 Y-28.2582
G01 X15.1845 Y-28.2559
G01 X15.1755 Y-28.2555
G01 X14.8963 Y-28.2555
G01 X14.8446 Y-28.2480
G01 X14.7599 Y-28.2065
G01 X14.6938 Y-28.1405
G01 X14.6522 Y-28.0559
G01 X14.6445 Y-28.0036
G01 X14.6445 Y-27.7963
G01 X14.6521 Y-27.7444
G01 X14.6553 Y-27.7362
G01 X14.6607 Y-27.7184
G01 X14.6626 Y-27.7092
G01 X14.6636 Y-27.6983
G01 X14.6686 Y-27.6788
G01 X14.6701 Y-27.6670
G01 X14.6702 Y-27.6575
G01 X14.6690 Y-27.6456
G01 X14.6634 Y-27.6160
G01 X14.6639 Y-27.6029
G01 X14.6628 Y-27.5913
G01 X14.6615 Y-27.5844
G01 X14.6596 Y-27.5777
G01 X14.6554 Y-27.5643
G01 X14.6522 Y-27.5561
G01 X14.6445 Y-27.5036
G01 X14.6445 Y-27.4657
G01 X14.6439 Y-27.4554
G01 X14.6398 Y-27.4186
G01 X14.6373 Y-27.4072
G01 X14.6342 Y-27.3983
G01 X14.6303 Y-27.3898
G01 X14.5925 Y-27.3172
G01 X14.5886 Y-27.3112
G01 X14.5844 Y-27.3055
G01 X14.5797 Y-27.3001
G01 X14.5747 Y-27.2951
G01 X14.5693 Y-27.2905
G01 X14.5616 Y-27.2851
G01 X14.4907 Y-27.2401
G01 X14.4826 Y-27.2362
G01 X14.4762 Y-27.2338
G01 X14.4406 Y-27.2225
G01 X14.4328 Y-27.2185
G01 X14.3951 Y-27.1907
G01 X14.3539 Y-27.1621
G01 X14.3408 Y-27.1455
G01 X14.3254 Y-27.1282
G01 X14.2922 Y-27.0950
G01 X14.2833 Y-27.0870
G01 X14.2759 Y-27.0814
G01 X14.2465 Y-27.0495
G01 X14.2350 Y-27.0378
G01 X14.2349 Y-25.9553
G01 X14.2340 Y-25.9461
G01 X14.2327 Y-25.9392
G01 X14.2302 Y-25.9302
G01 X14.2268 Y-25.9215
G01 X14.2227 Y-25.9132
G01 X14.2177 Y-25.9053
G01 X14.2119 Y-25.8979
G01 X14.2072 Y-25.8928
G01 X14.2003 Y-25.8866
G01 X14.1928 Y-25.8810
G01 X14.1868 Y-25.8773
G01 X14.1785 Y-25.8732
G01 X14.1698 Y-25.8698
G01 X14.1608 Y-25.8673
G01 X14.1516 Y-25.8657
G01 X14.1445 Y-25.8651
G01 X14.1445 Y-25.2161
G01 X14.1440 Y-25.2089
G01 X14.1426 Y-25.1995
G01 X14.1306 Y-25.1410
G01 X14.1283 Y-25.1320
G01 X14.1252 Y-25.1233
G01 X14.1223 Y-25.1170
G01 X14.1177 Y-25.1090
G01 X14.1137 Y-25.1033
G01 X14.0617 Y-25.0371
G01 X14.0534 Y-25.0286
G01 X14.0441 Y-25.0213
G01 X14.0361 Y-25.0163
G01 X14.0276 Y-25.0121
G01 X13.9496 Y-24.9808
G01 X13.9409 Y-24.9783
G01 X13.9343 Y-24.9769
G01 X13.8971 Y-24.9723
G01 X13.7867 Y-24.9286
G01 X13.6927 Y-24.8573
G01 X13.6451 Y-24.7946
G01 X13.6451 Y-23.8054
G01 X13.6927 Y-23.7427
G01 X13.7698 Y-23.6842
G01 X13.7902 Y-23.6665
G01 X13.7954 Y-23.6614
G01 X13.8001 Y-23.6559
G01 X13.8044 Y-23.6501
G01 X13.8083 Y-23.6440
G01 X13.8501 Y-23.5709
G01 X13.8538 Y-23.5622
G01 X13.8566 Y-23.5531
G01 X13.8585 Y-23.5438
G01 X13.8594 Y-23.5344
G01 X13.8595 Y-23.4526
G01 X13.8593 Y-23.4455
G01 X13.8581 Y-23.4361
G01 X13.8566 Y-23.4291
G01 X13.8538 Y-23.4201
G01 X13.8511 Y-23.4135
G01 X13.8468 Y-23.4051
G01 X13.8082 Y-23.3383
G01 X13.8031 Y-23.3303
G01 X13.7987 Y-23.3247
G01 X13.7906 Y-23.3161
G01 X13.7814 Y-23.3086
G01 X13.7735 Y-23.3035
G01 X13.7450 Y-23.2871
G01 X13.7450 Y-23.0450
G01 X14.3000 Y-23.0450
G01 X14.3116 Y-23.0443
G01 X14.3208 Y-23.0427
G01 X14.3276 Y-23.0409
G01 X14.3342 Y-23.0386
G01 X14.3406 Y-23.0359
G01 X14.3488 Y-23.0315
G01 X14.3547 Y-23.0277
G01 X14.3603 Y-23.0234
G01 X14.3655 Y-23.0188
G01 X14.3704 Y-23.0138
G01 X14.3749 Y-23.0084
G01 X14.3790 Y-23.0028
G01 X14.3838 Y-22.9948
G01 X14.3868 Y-22.9885
G01 X14.3894 Y-22.9820
G01 X14.3922 Y-22.9731
G01 X14.3936 Y-22.9662
G01 X14.3947 Y-22.9570
G01 X14.3950 Y-22.9500
G01 X14.3950 Y-20.4500
G01 X14.3943 Y-20.4384
G01 X14.3922 Y-20.4269
G01 X14.3886 Y-20.4158
G01 X14.3859 Y-20.4094
G01 X14.3827 Y-20.4032
G01 X14.3763 Y-20.3934
G01 X14.3688 Y-20.3845
G01 X14.3638 Y-20.3796
G01 X14.3584 Y-20.3751
G01 X14.3488 Y-20.3685
G01 X14.3385 Y-20.3632
G01 X14.3276 Y-20.3591
G01 X14.3208 Y-20.3573
G01 X14.3139 Y-20.3560
G01 X14.3023 Y-20.3550
G01 X12.5000 Y-20.3550
G01 X12.4907 Y-20.3555
G01 X12.4815 Y-20.3568
G01 X12.4724 Y-20.3591
G01 X12.4615 Y-20.3632
G01 X12.4552 Y-20.3662
G01 X12.4492 Y-20.3697
G01 X12.4397 Y-20.3766
G01 X12.4345 Y-20.3812
G01 X12.4296 Y-20.3862
G01 X12.4251 Y-20.3916
G01 X12.4210 Y-20.3972
G01 X12.4151 Y-20.4073
G01 X12.4122 Y-20.4136
G01 X12.4098 Y-20.4202
G01 X12.4068 Y-20.4315
G01 X12.4057 Y-20.4384
G01 X12.4051 Y-20.4453
G01 X12.4050 Y-21.3550
G01 X12.1950 Y-21.3550
G01 X12.1949 Y-20.9500
G01 X12.1940 Y-20.9410
G01 X12.1923 Y-20.9321
G01 X12.1697 Y-20.8486
G01 X12.1661 Y-20.8399
G01 X12.1617 Y-20.8315
G01 X12.1565 Y-20.8236
G01 X12.1505 Y-20.8163
G01 X12.0910 Y-20.7566
G01 X12.0838 Y-20.7505
G01 X12.0780 Y-20.7463
G01 X12.0678 Y-20.7404
G01 X12.0613 Y-20.7375
G01 X12.0546 Y-20.7350
G01 X11.9756 Y-20.7137
G01 X11.9668 Y-20.7118
G01 X11.9600 Y-20.7109
G01 X11.9510 Y-20.7105
G01 X8.5679 Y-20.7105
G01 X8.5012 Y-20.7017
G01 X8.4418 Y-20.6858
G01 X8.3517 Y-20.6413
G01 X8.3307 Y-20.6252
G01 X8.3053 Y-20.6030
G01 X6.9286 Y-19.2263
G01 X6.9211 Y-19.2195
G01 X6.8945 Y-19.1981
G01 X6.8888 Y-19.1941
G01 X6.8828 Y-19.1905
G01 X6.8765 Y-19.1873
G01 X6.8701 Y-19.1846
G01 X6.7877 Y-19.1582
G01 X6.7760 Y-19.1559
G01 X6.7666 Y-19.1551
G01 X6.7548 Y-19.1554
G01 X6.7454 Y-19.1567
G01 X6.6631 Y-19.1747
G01 X6.6519 Y-19.1785
G01 X6.6412 Y-19.1836
G01 X6.6332 Y-19.1887
G01 X6.6258 Y-19.1945
G01 X6.5669 Y-19.2479
G01 X6.5590 Y-19.2560
G01 X6.5524 Y-19.2645
G01 X6.3986 Y-19.1107
G01 X6.4314 Y-19.0555
G01 X6.4897 Y-18.9317
G01 X6.5349 Y-18.8049
G01 X6.5672 Y-18.6767
G01 X6.5686 Y-18.6699
G01 X6.5883 Y-18.5367
G01 X6.5950 Y-18.4000
G01 X6.5883 Y-18.2633
G01 X6.5690 Y-18.1324
G01 X6.5672 Y-18.1233
G01 X6.5362 Y-17.9995
G01 X6.5335 Y-17.9906
G01 X6.4888 Y-17.8662
G01 X6.4324 Y-17.7466
G01 X6.4280 Y-17.7383
G01 X6.3599 Y-17.6250
G01 X6.2812 Y-17.5187
G01 X6.2753 Y-17.5115
G01 X6.1864 Y-17.4136
G01 X6.0850 Y-17.3217
G01 X5.9750 Y-17.2401
G01 X5.8617 Y-17.1720
G01 X5.8534 Y-17.1676
G01 X5.7381 Y-17.1131
G01 X5.7295 Y-17.1095
G01 X5.6049 Y-17.0651
G01 X5.4767 Y-17.0328
G01 X5.4699 Y-17.0314
G01 X5.3367 Y-17.0117
G01 X5.2000 Y-17.0050
G01 X5.0633 Y-17.0117
G01 X4.9301 Y-17.0314
G01 X4.9233 Y-17.0328
G01 X4.7951 Y-17.0651
G01 X4.6683 Y-17.1103
G01 X4.5445 Y-17.1686
G01 X4.4893 Y-17.2014
G01 X4.3354 Y-17.0475
G01 X4.3427 Y-17.0422
G01 X4.3699 Y-17.0199
G01 X4.3780 Y-17.0117
G01 X4.3850 Y-17.0026
G01 X4.4296 Y-16.9258
G01 X4.4326 Y-16.9193
G01 X4.4358 Y-16.9104
G01 X4.4376 Y-16.9036
G01 X4.4393 Y-16.8942
G01 X4.4400 Y-16.8824
G01 X4.4400 Y-16.8029
G01 X4.4390 Y-16.7911
G01 X4.4365 Y-16.7796
G01 X4.4334 Y-16.7706
G01 X4.4284 Y-16.7599
G01 X4.3887 Y-16.6910
G01 X4.3811 Y-16.6798
G01 X4.3736 Y-16.6713
G01 X2.8992 Y-15.1969
G01 X2.8582 Y-15.1435
G01 X2.8275 Y-15.0902
G01 X2.7952 Y-14.9950
G01 X2.7917 Y-14.9688
G01 X2.7895 Y-14.9352
G01 X2.7895 Y-10.1552
G01 X2.7983 Y-10.0885
G01 X2.8144 Y-10.0285
G01 X2.8536 Y-9.9465
G01 X2.8737 Y-9.9231
G01 X2.9194 Y-9.8773
G01 X2.9945 Y-9.8259
G01 X3.0236 Y-9.8157
G01 X3.0885 Y-9.7983
G01 X3.1552 Y-9.7895
G01 X14.3448 Y-9.7895
G01 X14.4115 Y-9.7983
G01 X14.4715 Y-9.8144
G01 X14.5535 Y-9.8536
G01 X14.5769 Y-9.8737
G01 X14.6227 Y-9.9194
G01 X14.6741 Y-9.9945
G01 X14.6843 Y-10.0236
G01 X14.7017 Y-10.0885
G01 X14.7105 Y-10.1552
G01 X14.7105 Y-13.5478
G01 X14.7115 Y-13.5590
G01 X14.7132 Y-13.5679
G01 X14.7337 Y-13.6446
G01 X14.7358 Y-13.6514
G01 X14.7384 Y-13.6580
G01 X14.7438 Y-13.6685
G01 X14.7505 Y-13.6783
G01 X14.7583 Y-13.6872
G01 X14.8145 Y-13.7434
G01 X14.8236 Y-13.7510
G01 X14.8315 Y-13.7562
G01 X14.8377 Y-13.7596
G01 X14.8442 Y-13.7625
G01 X14.8554 Y-13.7663
G01 X14.9321 Y-13.7868
G01 X14.9432 Y-13.7888
G01 X14.9545 Y-13.7895
G01 X20.8448 Y-13.7895
G01 X20.9115 Y-13.7983
G01 X20.9715 Y-13.8144
G01 X21.0535 Y-13.8536
G01 X21.0769 Y-13.8737
G01 X21.1227 Y-13.9194
G01 X21.1741 Y-13.9945
G01 X21.1843 Y-14.0236
G01 X21.2017 Y-14.0885
G01 X21.2105 Y-14.1552
G01 X21.2105 Y-14.7028
G01 X21.2119 Y-14.7287
G01 X21.2136 Y-14.7404
G01 X21.2168 Y-14.7517
G01 X21.2481 Y-14.8298
G01 X21.2523 Y-14.8383
G01 X21.2573 Y-14.8464
G01 X21.2646 Y-14.8557
G01 X21.2713 Y-14.8624
G01 X21.3393 Y-14.9160
G01 X21.3492 Y-14.9225
G01 X21.3577 Y-14.9267
G01 X21.3688 Y-14.9308
G01 X21.3803 Y-14.9335
G01 X21.4635 Y-14.9453
G01 X21.4748 Y-14.9457
G01 X21.4880 Y-14.9445
G01 X22.2120 Y-14.9445
G01 X22.2840 Y-14.9532
G01 X22.4007 Y-14.9994
G01 X22.5001 Y-15.0749
G01 X22.5756 Y-15.1743
G01 X22.6218 Y-15.2910
G01 X22.6305 Y-15.3630
G01 X22.6305 Y-17.6370
G01 X22.6218 Y-17.7090
G01 X22.5756 Y-17.8257
G01 X22.5001 Y-17.9251
G01 X22.4923 Y-17.9317
G01 X22.4613 Y-17.9624
G01 X22.4537 Y-17.9713
G01 X22.4485 Y-17.9790
G01 X22.4451 Y-17.9851
G01 X22.4421 Y-17.9915
G01 X22.4105 Y-18.0670
G01 X22.4077 Y-18.0761
G01 X22.4059 Y-18.0853
G01 X22.4051 Y-18.0924
G01 X22.4049 Y-18.1019
G01 X22.4056 Y-18.1113
G01 X22.4159 Y-18.1924
G01 X22.4180 Y-18.2015
G01 X22.4210 Y-18.2104
G01 X22.4248 Y-18.2189
G01 X22.4281 Y-18.2250
G01 X22.4333 Y-18.2327
G01 X22.4754 Y-18.2891
G01 X22.4812 Y-18.2962
G01 X22.4894 Y-18.3050
G01 X22.4947 Y-18.3098
G01 X22.5897 Y-18.4048
G01 X22.5937 Y-18.4100
G01 X22.6617 Y-18.5250
G01 X22.6643 Y-18.5310
G01 X22.7024 Y-18.6620
G01 X22.7034 Y-18.6674
G01 X22.7050 Y-18.6891
G01 X22.7050 Y-18.9048
G01 X22.4950 Y-18.9048
G01 X22.4950 Y-18.7477
G01 X22.4933 Y-18.7162
G01 X22.4888 Y-18.6850
G01 X22.4801 Y-18.6499
G01 X22.4687 Y-18.6180
G01 X22.4543 Y-18.5874
G01 X22.4381 Y-18.5603
G01 X22.4167 Y-18.5311
G01 X22.3940 Y-18.5060
G01 X22.3689 Y-18.4833
G01 X22.3455 Y-18.4658
G01 X22.3377 Y-18.4606
G01 X22.3126 Y-18.4457
G01 X22.2863 Y-18.4332
G01 X22.2799 Y-18.4304
G01 X22.2546 Y-18.4213
G01 X22.2457 Y-18.4186
G01 X22.2173 Y-18.4116
G01 X22.1838 Y-18.4067
G01 X22.1500 Y-18.4050
G01 X21.4977 Y-18.4050
G01 X21.4662 Y-18.4067
G01 X21.4373 Y-18.4108
G01 X21.4281 Y-18.4127
G01 X21.3976 Y-18.4206
G01 X21.3680 Y-18.4313
G01 X21.3415 Y-18.4436
G01 X21.3353 Y-18.4469
G01 X21.3123 Y-18.4606
G01 X21.3045 Y-18.4658
G01 X21.2811 Y-18.4833
G01 X21.2560 Y-18.5060
G01 X21.2333 Y-18.5311
G01 X21.2158 Y-18.5545
G01 X21.2106 Y-18.5623
G01 X21.1969 Y-18.5853
G01 X21.1936 Y-18.5915
G01 X21.1813 Y-18.6180
G01 X21.1699 Y-18.6499
G01 X21.1627 Y-18.6781
G01 X21.1608 Y-18.6873
G01 X21.1567 Y-18.7162
G01 X21.1550 Y-18.7477
G01 X21.1550 Y-20.0500
G01 X21.1567 Y-20.0838
G01 X21.1616 Y-20.1173
G01 X21.1699 Y-20.1501
G01 X21.1813 Y-20.1820
G01 X21.1936 Y-20.2085
G01 X21.1980 Y-20.2167
G01 X21.2119 Y-20.2397
G01 X21.2158 Y-20.2455
G01 X21.2333 Y-20.2689
G01 X21.2528 Y-20.2906
G01 X21.2594 Y-20.2972
G01 X21.2794 Y-20.3152
G01 X21.3045 Y-20.3342
G01 X21.3123 Y-20.3394
G01 X21.3353 Y-20.3531
G01 X21.3415 Y-20.3564
G01 X21.3680 Y-20.3687
G01 X21.3976 Y-20.3794
G01 X21.4281 Y-20.3873
G01 X21.4373 Y-20.3892
G01 X21.4662 Y-20.3933
G01 X21.4953 Y-20.3949
G01 X22.1523 Y-20.3950
G01 X22.1838 Y-20.3933
G01 X22.2127 Y-20.3892
G01 X22.2219 Y-20.3873
G01 X22.2501 Y-20.3801
G01 X22.2820 Y-20.3687
G01 X22.3126 Y-20.3543
G01 X22.3417 Y-20.3369
G01 X22.3689 Y-20.3167
G01 X22.3940 Y-20.2940
G01 X22.4167 Y-20.2689
G01 X22.4369 Y-20.2417
G01 X22.4553 Y-20.2106
G01 X22.4687 Y-20.1820
G01 X22.4801 Y-20.1501
G01 X22.4884 Y-20.1173
G01 X22.4931 Y-20.0861
G01 X22.4950 Y-20.0500
G01 X22.4950 Y-19.8952
G01 X22.7050 Y-19.8952
G01 X22.7050 Y-20.1109
G01 X22.7034 Y-20.1326
G01 X22.7024 Y-20.1380
G01 X22.6643 Y-20.2690
G01 X22.6617 Y-20.2750
G01 X22.5937 Y-20.3900
G01 X22.5897 Y-20.3952
G01 X22.4952 Y-20.4897
G01 X22.4822 Y-20.4999
G01 X22.4649 Y-20.5152
G01 X22.4582 Y-20.5220
G01 X22.4523 Y-20.5294
G01 X22.4472 Y-20.5373
G01 X22.4053 Y-20.6104
G01 X22.4024 Y-20.6169
G01 X22.3994 Y-20.6259
G01 X22.3978 Y-20.6328
G01 X22.3964 Y-20.6422
G01 X22.3959 Y-20.6516
G01 X22.3960 Y-20.7335
G01 X22.3966 Y-20.7406
G01 X22.3978 Y-20.7476
G01 X22.4001 Y-20.7568
G01 X22.4024 Y-20.7635
G01 X22.4053 Y-20.7700
G01 X22.4086 Y-20.7763
G01 X22.4472 Y-20.8431
G01 X22.4521 Y-20.8507
G01 X22.4607 Y-20.8611
G01 X22.4692 Y-20.8696
G01 X22.4750 Y-20.8747
G01 X22.5506 Y-20.9743
G01 X22.5968 Y-21.0910
G01 X22.6055 Y-21.1630
G01 X22.6055 Y-23.4370
G01 X22.5968 Y-23.5090
G01 X22.5506 Y-23.6257
G01 X22.4751 Y-23.7251
G01 X22.3757 Y-23.8006
G01 X22.3258 Y-23.8204
G01 X22.3000 Y-23.8330
G01 X22.2942 Y-23.8365
G01 X22.2867 Y-23.8417
G01 X22.2782 Y-23.8493
G01 X22.2189 Y-23.9090
G01 X22.2131 Y-23.9165
G01 X22.2080 Y-23.9245
G01 X22.2038 Y-23.9330
G01 X22.2012 Y-23.9396
G01 X22.1786 Y-24.0232
G01 X22.1765 Y-24.0349
G01 X22.1759 Y-24.0467
G01 X22.1765 Y-24.0561
G01 X22.1786 Y-24.0678
G01 X22.2012 Y-24.1514
G01 X22.2048 Y-24.1601
G01 X22.2092 Y-24.1685
G01 X22.2131 Y-24.1745
G01 X22.2189 Y-24.1820
G01 X22.2782 Y-24.2417
G01 X22.2871 Y-24.2495
G01 X22.2949 Y-24.2550
G01 X22.3053 Y-24.2606
G01 X22.3163 Y-24.2650
G01 X22.3975 Y-24.2868
G01 X22.4064 Y-24.2885
G01 X22.4177 Y-24.2895
G01 X23.9743 Y-24.2895
G01 X23.9812 Y-24.2891
G01 X23.9881 Y-24.2881
G01 X24.0489 Y-24.2762
G01 X24.0576 Y-24.2738
G01 X24.0682 Y-24.2697
G01 X24.0763 Y-24.2655
G01 X24.0839 Y-24.2605
G01 X24.1472 Y-24.2125
G01 X24.1545 Y-24.2064
G01 X24.1611 Y-24.1996
G01 X24.1670 Y-24.1922
G01 X24.1721 Y-24.1842
G01 X24.1754 Y-24.1780
G01 X24.2081 Y-24.1003
G01 X24.2111 Y-24.0914
G01 X24.2132 Y-24.0821
G01 X24.2145 Y-24.0704
G01 X24.2146 Y-24.0633
G01 X24.2142 Y-24.0562
G01 X24.2039 Y-23.9750
G01 X24.2020 Y-23.9657
G01 X24.1992 Y-23.9566
G01 X24.1965 Y-23.9500
G01 X24.1934 Y-23.9437
G01 X24.1871 Y-23.9337
G01 X24.1347 Y-23.8651
G01 X24.1251 Y-23.8556
G01 X24.1048 Y-23.8397
G01 X24.0103 Y-23.7452
G01 X24.0063 Y-23.7400
G01 X23.9383 Y-23.6250
G01 X23.9357 Y-23.6190
G01 X23.8976 Y-23.4880
G01 X23.8966 Y-23.4826
G01 X23.8950 Y-23.4609
G01 X23.8950 Y-22.7952
G01 X24.1050 Y-22.7952
G01 X24.1050 Y-23.4023
G01 X24.1067 Y-23.4338
G01 X24.1108 Y-23.4627
G01 X24.1127 Y-23.4719
G01 X24.1206 Y-23.5024
G01 X24.1313 Y-23.5320
G01 X24.1436 Y-23.5585
G01 X24.1480 Y-23.5667
G01 X24.1631 Y-23.5917
G01 X24.1833 Y-23.6189
G01 X24.2028 Y-23.6406
G01 X24.2094 Y-23.6472
G01 X24.2311 Y-23.6667
G01 X24.2545 Y-23.6842
G01 X24.2623 Y-23.6894
G01 X24.2874 Y-23.7043
G01 X24.3180 Y-23.7187
G01 X24.3499 Y-23.7301
G01 X24.3781 Y-23.7373
G01 X24.3850 Y-23.7388
G01 X24.4116 Y-23.7428
G01 X24.4208 Y-23.7437
G01 X24.4500 Y-23.7450
G01 X25.1000 Y-23.7450
G01 X25.1315 Y-23.7435
G01 X25.1627 Y-23.7392
G01 X25.1719 Y-23.7373
G01 X25.2001 Y-23.7301
G01 X25.2277 Y-23.7204
G01 X25.2363 Y-23.7168
G01 X25.2626 Y-23.7043
G01 X25.2936 Y-23.6855
G01 X25.3189 Y-23.6667
G01 X25.3440 Y-23.6440
G01 X25.3667 Y-23.6189
G01 X25.3869 Y-23.5917
G01 X25.4043 Y-23.5626
G01 X25.4187 Y-23.5320
G01 X25.4301 Y-23.5001
G01 X25.4384 Y-23.4673
G01 X25.4433 Y-23.4338
G01 X25.4450 Y-23.4000
G01 X25.4450 Y-22.8952
G01 X25.6550 Y-22.8952
G01 X25.6550 Y-23.4609
G01 X25.6534 Y-23.4826
G01 X25.6524 Y-23.4880
G01 X25.6143 Y-23.6190
G01 X25.6117 Y-23.6250
G01 X25.5437 Y-23.7400
G01 X25.5397 Y-23.7452
G01 X25.4452 Y-23.8397
G01 X25.4266 Y-23.8541
G01 X25.4182 Y-23.8619
G01 X25.3773 Y-23.9085
G01 X25.3704 Y-23.9176
G01 X25.3635 Y-23.9294
G01 X25.3599 Y-23.9377
G01 X25.3578 Y-23.9442
G01 X25.3366 Y-24.0232
G01 X25.3352 Y-24.0302
G01 X25.3341 Y-24.0396
G01 X25.3341 Y-24.0514
G01 X25.3349 Y-24.0585
G01 X25.3361 Y-24.0655
G01 X25.3585 Y-24.1491
G01 X25.3628 Y-24.1601
G01 X25.3673 Y-24.1685
G01 X25.3739 Y-24.1783
G01 X25.3801 Y-24.1855
G01 X25.4397 Y-24.2450
G01 X25.4490 Y-24.2524
G01 X25.4591 Y-24.2585
G01 X25.4699 Y-24.2634
G01 X25.4789 Y-24.2663
G01 X25.5556 Y-24.2868
G01 X25.5622 Y-24.2882
G01 X25.5712 Y-24.2893
G01 X41.1691 Y-24.2895
G01 X41.1765 Y-24.2892
G01 X41.2247 Y-24.2829
G01 X41.2337 Y-24.2808
G01 X41.2447 Y-24.2769
G01 X41.2552 Y-24.2717
G01 X41.3220 Y-24.2331
G01 X41.3299 Y-24.2280
G01 X41.3373 Y-24.2221
G01 X41.3457 Y-24.2137
G01 X41.3502 Y-24.2082
G01 X41.3543 Y-24.2024
G01 X41.3964 Y-24.1295
G01 X41.4015 Y-24.1188
G01 X41.4045 Y-24.1098
G01 X41.4066 Y-24.1006
G01 X41.4079 Y-24.0888
G01 X41.4079 Y-24.0022
G01 X41.4073 Y-23.9951
G01 X41.4061 Y-23.9881
G01 X41.4038 Y-23.9789
G01 X41.4015 Y-23.9722
G01 X41.3986 Y-23.9657
G01 X41.3953 Y-23.9594
G01 X41.3567 Y-23.8926
G01 X41.3518 Y-23.8850
G01 X41.3432 Y-23.8746
G01 X41.3031 Y-23.8344
G01 X41.2983 Y-23.8278
G01 X41.2582 Y-23.7491
G01 X41.2557 Y-23.7413
G01 X41.2453 Y-23.6761
G01 X41.2450 Y-23.6719
G01 X41.2450 Y-22.8952
G01 X41.4550 Y-22.8952
G01 X41.4550 Y-23.6500
G01 X41.4555 Y-23.6593
G01 X41.4564 Y-23.6662
G01 X41.4578 Y-23.6731
G01 X41.4598 Y-23.6798
G01 X41.4622 Y-23.6864
G01 X41.4651 Y-23.6927
G01 X41.4685 Y-23.6988
G01 X41.4723 Y-23.7047
G01 X41.4781 Y-23.7121
G01 X41.4845 Y-23.7188
G01 X41.4897 Y-23.7234
G01 X41.4953 Y-23.7277
G01 X41.5012 Y-23.7315
G01 X41.5073 Y-23.7349
G01 X41.5136 Y-23.7378
G01 X41.5224 Y-23.7409
G01 X41.5292 Y-23.7427
G01 X41.5407 Y-23.7445
G01 X41.5500 Y-23.7450
G01 X44.8547 Y-23.7449
G01 X44.8639 Y-23.7440
G01 X44.8731 Y-23.7422
G01 X44.8820 Y-23.7394
G01 X44.8885 Y-23.7368
G01 X44.8948 Y-23.7338
G01 X44.9028 Y-23.7290
G01 X44.9103 Y-23.7234
G01 X44.9155 Y-23.7188
G01 X44.9219 Y-23.7121
G01 X44.9277 Y-23.7047
G01 X44.9315 Y-23.6988
G01 X44.9359 Y-23.6906
G01 X44.9386 Y-23.6842
G01 X44.9416 Y-23.6753
G01 X44.9432 Y-23.6685
G01 X44.9445 Y-23.6593
G01 X44.9450 Y-23.6500
G01 X44.9450 Y-22.7450
G01 X45.1550 Y-22.7450
G01 X45.1550 Y-23.6719
G01 X45.1547 Y-23.6761
G01 X45.1443 Y-23.7413
G01 X45.1418 Y-23.7491
G01 X45.1017 Y-23.8278
G01 X45.0969 Y-23.8344
G01 X45.0584 Y-23.8730
G01 X45.0533 Y-23.8784
G01 X45.0251 Y-23.9150
G01 X45.0188 Y-23.9249
G01 X45.0147 Y-23.9332
G01 X45.0107 Y-23.9442
G01 X44.9896 Y-24.0232
G01 X44.9878 Y-24.0325
G01 X44.9870 Y-24.0419
G01 X44.9871 Y-24.0514
G01 X44.9881 Y-24.0608
G01 X44.9901 Y-24.0701
G01 X45.0101 Y-24.1446
G01 X45.0139 Y-24.1558
G01 X45.0190 Y-24.1665
G01 X45.0254 Y-24.1764
G01 X45.0330 Y-24.1855
G01 X45.0909 Y-24.2434
G01 X45.1000 Y-24.2510
G01 X45.1099 Y-24.2574
G01 X45.1206 Y-24.2625
G01 X45.1295 Y-24.2657
G01 X45.2085 Y-24.2868
G01 X45.2219 Y-24.2891
G01 X45.2309 Y-24.2895
G01 X46.1028 Y-24.2895
G01 X46.1140 Y-24.2885
G01 X46.1229 Y-24.2868
G01 X46.1996 Y-24.2663
G01 X46.2064 Y-24.2642
G01 X46.2130 Y-24.2616
G01 X46.2235 Y-24.2562
G01 X46.2314 Y-24.2510
G01 X46.2405 Y-24.2434
G01 X46.2984 Y-24.1855
G01 X46.3031 Y-24.1802
G01 X46.3074 Y-24.1745
G01 X46.3112 Y-24.1685
G01 X46.3146 Y-24.1623
G01 X46.3184 Y-24.1536
G01 X46.3207 Y-24.1469
G01 X46.3413 Y-24.0701
G01 X46.3435 Y-24.0590
G01 X46.3445 Y-24.0455
G01 X46.3445 Y-19.0125
G01 X46.3450 Y-19.0000
G01 X46.3445 Y-18.9875
G01 X46.3445 Y-11.0897
G01 X46.3440 Y-11.0798
G01 X46.3379 Y-11.0342
G01 X46.3358 Y-11.0251
G01 X46.3319 Y-11.0141
G01 X46.3267 Y-11.0037
G01 X46.2870 Y-10.9349
G01 X46.2805 Y-10.9257
G01 X46.2746 Y-10.9188
G01 X44.8828 Y-9.5270
G01 X44.8754 Y-9.5203
G01 X44.8407 Y-9.4937
G01 X44.8329 Y-9.4886
G01 X44.8268 Y-9.4853
G01 X44.8204 Y-9.4824
G01 X44.8116 Y-9.4793
G01 X44.7348 Y-9.4587
G01 X44.7238 Y-9.4565
G01 X44.7103 Y-9.4555
G01 X35.0177 Y-9.4557
G01 X35.0087 Y-9.4568
G01 X35.0021 Y-9.4582
G01 X34.9254 Y-9.4787
G01 X34.9142 Y-9.4825
G01 X34.9035 Y-9.4876
G01 X34.8936 Y-9.4940
G01 X34.8845 Y-9.5016
G01 X34.8283 Y-9.5578
G01 X34.8235 Y-9.5630
G01 X34.8190 Y-9.5686
G01 X34.8150 Y-9.5745
G01 X34.8115 Y-9.5806
G01 X34.8075 Y-9.5892
G01 X34.8050 Y-9.5959
G01 X34.7822 Y-9.6815
G01 X34.7812 Y-9.6882
G01 X34.7805 Y-9.6972
G01 X34.7805 Y-9.7351
G01 X34.7723 Y-9.8029
G01 X34.7286 Y-9.9133
G01 X34.6573 Y-10.0073
G01 X34.5633 Y-10.0786
G01 X34.4530 Y-10.1223
G01 X34.3851 Y-10.1305
G01 X33.8863 Y-10.1305
G01 X33.8774 Y-10.1309
G01 X33.8685 Y-10.1322
G01 X33.7922 Y-10.1505
G01 X33.7811 Y-10.1545
G01 X33.7747 Y-10.1575
G01 X33.7686 Y-10.1610
G01 X33.7627 Y-10.1650
G01 X33.7572 Y-10.1694
G01 X33.6946 Y-10.2257
G01 X33.6882 Y-10.2327
G01 X33.6825 Y-10.2403
G01 X33.6788 Y-10.2463
G01 X33.6745 Y-10.2548
G01 X33.6712 Y-10.2637
G01 X33.6458 Y-10.3415
G01 X33.6442 Y-10.3484
G01 X33.6431 Y-10.3555
G01 X33.6425 Y-10.3673
G01 X33.6431 Y-10.3767
G01 X33.6441 Y-10.3838
G01 X33.6615 Y-10.4659
G01 X33.6635 Y-10.4724
G01 X33.6668 Y-10.4808
G01 X33.6704 Y-10.4882
G01 X33.6740 Y-10.4943
G01 X33.6843 Y-10.5235
G01 X33.7017 Y-10.5885
G01 X33.7105 Y-10.6552
G01 X33.7106 Y-12.3167
G01 X33.7113 Y-12.3241
G01 X33.7171 Y-12.3673
G01 X33.7192 Y-12.3764
G01 X33.7231 Y-12.3874
G01 X33.7283 Y-12.3978
G01 X33.7680 Y-12.4665
G01 X33.7745 Y-12.4758
G01 X33.7820 Y-12.4843
G01 X36.0157 Y-14.7180
G01 X36.0231 Y-14.7247
G01 X36.0578 Y-14.7513
G01 X36.0676 Y-14.7576
G01 X36.0781 Y-14.7626
G01 X36.0892 Y-14.7663
G01 X36.1659 Y-14.7868
G01 X36.1770 Y-14.7888
G01 X36.1883 Y-14.7895
G01 X39.3448 Y-14.7895
G01 X39.4115 Y-14.7983
G01 X39.4715 Y-14.8144
G01 X39.5535 Y-14.8536
G01 X39.5769 Y-14.8737
G01 X39.6227 Y-14.9194
G01 X39.6741 Y-14.9945
G01 X39.6843 Y-15.0236
G01 X39.7017 Y-15.0885
G01 X39.7105 Y-15.1552
G01 X39.7105 Y-17.8119
G01 X39.7123 Y-17.8393
G01 X39.7138 Y-17.8487
G01 X39.7163 Y-17.8578
G01 X39.7479 Y-17.9359
G01 X39.7508 Y-17.9424
G01 X39.7542 Y-17.9486
G01 X39.7594 Y-17.9565
G01 X39.7639 Y-17.9621
G01 X39.7687 Y-17.9673
G01 X39.7757 Y-17.9736
G01 X39.8404 Y-18.0238
G01 X39.8483 Y-18.0290
G01 X39.8567 Y-18.0334
G01 X39.8677 Y-18.0377
G01 X39.8746 Y-18.0397
G01 X39.8815 Y-18.0411
G01 X39.9626 Y-18.0522
G01 X39.9697 Y-18.0527
G01 X39.9768 Y-18.0527
G01 X39.9839 Y-18.0521
G01 X39.9909 Y-18.0511
G01 X39.9979 Y-18.0495
G01 X40.0046 Y-18.0474
G01 X40.0846 Y-18.0148
G01 X40.0926 Y-18.0106
G01 X40.1002 Y-18.0056
G01 X40.1743 Y-17.9494
G01 X40.2910 Y-17.9032
G01 X40.3630 Y-17.8945
G01 X41.0870 Y-17.8945
G01 X41.1590 Y-17.9032
G01 X41.2757 Y-17.9494
G01 X41.3751 Y-18.0249
G01 X41.4506 Y-18.1243
G01 X41.4968 Y-18.2410
G01 X41.5055 Y-18.3130
G01 X41.5055 Y-19.6870
G01 X41.4968 Y-19.7590
G01 X41.4506 Y-19.8757
G01 X41.3751 Y-19.9751
G01 X41.2757 Y-20.0506
G01 X41.1590 Y-20.0968
G01 X41.1018 Y-20.1037
G01 X41.0931 Y-20.1054
G01 X41.0847 Y-20.1079
G01 X41.0260 Y-20.1280
G01 X41.0178 Y-20.1312
G01 X41.0099 Y-20.1352
G01 X40.9731 Y-20.1572
G01 X40.8330 Y-20.2003
G01 X40.6867 Y-20.2087
G01 X40.5426 Y-20.1820
G01 X40.4108 Y-20.1225
G01 X40.4041 Y-20.1198
G01 X40.3539 Y-20.1055
G01 X40.3468 Y-20.1038
G01 X40.2910 Y-20.0968
G01 X40.1741 Y-20.0505
G01 X40.1538 Y-20.0376
G01 X40.1475 Y-20.0344
G01 X40.1409 Y-20.0316
G01 X40.1319 Y-20.0287
G01 X40.0574 Y-20.0087
G01 X40.0485 Y-20.0068
G01 X40.0418 Y-20.0059
G01 X40.0328 Y-20.0055
G01 X39.9522 Y-20.0055
G01 X39.9387 Y-20.0068
G01 X39.9299 Y-20.0087
G01 X39.8509 Y-20.0300
G01 X39.8442 Y-20.0325
G01 X39.8377 Y-20.0354
G01 X39.8275 Y-20.0413
G01 X39.8198 Y-20.0469
G01 X39.8145 Y-20.0516
G01 X39.7583 Y-20.1078
G01 X39.7505 Y-20.1167
G01 X39.7438 Y-20.1265
G01 X39.7384 Y-20.1370
G01 X39.7343 Y-20.1481
G01 X39.7137 Y-20.2249
G01 X39.7115 Y-20.2360
G01 X39.7105 Y-20.2495
G01 X39.7105 Y-20.8448
G01 X39.7017 Y-20.9115
G01 X39.6856 Y-20.9715
G01 X39.6464 Y-21.0535
G01 X39.6263 Y-21.0769
G01 X39.5806 Y-21.1227
G01 X39.5055 Y-21.1741
G01 X39.4764 Y-21.1843
G01 X39.4115 Y-21.2017
G01 X39.3448 Y-21.2105
G01 X26.1552 Y-21.2105
G01 X26.0885 Y-21.2017
G01 X26.0285 Y-21.1856
G01 X26.0001 Y-21.1722
G01 X25.9935 Y-21.1697
G01 X25.9867 Y-21.1677
G01 X25.9178 Y-21.1520
G01 X25.9064 Y-21.1504
G01 X25.8949 Y-21.1502
G01 X25.8857 Y-21.1511
G01 X25.8766 Y-21.1528
G01 X25.7976 Y-21.1740
G01 X25.7909 Y-21.1763
G01 X25.7844 Y-21.1790
G01 X25.7780 Y-21.1823
G01 X25.7720 Y-21.1860
G01 X25.7662 Y-21.1901
G01 X25.7590 Y-21.1963
G01 X25.6995 Y-21.2559
G01 X25.6921 Y-21.2652
G01 X25.6871 Y-21.2732
G01 X25.6829 Y-21.2817
G01 X25.6795 Y-21.2905
G01 X25.6577 Y-21.3718
G01 X25.6560 Y-21.3806
G01 X25.6551 Y-21.3896
G01 X25.6550 Y-21.9048
G01 X25.4450 Y-21.9048
G01 X25.4450 Y-21.2000
G01 X25.4433 Y-21.1662
G01 X25.4384 Y-21.1327
G01 X25.4314 Y-21.1043
G01 X25.4287 Y-21.0954
G01 X25.4196 Y-21.0701
G01 X25.4168 Y-21.0637
G01 X25.4043 Y-21.0374
G01 X25.3869 Y-21.0083
G01 X25.3667 Y-20.9811
G01 X25.3456 Y-20.9577
G01 X25.3189 Y-20.9333
G01 X25.2955 Y-20.9158
G01 X25.2877 Y-20.9106
G01 X25.2647 Y-20.8969
G01 X25.2585 Y-20.8936
G01 X25.2320 Y-20.8813
G01 X25.2001 Y-20.8699
G01 X25.1673 Y-20.8616
G01 X25.1361 Y-20.8569
G01 X25.1000 Y-20.8550
G01 X24.4453 Y-20.8551
G01 X24.4162 Y-20.8567
G01 X24.3873 Y-20.8608
G01 X24.3781 Y-20.8627
G01 X24.3499 Y-20.8699
G01 X24.3180 Y-20.8813
G01 X24.2915 Y-20.8936
G01 X24.2833 Y-20.8980
G01 X24.2583 Y-20.9131
G01 X24.2311 Y-20.9333
G01 X24.2094 Y-20.9528
G01 X24.2028 Y-20.9594
G01 X24.1833 Y-20.9811
G01 X24.1658 Y-21.0045
G01 X24.1606 Y-21.0123
G01 X24.1457 Y-21.0374
G01 X24.1332 Y-21.0637
G01 X24.1296 Y-21.0723
G01 X24.1199 Y-21.0999
G01 X24.1121 Y-21.1304
G01 X24.1067 Y-21.1662
G01 X24.1051 Y-21.1953
G01 X24.1050 Y-21.8048
G01 X24.0051 Y-21.8048
G01 X23.8950 Y-21.6947
G01 X23.8950 Y-21.1391
G01 X23.8966 Y-21.1174
G01 X23.8976 Y-21.1120
G01 X23.9357 Y-20.9810
G01 X23.9383 Y-20.9750
G01 X24.0063 Y-20.8600
G01 X24.0103 Y-20.8548
G01 X24.1048 Y-20.7603
G01 X24.1178 Y-20.7501
G01 X24.1334 Y-20.7364
G01 X24.1385 Y-20.7315
G01 X24.1433 Y-20.7263
G01 X24.1477 Y-20.7206
G01 X24.1516 Y-20.7147
G01 X24.1937 Y-20.6417
G01 X24.1976 Y-20.6331
G01 X24.2006 Y-20.6241
G01 X24.2027 Y-20.6149
G01 X24.2039 Y-20.6055
G01 X24.2041 Y-20.5212
G01 X24.2034 Y-20.5094
G01 X24.2017 Y-20.5001
G01 X24.1992 Y-20.4910
G01 X24.1957 Y-20.4822
G01 X24.1914 Y-20.4737
G01 X24.1505 Y-20.4031
G01 X24.1466 Y-20.3975
G01 X24.1408 Y-20.3905
G01 X24.1308 Y-20.3804
G01 X24.1250 Y-20.3753
G01 X24.0494 Y-20.2757
G01 X24.0032 Y-20.1590
G01 X23.9945 Y-20.0870
G01 X23.9945 Y-18.7130
G01 X24.0032 Y-18.6410
G01 X24.0494 Y-18.5243
G01 X24.1249 Y-18.4249
G01 X24.1327 Y-18.4183
G01 X24.1637 Y-18.3876
G01 X24.1699 Y-18.3805
G01 X24.1765 Y-18.3710
G01 X24.1799 Y-18.3649
G01 X24.1829 Y-18.3585
G01 X24.2145 Y-18.2830
G01 X24.2173 Y-18.2739
G01 X24.2191 Y-18.2647
G01 X24.2199 Y-18.2576
G01 X24.2201 Y-18.2481
G01 X24.2194 Y-18.2387
G01 X24.2091 Y-18.1576
G01 X24.2070 Y-18.1485
G01 X24.2049 Y-18.1418
G01 X24.2022 Y-18.1353
G01 X24.1992 Y-18.1291
G01 X24.1956 Y-18.1230
G01 X24.1917 Y-18.1173
G01 X24.1496 Y-18.0609
G01 X24.1438 Y-18.0538
G01 X24.1356 Y-18.0450
G01 X24.1303 Y-18.0402
G01 X24.0353 Y-17.9452
G01 X24.0313 Y-17.9400
G01 X23.9633 Y-17.8250
G01 X23.9607 Y-17.8190
G01 X23.9226 Y-17.6880
G01 X23.9216 Y-17.6826
G01 X23.9200 Y-17.6609
G01 X23.9200 Y-16.9952
G01 X24.1300 Y-16.9952
G01 X24.1300 Y-17.6000
G01 X24.1317 Y-17.6338
G01 X24.1366 Y-17.6673
G01 X24.1449 Y-17.7001
G01 X24.1563 Y-17.7320
G01 X24.1707 Y-17.7626
G01 X24.1856 Y-17.7877
G01 X24.1908 Y-17.7955
G01 X24.2083 Y-17.8189
G01 X24.2278 Y-17.8406
G01 X24.2327 Y-17.8456
G01 X24.2526 Y-17.8636
G01 X24.2598 Y-17.8696
G01 X24.2833 Y-17.8869
G01 X24.3103 Y-17.9031
G01 X24.3430 Y-17.9187
G01 X24.3704 Y-17.9287
G01 X24.3793 Y-17.9314
G01 X24.4077 Y-17.9384
G01 X24.4366 Y-17.9428
G01 X24.4435 Y-17.9435
G01 X24.4703 Y-17.9449
G01 X25.1250 Y-17.9450
G01 X25.1565 Y-17.9435
G01 X25.1923 Y-17.9384
G01 X25.2251 Y-17.9301
G01 X25.2570 Y-17.9187
G01 X25.2876 Y-17.9043
G01 X25.3167 Y-17.8869
G01 X25.3439 Y-17.8667
G01 X25.3690 Y-17.8440
G01 X25.3917 Y-17.8189
G01 X25.4119 Y-17.7917
G01 X25.4270 Y-17.7667
G01 X25.4303 Y-17.7606
G01 X25.4418 Y-17.7363
G01 X25.4454 Y-17.7277
G01 X25.4551 Y-17.7001
G01 X25.4634 Y-17.6673
G01 X25.4683 Y-17.6338
G01 X25.4700 Y-17.6023
G01 X25.4700 Y-15.4000
G01 X25.4685 Y-15.3685
G01 X25.4634 Y-15.3327
G01 X25.4551 Y-15.2999
G01 X25.4437 Y-15.2680
G01 X25.4314 Y-15.2415
G01 X25.4281 Y-15.2353
G01 X25.4144 Y-15.2123
G01 X25.4092 Y-15.2045
G01 X25.3917 Y-15.1811
G01 X25.3673 Y-15.1544
G01 X25.3439 Y-15.1333
G01 X25.3167 Y-15.1131
G01 X25.2876 Y-15.0957
G01 X25.2592 Y-15.0822
G01 X25.2251 Y-15.0699
G01 X25.1946 Y-15.0621
G01 X25.1611 Y-15.0569
G01 X25.1450 Y-15.0559
G01 X25.1450 Y-14.8450
G01 X25.1859 Y-14.8450
G01 X25.2076 Y-14.8466
G01 X25.2130 Y-14.8476
G01 X25.3440 Y-14.8857
G01 X25.3500 Y-14.8883
G01 X25.4233 Y-14.9316
G01 X25.4315 Y-14.9357
G01 X25.4402 Y-14.9390
G01 X25.5271 Y-14.9626
G01 X25.5361 Y-14.9640
G01 X25.5453 Y-14.9644
G01 X25.5544 Y-14.9640
G01 X25.5612 Y-14.9631
G01 X25.5701 Y-14.9612
G01 X25.6469 Y-14.9406
G01 X25.6558 Y-14.9374
G01 X25.6665 Y-14.9323
G01 X25.6764 Y-14.9259
G01 X25.6855 Y-14.9183
G01 X25.7434 Y-14.8604
G01 X25.7495 Y-14.8532
G01 X25.7550 Y-14.8455
G01 X25.7596 Y-14.8372
G01 X25.7642 Y-14.8263
G01 X25.7863 Y-14.7450
G01 X25.7882 Y-14.7362
G01 X25.7891 Y-14.7294
G01 X25.7895 Y-14.7204
G01 X25.7895 Y-9.8552
G01 X25.7994 Y-9.7800
G01 X25.7999 Y-9.7692
G01 X25.8013 Y-9.7543
G01 X25.8011 Y-9.7429
G01 X25.8001 Y-9.7338
G01 X25.7987 Y-9.7271
G01 X25.7782 Y-9.6504
G01 X25.7744 Y-9.6392
G01 X25.7693 Y-9.6285
G01 X25.7629 Y-9.6186
G01 X25.7552 Y-9.6095
G01 X25.6974 Y-9.5516
G01 X25.6920 Y-9.5469
G01 X25.6864 Y-9.5426
G01 X25.6804 Y-9.5388
G01 X25.6742 Y-9.5354
G01 X25.6677 Y-9.5325
G01 X25.6610 Y-9.5300
G01 X25.5820 Y-9.5087
G01 X25.5709 Y-9.5065
G01 X25.5574 Y-9.5055
G01 X25.4109 Y-9.5055
G01 X25.4049 Y-9.5048
G01 X25.3319 Y-9.4725
G01 X25.2777 Y-9.4184
G01 X25.2453 Y-9.3454
G01 X25.2445 Y-9.3390
G01 X25.2445 Y-7.4609
G01 X25.2452 Y-7.4549
G01 X25.2775 Y-7.3819
G01 X25.3316 Y-7.3277
G01 X25.4046 Y-7.2953
G01 X25.4110 Y-7.2945
G01 X25.5620 Y-7.2944
G01 X25.6026 Y-7.2903
G01 X25.6137 Y-7.2877
G01 X25.6265 Y-7.2828
G01 X25.7019 Y-7.2455
G01 X25.7118 Y-7.2391
G01 X25.7174 Y-7.2347
G01 X25.7226 Y-7.2299
G01 X25.7275 Y-7.2247
G01 X25.7333 Y-7.2172
G01 X25.7800 Y-7.1471
G01 X25.7845 Y-7.1388
G01 X25.7872 Y-7.1322
G01 X25.7902 Y-7.1232
G01 X25.7922 Y-7.1140
G01 X25.7933 Y-7.1045
G01 X25.7965 Y-7.0553
G01 X25.7990 Y-7.0432
G01 X25.7997 Y-7.0363
G01 X25.7999 Y-7.0293
G01 X25.7991 Y-7.0177
G01 X25.7895 Y-6.9448
G01 X25.7894 Y-4.2800
G01 X25.7885 Y-4.2710
G01 X25.7868 Y-4.2621
G01 X25.7642 Y-4.1786
G01 X25.7596 Y-4.1677
G01 X25.7550 Y-4.1595
G01 X25.7495 Y-4.1517
G01 X25.7417 Y-4.1428
G01 X25.6837 Y-4.0850
G01 X25.6745 Y-4.0776
G01 X25.6644 Y-4.0715
G01 X25.6558 Y-4.0675
G01 X25.6446 Y-4.0637
G01 X25.5679 Y-4.0432
G01 X25.5545 Y-4.0409
G01 X25.5455 Y-4.0405
G01 X23.1921 Y-4.0405
G01 X23.1921 Y-0.4472
G01 X23.1912 Y-0.4360
G01 X23.1889 Y-0.4249
G01 X23.1683 Y-0.3481
G01 X23.1652 Y-0.3392
G01 X23.1611 Y-0.3306
G01 X23.1550 Y-0.3205
G01 X23.1507 Y-0.3148
G01 X23.1460 Y-0.3095
G01 X23.0846 Y-0.2485
G01 X23.0771 Y-0.2426
G01 X23.0691 Y-0.2376
G01 X23.0606 Y-0.2334
G01 X23.0517 Y-0.2300
G01 X22.9705 Y-0.2082
G01 X22.9594 Y-0.2062
G01 X22.9481 Y-0.2055
G01 X1.0352 Y-0.2056
G01 X0.9999 Y-0.2087
G01 X0.9919 Y-0.2080
G01 X0.9832 Y-0.2079
G01 X0.9616 Y-0.2088
G01 X0.8619 Y-0.2189
G01 X0.8241 Y-0.2266
G01 X0.7188 Y-0.2586
G01 X0.7100 Y-0.2617
G01 X0.6767 Y-0.2758
G01 X0.5795 Y-0.3277
G01 X0.5715 Y-0.3325
G01 X0.5416 Y-0.3528
G01 X0.4565 Y-0.4226
G01 X0.4495 Y-0.4289
G01 X0.4289 Y-0.4495
G01 X0.4226 Y-0.4565
G01 X0.3528 Y-0.5416
G01 X0.3312 Y-0.5735
G01 X0.2758 Y-0.6767
G01 X0.2609 Y-0.7122
G01 X0.2266 Y-0.8241
G01 X0.2189 Y-0.8619
G01 X0.2088 Y-0.9616
G01 X0.2079 Y-0.9832
G01 X0.2080 Y-0.9919
G01 X0.2087 Y-0.9999
G01 X0.2059 Y-1.0310
G01 X0.2055 Y-1.0393
G00 Z2.0000
G00 X4.8354 Y-3.4475
G01 F250.00
G01 Z-0.1086
G01 F500.00
G01 X4.9893 Y-3.6014
G01 X5.0445 Y-3.5686
G01 X5.1640 Y-3.5121
G01 X5.2906 Y-3.4665
G01 X5.2973 Y-3.4644
G01 X5.4278 Y-3.4318
G01 X5.5586 Y-3.4123
G01 X5.5679 Y-3.4114
G01 X5.7000 Y-3.4050
G01 X5.8321 Y-3.4114
G01 X5.8414 Y-3.4123
G01 X5.9722 Y-3.4318
G01 X6.1027 Y-3.4644
G01 X6.1094 Y-3.4665
G01 X6.2360 Y-3.5121
G01 X6.3555 Y-3.5686
G01 X6.4107 Y-3.6014
G01 X6.5653 Y-3.4468
G01 X6.5185 Y-3.4143
G01 X6.5151 Y-3.4123
G01 X6.3047 Y-3.3086
G01 X6.3010 Y-3.3071
G01 X6.0776 Y-3.2356
G01 X6.0738 Y-3.2346
G01 X5.8423 Y-3.1969
G01 X5.8383 Y-3.1966
G01 X5.6037 Y-3.1935
G01 X5.5998 Y-3.1938
G01 X5.3673 Y-3.2254
G01 X5.3634 Y-3.2262
G01 X5.1383 Y-3.2919
G01 X5.1345 Y-3.2933
G01 X4.9215 Y-3.3915
G01 X4.9180 Y-3.3934
G01 X4.8354 Y-3.4475
G00 Z2.0000
G00 X4.0911 Y-4.7599
G01 F250.00
G01 Z-0.1086
G01 F500.00
G01 X4.1024 Y-4.9941
G01 X4.1029 Y-4.9981
G01 X4.1486 Y-5.2282
G01 X4.1497 Y-5.2320
G01 X4.2290 Y-5.4528
G01 X4.2306 Y-5.4564
G01 X4.3416 Y-5.6630
G01 X4.3446 Y-5.6675
G01 X4.5014 Y-5.5107
G01 X4.4686 Y-5.4555
G01 X4.4121 Y-5.3360
G01 X4.3665 Y-5.2094
G01 X4.3644 Y-5.2027
G01 X4.3318 Y-5.0722
G01 X4.3123 Y-4.9414
G01 X4.3114 Y-4.9321
G01 X4.3050 Y-4.8000
G01 X4.3114 Y-4.6679
G01 X4.3123 Y-4.6586
G01 X4.3318 Y-4.5278
G01 X4.3644 Y-4.3973
G01 X4.3665 Y-4.3906
G01 X4.4121 Y-4.2640
G01 X4.4686 Y-4.1445
G01 X4.5014 Y-4.0893
G01 X4.3473 Y-3.9352
G01 X4.2669 Y-4.0676
G01 X4.2652 Y-4.0711
G01 X4.1744 Y-4.2875
G01 X4.1732 Y-4.2912
G01 X4.1154 Y-4.5186
G01 X4.1147 Y-4.5225
G01 X4.0912 Y-4.7559
G01 X4.0911 Y-4.7599
G00 Z2.0000
G00 X4.8332 Y-6.1547
G01 F250.00
G01 Z-0.1086
G01 F500.00
G01 X4.8489 Y-6.1659
G01 X5.0564 Y-6.2751
G01 X5.0601 Y-6.2767
G01 X5.2816 Y-6.3540
G01 X5.2854 Y-6.3550
G01 X5.5158 Y-6.3988
G01 X5.5198 Y-6.3992
G01 X5.7542 Y-6.4084
G01 X5.7582 Y-6.4083
G01 X5.9913 Y-6.3828
G01 X5.9952 Y-6.3820
G01 X6.2221 Y-6.3223
G01 X6.2258 Y-6.3210
G01 X6.4414 Y-6.2284
G01 X6.4449 Y-6.2266
G01 X6.5646 Y-6.1525
G01 X6.4107 Y-5.9986
G01 X6.3555 Y-6.0314
G01 X6.2360 Y-6.0879
G01 X6.1094 Y-6.1335
G01 X6.1027 Y-6.1356
G01 X5.9722 Y-6.1682
G01 X5.8414 Y-6.1877
G01 X5.8321 Y-6.1886
G01 X5.7000 Y-6.1950
G01 X5.5679 Y-6.1886
G01 X5.5586 Y-6.1877
G01 X5.4278 Y-6.1682
G01 X5.2973 Y-6.1356
G01 X5.2906 Y-6.1335
G01 X5.1640 Y-6.0879
G01 X5.0445 Y-6.0314
G01 X4.9893 Y-5.9986
G01 X4.8332 Y-6.1547
G00 Z2.0000
G00 X6.8986 Y-5.5107
G01 F250.00
G01 Z-0.1086
G01 F500.00
G01 X7.0524 Y-5.6645
G01 X7.1134 Y-5.5697
G01 X7.1153 Y-5.5662
G01 X7.2116 Y-5.3523
G01 X7.2130 Y-5.3486
G01 X7.2767 Y-5.1228
G01 X7.2774 Y-5.1189
G01 X7.3074 Y-4.8833
G01 X7.3096 Y-4.8009
G01 X7.2920 Y-4.5641
G01 X7.2914 Y-4.5601
G01 X7.2396 Y-4.3314
G01 X7.2385 Y-4.3276
G01 X7.1534 Y-4.1090
G01 X7.1517 Y-4.1054
G01 X7.0538 Y-3.9341
G01 X6.8986 Y-4.0893
G01 X6.9314 Y-4.1445
G01 X6.9879 Y-4.2640
G01 X7.0335 Y-4.3906
G01 X7.0356 Y-4.3973
G01 X7.0682 Y-4.5278
G01 X7.0877 Y-4.6586
G01 X7.0886 Y-4.6679
G01 X7.0950 Y-4.8000
G01 X7.0886 Y-4.9321
G01 X7.0877 Y-4.9414
G01 X7.0682 Y-5.0722
G01 X7.0356 Y-5.2027
G01 X7.0335 Y-5.2094
G01 X6.9879 Y-5.3360
G01 X6.9314 Y-5.4555
G01 X6.8986 Y-5.5107
G00 Z2.0000
G00 X9.0911 Y-4.7599
G01 F250.00
G01 Z-0.1086
G01 F500.00
G01 X9.1024 Y-4.9941
G01 X9.1029 Y-4.9981
G01 X9.1486 Y-5.2282
G01 X9.1497 Y-5.2320
G01 X9.2290 Y-5.4528
G01 X9.2306 Y-5.4564
G01 X9.3416 Y-5.6630
G01 X9.3446 Y-5.6675
G01 X9.5014 Y-5.5107
G01 X9.4686 Y-5.4555
G01 X9.4121 Y-5.3360
G01 X9.3665 Y-5.2094
G01 X9.3644 Y-5.2027
G01 X9.3318 Y-5.0722
G01 X9.3123 Y-4.9414
G01 X9.3114 Y-4.9321
G01 X9.3050 Y-4.8000
G01 X9.3114 Y-4.6679
G01 X9.3123 Y-4.6586
G01 X9.3318 Y-4.5278
G01 X9.3644 Y-4.3973
G01 X9.3665 Y-4.3906
G01 X9.4121 Y-4.2640
G01 X9.4686 Y-4.1445
G01 X9.5014 Y-4.0893
G01 X9.3473 Y-3.9352
G01 X9.2669 Y-4.0676
G01 X9.2652 Y-4.0711
G01 X9.1744 Y-4.2875
G01 X9.1732 Y-4.2912
G01 X9.1154 Y-4.5186
G01 X9.1147 Y-4.5225
G01 X9.0912 Y-4.7559
G01 X9.0911 Y-4.7599
G00 Z2.0000
G00 X9.8354 Y-3.4475
G01 F250.00
G01 Z-0.1086
G01 F500.00
G01 X9.9893 Y-3.6014
G01 X10.0445 Y-3.5686
G01 X10.1640 Y-3.5121
G01 X10.2906 Y-3.4665
G01 X10.2973 Y-3.4644
G01 X10.4278 Y-3.4318
G01 X10.5586 Y-3.4123
G01 X10.5679 Y-3.4114
G01 X10.7000 Y-3.4050
G01 X10.8321 Y-3.4114
G01 X10.8414 Y-3.4123
G01 X10.9722 Y-3.4318
G01 X11.1027 Y-3.4644
G01 X11.1094 Y-3.4665
G01 X11.2360 Y-3.5121
G01 X11.3555 Y-3.5686
G01 X11.4107 Y-3.6014
G01 X11.5653 Y-3.4468
G01 X11.5185 Y-3.4143
G01 X11.5151 Y-3.4123
G01 X11.3047 Y-3.3086
G01 X11.3010 Y-3.3071
G01 X11.0776 Y-3.2356
G01 X11.0738 Y-3.2346
G01 X10.8423 Y-3.1969
G01 X10.8383 Y-3.1966
G01 X10.6037 Y-3.1935
G01 X10.5998 Y-3.1938
G01 X10.3673 Y-3.2254
G01 X10.3634 Y-3.2262
G01 X10.1383 Y-3.2919
G01 X10.1345 Y-3.2933
G01 X9.9215 Y-3.3915
G01 X9.9180 Y-3.3934
G01 X9.8354 Y-3.4475
G00 Z2.0000
G00 X9.8332 Y-6.1547
G01 F250.00
G01 Z-0.1086
G01 F500.00
G01 X9.8489 Y-6.1659
G01 X10.0564 Y-6.2751
G01 X10.0601 Y-6.2767
G01 X10.2816 Y-6.3540
G01 X10.2854 Y-6.3550
G01 X10.5158 Y-6.3988
G01 X10.5198 Y-6.3992
G01 X10.7542 Y-6.4084
G01 X10.7582 Y-6.4083
G01 X10.9913 Y-6.3828
G01 X10.9952 Y-6.3820
G01 X11.2221 Y-6.3223
G01 X11.2258 Y-6.3210
G01 X11.4414 Y-6.2284
G01 X11.4449 Y-6.2266
G01 X11.5646 Y-6.1525
G01 X11.4107 Y-5.9986
G01 X11.3555 Y-6.0314
G01 X11.2360 Y-6.0879
G01 X11.1094 Y-6.1335
G01 X11.1027 Y-6.1356
G01 X10.9722 Y-6.1682
G01 X10.8414 Y-6.1877
G01 X10.8321 Y-6.1886
G01 X10.7000 Y-6.1950
G01 X10.5679 Y-6.1886
G01 X10.5586 Y-6.1877
G01 X10.4278 Y-6.1682
G01 X10.2973 Y-6.1356
G01 X10.2906 Y-6.1335
G01 X10.1640 Y-6.0879
G01 X10.0445 Y-6.0314
G01 X9.9893 Y-5.9986
G01 X9.8332 Y-6.1547
G00 Z2.0000
G00 X11.8986 Y-5.5107
G01 F250.00
G01 Z-0.1086
G01 F500.00
G01 X12.0524 Y-5.6645
G01 X12.1134 Y-5.5697
G01 X12.1153 Y-5.5662
G01 X12.2116 Y-5.3523
G01 X12.2130 Y-5.3486
G01 X12.2767 Y-5.1228
G01 X12.2774 Y-5.1189
G01 X12.3074 Y-4.8833
G01 X12.3096 Y-4.8009
G01 X12.2920 Y-4.5641
G01 X12.2914 Y-4.5601
G01 X12.2396 Y-4.3314
G01 X12.2385 Y-4.3276
G01 X12.1534 Y-4.1090
G01 X12.1517 Y-4.1054
G01 X12.0538 Y-3.9341
G01 X11.8986 Y-4.0893
G01 X11.9314 Y-4.1445
G01 X11.9879 Y-4.2640
G01 X12.0335 Y-4.3906
G01 X12.0356 Y-4.3973
G01 X12.0682 Y-4.5278
G01 X12.0877 Y-4.6586
G01 X12.0886 Y-4.6679
G01 X12.0950 Y-4.8000
G01 X12.0886 Y-4.9321
G01 X12.0877 Y-4.9414
G01 X12.0682 Y-5.0722
G01 X12.0356 Y-5.2027
G01 X12.0335 Y-5.2094
G01 X11.9879 Y-5.3360
G01 X11.9314 Y-5.4555
G01 X11.8986 Y-5.5107
G00 Z2.0000
G00 X14.0911 Y-4.7599
G01 F250.00
G01 Z-0.1086
G01 F500.00
G01 X14.1024 Y-4.9941
G01 X14.1029 Y-4.9981
G01 X14.1486 Y-5.2282
G01 X14.1497 Y-5.2320
G01 X14.2290 Y-5.4528
G01 X14.2306 Y-5.4564
G01 X14.3416 Y-5.6630
G01 X14.3446 Y-5.6675
G01 X14.5014 Y-5.5107
G01 X14.4686 Y-5.4555
G01 X14.4121 Y-5.3360
G01 X14.3665 Y-5.2094
G01 X14.3644 Y-5.2027
G01 X14.3318 Y-5.0722
G01 X14.3123 Y-4.9414
G01 X14.3114 Y-4.9321
G01 X14.3050 Y-4.8000
G01 X14.3114 Y-4.6679
G01 X14.3123 Y-4.6586
G01 X14.3318 Y-4.5278
G01 X14.3644 Y-4.3973
G01 X14.3665 Y-4.3906
G01 X14.4121 Y-4.2640
G01 X14.4686 Y-4.1445
G01 X14.5014 Y-4.0893
G01 X14.3473 Y-3.9352
G01 X14.2669 Y-4.0676
G01 X14.2652 Y-4.0711
G01 X14.1744 Y-4.2875
G01 X14.1732 Y-4.2912
G01 X14.1154 Y-4.5186
G01 X14.1147 Y-4.5225
G01 X14.0912 Y-4.7559
G01 X14.0911 Y-4.7599
G00 Z2.0000
G00 X14.8354 Y-3.4475
G01 F250.00
G01 Z-0.1086
G01 F500.00
G01 X14.9893 Y-3.6014
G01 X15.0445 Y-3.5686
G01 X15.1640 Y-3.5121
G01 X15.2906 Y-3.4665
G01 X15.2973 Y-3.4644
G01 X15.4278 Y-3.4318
G01 X15.5586 Y-3.4123
G01 X15.5679 Y-3.4114
G01 X15.7000 Y-3.4050
G01 X15.8321 Y-3.4114
G01 X15.8414 Y-3.4123
G01 X15.9722 Y-3.4318
G01 X16.1027 Y-3.4644
G01 X16.1094 Y-3.4665
G01 X16.2360 Y-3.5121
G01 X16.3555 Y-3.5686
G01 X16.4107 Y-3.6014
G01 X16.5653 Y-3.4468
G01 X16.5185 Y-3.4143
G01 X16.5151 Y-3.4123
G01 X16.3047 Y-3.3086
G01 X16.3010 Y-3.3071
G01 X16.0776 Y-3.2356
G01 X16.0738 Y-3.2346
G01 X15.8423 Y-3.1969
G01 X15.8383 Y-3.1966
G01 X15.6037 Y-3.1935
G01 X15.5998 Y-3.1938
G01 X15.3673 Y-3.2254
G01 X15.3634 Y-3.2262
G01 X15.1383 Y-3.2919
G01 X15.1345 Y-3.2933
G01 X14.9215 Y-3.3915
G01 X14.9180 Y-3.3934
G01 X14.8354 Y-3.4475
G00 Z2.0000
G00 X14.8332 Y-6.1547
G01 F250.00
G01 Z-0.1086
G01 F500.00
G01 X14.8489 Y-6.1659
G01 X15.0564 Y-6.2751
G01 X15.0601 Y-6.2767
G01 X15.2816 Y-6.3540
G01 X15.2854 Y-6.3550
G01 X15.5158 Y-6.3988
G01 X15.5198 Y-6.3992
G01 X15.7542 Y-6.4084
G01 X15.7582 Y-6.4083
G01 X15.9913 Y-6.3828
G01 X15.9952 Y-6.3820
G01 X16.2221 Y-6.3223
G01 X16.2258 Y-6.3210
G01 X16.4414 Y-6.2284
G01 X16.4449 Y-6.2266
G01 X16.5646 Y-6.1525
G01 X16.4107 Y-5.9986
G01 X16.3555 Y-6.0314
G01 X16.2360 Y-6.0879
G01 X16.1094 Y-6.1335
G01 X16.1027 Y-6.1356
G01 X15.9722 Y-6.1682
G01 X15.8414 Y-6.1877
G01 X15.8321 Y-6.1886
G01 X15.7000 Y-6.1950
G01 X15.5679 Y-6.1886
G01 X15.5586 Y-6.1877
G01 X15.4278 Y-6.1682
G01 X15.2973 Y-6.1356
G01 X15.2906 Y-6.1335
G01 X15.1640 Y-6.0879
G01 X15.0445 Y-6.0314
G01 X14.9893 Y-5.9986
G01 X14.8332 Y-6.1547
G00 Z2.0000
G00 X16.8986 Y-5.5107
G01 F250.00
G01 Z-0.1086
G01 F500.00
G01 X17.0524 Y-5.6645
G01 X17.1134 Y-5.5697
G01 X17.1153 Y-5.5662
G01 X17.2116 Y-5.3523
G01 X17.2130 Y-5.3486
G01 X17.2767 Y-5.1228
G01 X17.2774 Y-5.1189
G01 X17.3074 Y-4.8833
G01 X17.3096 Y-4.8009
G01 X17.2920 Y-4.5641
G01 X17.2914 Y-4.5601
G01 X17.2396 Y-4.3314
G01 X17.2385 Y-4.3276
G01 X17.1534 Y-4.1090
G01 X17.1517 Y-4.1054
G01 X17.0538 Y-3.9341
G01 X16.8986 Y-4.0893
G01 X16.9314 Y-4.1445
G01 X16.9879 Y-4.2640
G01 X17.0335 Y-4.3906
G01 X17.0356 Y-4.3973
G01 X17.0682 Y-4.5278
G01 X17.0877 Y-4.6586
G01 X17.0886 Y-4.6679
G01 X17.0950 Y-4.8000
G01 X17.0886 Y-4.9321
G01 X17.0877 Y-4.9414
G01 X17.0682 Y-5.0722
G01 X17.0356 Y-5.2027
G01 X17.0335 Y-5.2094
G01 X16.9879 Y-5.3360
G01 X16.9314 Y-5.4555
G01 X16.8986 Y-5.5107
G00 Z2.0000
G00 X19.0950 Y-5.1450
G01 F250.00
G01 Z-0.1086
G01 F500.00
G01 X19.0950 Y-6.1219
G01 X19.0953 Y-6.1261
G01 X19.1057 Y-6.1913
G01 X19.1082 Y-6.1991
G01 X19.1483 Y-6.2778
G01 X19.1531 Y-6.2844
G01 X19.2156 Y-6.3469
G01 X19.2222 Y-6.3517
G01 X19.3009 Y-6.3918
G01 X19.3087 Y-6.3943
G01 X19.3739 Y-6.4047
G01 X19.3781 Y-6.4050
G01 X20.3550 Y-6.4050
G01 X20.3550 Y-6.1950
G01 X19.3977 Y-6.1950
G01 X19.3884 Y-6.1943
G01 X19.3792 Y-6.1927
G01 X19.3724 Y-6.1909
G01 X19.3636 Y-6.1878
G01 X19.3552 Y-6.1838
G01 X19.3472 Y-6.1790
G01 X19.3397 Y-6.1734
G01 X19.3328 Y-6.1672
G01 X19.3266 Y-6.1603
G01 X19.3210 Y-6.1528
G01 X19.3162 Y-6.1448
G01 X19.3122 Y-6.1364
G01 X19.3098 Y-6.1298
G01 X19.3073 Y-6.1208
G01 X19.3057 Y-6.1116
G01 X19.3050 Y-6.1023
G01 X19.3050 Y-5.1450
G01 X19.0950 Y-5.1450
G00 Z2.0000
G00 X19.0950 Y-4.4550
G01 F250.00
G01 Z-0.1086
G01 F500.00
G01 X19.3050 Y-4.4550
G01 X19.3050 Y-3.4977
G01 X19.3057 Y-3.4884
G01 X19.3073 Y-3.4792
G01 X19.3098 Y-3.4702
G01 X19.3132 Y-3.4615
G01 X19.3162 Y-3.4552
G01 X19.3210 Y-3.4472
G01 X19.3266 Y-3.4397
G01 X19.3328 Y-3.4328
G01 X19.3397 Y-3.4266
G01 X19.3472 Y-3.4210
G01 X19.3552 Y-3.4162
G01 X19.3636 Y-3.4122
G01 X19.3724 Y-3.4091
G01 X19.3792 Y-3.4073
G01 X19.3884 Y-3.4057
G01 X19.3977 Y-3.4050
G01 X20.3550 Y-3.4050
G01 X20.3550 Y-3.1950
G01 X19.3781 Y-3.1950
G01 X19.3739 Y-3.1953
G01 X19.3087 Y-3.2057
G01 X19.3009 Y-3.2082
G01 X19.2222 Y-3.2483
G01 X19.2156 Y-3.2531
G01 X19.1531 Y-3.3156
G01 X19.1483 Y-3.3222
G01 X19.1082 Y-3.4009
G01 X19.1057 Y-3.4087
G01 X19.0953 Y-3.4739
G01 X19.0950 Y-3.4781
G01 X19.0950 Y-4.4550
G00 Z2.0000
G00 X21.0450 Y-3.4050
G01 F250.00
G01 Z-0.1086
G01 F500.00
G01 X22.0023 Y-3.4050
G01 X22.0093 Y-3.4055
G01 X22.0162 Y-3.4064
G01 X22.0231 Y-3.4078
G01 X22.0298 Y-3.4098
G01 X22.0364 Y-3.4122
G01 X22.0427 Y-3.4151
G01 X22.0488 Y-3.4185
G01 X22.0547 Y-3.4223
G01 X22.0638 Y-3.4296
G01 X22.0704 Y-3.4362
G01 X22.0777 Y-3.4453
G01 X22.0838 Y-3.4552
G01 X22.0886 Y-3.4658
G01 X22.0916 Y-3.4747
G01 X22.0936 Y-3.4838
G01 X22.0949 Y-3.4953
G01 X22.0950 Y-4.3048
G01 X22.3050 Y-4.3048
G01 X22.3050 Y-3.4781
G01 X22.3047 Y-3.4739
G01 X22.2943 Y-3.4087
G01 X22.2918 Y-3.4009
G01 X22.2517 Y-3.3222
G01 X22.2469 Y-3.3156
G01 X22.1844 Y-3.2531
G01 X22.1778 Y-3.2483
G01 X22.0991 Y-3.2082
G01 X22.0913 Y-3.2057
G01 X22.0261 Y-3.1953
G01 X22.0219 Y-3.1950
G01 X21.0450 Y-3.1950
G01 X21.0450 Y-3.4050
G00 Z2.0000
G00 X23.5341 Y-3.2285
G01 F250.00
G01 Z-0.1086
G01 F500.00
G01 X23.5341 Y-3.6985
G01 X25.5455 Y-3.6985
G01 X25.5663 Y-3.6990
G01 X25.5870 Y-3.7005
G01 X25.6077 Y-3.7029
G01 X25.6384 Y-3.7085
G01 X25.6586 Y-3.7134
G01 X25.7436 Y-3.7363
G01 X25.7643 Y-3.7430
G01 X25.7746 Y-3.7467
G01 X25.7948 Y-3.7549
G01 X25.8145 Y-3.7641
G01 X25.8242 Y-3.7691
G01 X25.8472 Y-3.7822
G01 X25.8703 Y-3.7691
G01 X25.8898 Y-3.7594
G01 X25.8997 Y-3.7549
G01 X25.9199 Y-3.7467
G01 X25.9405 Y-3.7395
G01 X25.9509 Y-3.7363
G01 X26.0359 Y-3.7134
G01 X26.0561 Y-3.7085
G01 X26.0765 Y-3.7046
G01 X26.0971 Y-3.7016
G01 X26.1282 Y-3.6990
G01 X26.1490 Y-3.6985
G01 X27.4335 Y-3.6986
G01 X27.4543 Y-3.6996
G01 X27.4750 Y-3.7016
G01 X27.4956 Y-3.7046
G01 X27.5160 Y-3.7085
G01 X27.5362 Y-3.7134
G01 X27.6107 Y-3.7334
G01 X27.6316 Y-3.7395
G01 X27.6420 Y-3.7430
G01 X27.6522 Y-3.7467
G01 X27.6724 Y-3.7549
G01 X27.6921 Y-3.7641
G01 X27.7114 Y-3.7743
G01 X27.7208 Y-3.7798
G01 X27.7393 Y-3.7914
G01 X27.7571 Y-3.8039
G01 X27.7705 Y-3.8142
G01 X27.8506 Y-3.7064
G01 X27.8573 Y-3.6981
G01 X27.8713 Y-3.6818
G01 X27.9570 Y-3.5873
G01 X27.9718 Y-3.5718
G01 X27.9873 Y-3.5570
G01 X28.0591 Y-3.4918
G01 X28.0131 Y-3.4917
G01 X27.9770 Y-3.4899
G01 X27.9556 Y-3.4878
G01 X27.9304 Y-3.4842
G01 X27.9198 Y-3.4825
G01 X27.8988 Y-3.4783
G01 X27.8741 Y-3.4723
G01 X27.8534 Y-3.4666
G01 X27.8192 Y-3.4549
G01 X27.7991 Y-3.4471
G01 X27.7893 Y-3.4429
G01 X27.7662 Y-3.4322
G01 X27.7471 Y-3.4225
G01 X27.7284 Y-3.4119
G01 X27.7066 Y-3.3987
G01 X27.6888 Y-3.3868
G01 X27.6801 Y-3.3805
G01 X27.6514 Y-3.3586
G01 X27.6351 Y-3.3446
G01 X27.6164 Y-3.3274
G01 X27.6087 Y-3.3199
G01 X27.5939 Y-3.3044
G01 X27.5769 Y-3.2854
G01 X27.5633 Y-3.2688
G01 X27.5480 Y-3.2485
G01 X27.5357 Y-3.2309
G01 X27.5242 Y-3.2128
G01 X27.5146 Y-3.1966
G01 X27.4793 Y-3.2317
G01 X27.4616 Y-3.2480
G01 X27.4385 Y-3.2677
G01 X27.4193 Y-3.2823
G01 X27.3945 Y-3.2997
G01 X27.3654 Y-3.3177
G01 X27.3477 Y-3.3275
G01 X27.3171 Y-3.3427
G01 X27.2891 Y-3.3546
G01 X27.2571 Y-3.3665
G01 X26.9714 Y-3.4617
G01 X26.9489 Y-3.4685
G01 X26.9221 Y-3.4757
G01 X26.8992 Y-3.4807
G01 X26.8602 Y-3.4871
G01 X26.8369 Y-3.4896
G01 X26.8091 Y-3.4912
G01 X26.7857 Y-3.4918
G01 X26.5835 Y-3.4917
G01 X26.5441 Y-3.4896
G01 X26.5208 Y-3.4871
G01 X26.5092 Y-3.4853
G01 X26.4818 Y-3.4807
G01 X26.4703 Y-3.4784
G01 X26.4589 Y-3.4757
G01 X26.4320 Y-3.4685
G01 X26.4096 Y-3.4617
G01 X26.1239 Y-3.3665
G01 X26.1048 Y-3.3596
G01 X26.0824 Y-3.3509
G01 X26.0548 Y-3.3383
G01 X26.0333 Y-3.3275
G01 X26.0156 Y-3.3177
G01 X25.9950 Y-3.3051
G01 X25.9781 Y-3.2941
G01 X25.9505 Y-3.2739
G01 X25.9269 Y-3.2547
G01 X25.9091 Y-3.2386
G01 X25.8944 Y-3.2246
G01 X25.7039 Y-3.0342
G01 X25.6878 Y-3.0172
G01 X25.6693 Y-2.9964
G01 X25.6546 Y-2.9781
G01 X25.6383 Y-2.9557
G01 X25.6251 Y-2.9363
G01 X25.6129 Y-2.9162
G01 X25.5993 Y-2.8920
G01 X25.5940 Y-2.8816
G01 X25.5476 Y-2.7889
G01 X25.5013 Y-2.8816
G01 X25.4959 Y-2.8920
G01 X25.4823 Y-2.9162
G01 X25.4702 Y-2.9363
G01 X25.4570 Y-2.9557
G01 X25.4406 Y-2.9781
G01 X25.4259 Y-2.9964
G01 X25.4074 Y-3.0172
G01 X25.3913 Y-3.0342
G01 X25.2008 Y-3.2246
G01 X25.1862 Y-3.2386
G01 X25.1683 Y-3.2547
G01 X25.1527 Y-3.2677
G01 X25.1336 Y-3.2823
G01 X25.1172 Y-3.2941
G01 X25.1002 Y-3.3051
G01 X25.0797 Y-3.3177
G01 X25.0620 Y-3.3275
G01 X25.0405 Y-3.3383
G01 X25.0221 Y-3.3469
G01 X24.9904 Y-3.3596
G01 X24.9714 Y-3.3665
G01 X24.6856 Y-3.4617
G01 X24.6632 Y-3.4685
G01 X24.6364 Y-3.4757
G01 X24.6250 Y-3.4784
G01 X24.6135 Y-3.4807
G01 X24.5861 Y-3.4853
G01 X24.5628 Y-3.4885
G01 X24.5395 Y-3.4903
G01 X24.5117 Y-3.4917
G01 X24.0238 Y-3.4918
G01 X23.9877 Y-3.4906
G01 X23.9663 Y-3.4890
G01 X23.9304 Y-3.4842
G01 X23.9198 Y-3.4825
G01 X23.8988 Y-3.4783
G01 X23.8741 Y-3.4723
G01 X23.8534 Y-3.4666
G01 X23.8192 Y-3.4549
G01 X23.7991 Y-3.4471
G01 X23.7795 Y-3.4385
G01 X23.7471 Y-3.4225
G01 X23.7158 Y-3.4044
G01 X23.6976 Y-3.3929
G01 X23.6801 Y-3.3805
G01 X23.6514 Y-3.3586
G01 X23.6351 Y-3.3446
G01 X23.6087 Y-3.3199
G01 X23.5939 Y-3.3044
G01 X23.5700 Y-3.2772
G01 X23.5480 Y-3.2485
G01 X23.5341 Y-3.2285
G00 Z2.0000
G00 X23.7788 Y-2.9094
G01 F250.00
G01 Z-0.1086
G01 F500.00
G01 X23.7799 Y-2.9288
G01 X23.7830 Y-2.9503
G01 X23.7880 Y-2.9714
G01 X23.7907 Y-2.9803
G01 X23.7974 Y-2.9985
G01 X23.8077 Y-3.0203
G01 X23.8200 Y-3.0409
G01 X23.8315 Y-3.0566
G01 X23.8374 Y-3.0638
G01 X23.8522 Y-3.0797
G01 X23.8683 Y-3.0942
G01 X23.8857 Y-3.1072
G01 X23.9042 Y-3.1186
G01 X23.9124 Y-3.1230
G01 X23.9300 Y-3.1312
G01 X23.9504 Y-3.1386
G01 X23.9714 Y-3.1441
G01 X23.9806 Y-3.1459
G01 X23.9998 Y-3.1487
G01 X24.0215 Y-3.1498
G01 X24.5000 Y-3.1498
G01 X24.5212 Y-3.1488
G01 X24.5288 Y-3.1481
G01 X24.5522 Y-3.1442
G01 X24.5751 Y-3.1380
G01 X24.8632 Y-3.0420
G01 X24.8803 Y-3.0355
G01 X24.8884 Y-3.0320
G01 X24.9048 Y-3.0237
G01 X24.9204 Y-3.0142
G01 X24.9259 Y-3.0105
G01 X24.9405 Y-2.9995
G01 X24.9574 Y-2.9844
G01 X25.1513 Y-2.7905
G01 X25.1654 Y-2.7748
G01 X25.1701 Y-2.7687
G01 X25.1824 Y-2.7515
G01 X25.1942 Y-2.7309
G01 X25.2906 Y-2.5382
G01 X25.2993 Y-2.5184
G01 X25.3021 Y-2.5112
G01 X25.3092 Y-2.4880
G01 X25.4051 Y-2.1042
G01 X25.4100 Y-2.0764
G01 X25.4117 Y-2.0476
G01 X25.4117 Y-1.7619
G01 X25.4104 Y-1.7378
G01 X25.4094 Y-1.7285
G01 X25.4044 Y-1.7025
G01 X25.3092 Y-1.3215
G01 X25.3021 Y-1.2984
G01 X25.2993 Y-1.2911
G01 X25.2906 Y-1.2714
G01 X25.1942 Y-1.0786
G01 X25.1824 Y-1.0580
G01 X25.1701 Y-1.0408
G01 X25.1637 Y-1.0328
G01 X25.1495 Y-1.0172
G01 X24.9574 Y-0.8252
G01 X24.9422 Y-0.8114
G01 X24.9277 Y-0.8003
G01 X24.9204 Y-0.7953
G01 X24.9028 Y-0.7847
G01 X24.8844 Y-0.7757
G01 X24.8632 Y-0.7675
G01 X24.5775 Y-0.6723
G01 X24.5522 Y-0.6653
G01 X24.5288 Y-0.6614
G01 X24.5212 Y-0.6607
G01 X24.5000 Y-0.6597
G01 X24.0238 Y-0.6597
G01 X24.0044 Y-0.6605
G01 X23.9952 Y-0.6614
G01 X23.9760 Y-0.6644
G01 X23.9572 Y-0.6690
G01 X23.9482 Y-0.6717
G01 X23.9300 Y-0.6783
G01 X23.9124 Y-0.6865
G01 X23.9042 Y-0.6909
G01 X23.8877 Y-0.7010
G01 X23.8720 Y-0.7124
G01 X23.8648 Y-0.7184
G01 X23.8505 Y-0.7315
G01 X23.8344 Y-0.7493
G01 X23.8227 Y-0.7648
G01 X23.8175 Y-0.7725
G01 X23.8077 Y-0.7892
G01 X23.7974 Y-0.8110
G01 X23.7907 Y-0.8292
G01 X23.7880 Y-0.8381
G01 X23.7834 Y-0.8569
G01 X23.7805 Y-0.8761
G01 X23.7797 Y-0.8831
G01 X23.7788 Y-0.9024
G01 X23.7788 Y-2.9094
G00 Z2.0000
G00 X24.2689 Y-2.6597
G01 F250.00
G01 Z-0.1086
G01 F500.00
G01 X24.4602 Y-2.6597
G01 X24.6533 Y-2.5953
G01 X24.7748 Y-2.4739
G01 X24.8402 Y-2.3430
G01 X24.9216 Y-2.0174
G01 X24.9216 Y-1.7921
G01 X24.8402 Y-1.4665
G01 X24.7748 Y-1.3356
G01 X24.6533 Y-1.2142
G01 X24.4602 Y-1.1498
G01 X24.2689 Y-1.1498
G01 X24.2689 Y-2.6597
G00 Z2.0000
G00 X24.4399 Y-2.4862
G01 F250.00
G01 Z-0.1086
G01 F500.00
G01 X24.5610 Y-2.4459
G01 X24.6342 Y-2.3726
G01 X24.6789 Y-2.2833
G01 X24.7506 Y-1.9964
G01 X24.7506 Y-1.8131
G01 X24.6789 Y-1.5262
G01 X24.6342 Y-1.4369
G01 X24.5610 Y-1.3637
G01 X24.4399 Y-1.3233
G01 X24.4399 Y-2.4862
G00 Z2.0000
G00 X25.0289 Y-3.5275
G01 F250.00
G01 Z-0.1086
G01 F500.00
G01 X25.5455 Y-3.5275
G01 X25.5600 Y-3.5277
G01 X25.5889 Y-3.5290
G01 X25.6177 Y-3.5318
G01 X25.6463 Y-3.5359
G01 X25.6606 Y-3.5385
G01 X25.6888 Y-3.5446
G01 X25.7920 Y-3.5723
G01 X25.8208 Y-3.5816
G01 X25.8473 Y-3.5916
G01 X25.8737 Y-3.5816
G01 X25.9025 Y-3.5723
G01 X25.9916 Y-3.5482
G01 X26.0198 Y-3.5414
G01 X26.0339 Y-3.5385
G01 X26.0625 Y-3.5337
G01 X26.0786 Y-3.5316
G01 X26.0565 Y-3.5241
G01 X26.0172 Y-3.5089
G01 X25.9914 Y-3.4976
G01 X25.9537 Y-3.4789
G01 X25.9291 Y-3.4652
G01 X25.8932 Y-3.4430
G01 X25.8700 Y-3.4271
G01 X25.8364 Y-3.4018
G01 X25.8147 Y-3.3838
G01 X25.8042 Y-3.3744
G01 X25.7836 Y-3.3554
G01 X25.7735 Y-3.3456
G01 X25.5830 Y-3.1551
G01 X25.5716 Y-3.1434
G01 X25.5476 Y-3.1169
G01 X25.5236 Y-3.1434
G01 X25.5122 Y-3.1551
G01 X25.3218 Y-3.3456
G01 X25.3117 Y-3.3554
G01 X25.2911 Y-3.3744
G01 X25.2698 Y-3.3929
G01 X25.2589 Y-3.4018
G01 X25.2366 Y-3.4188
G01 X25.2137 Y-3.4352
G01 X25.1901 Y-3.4506
G01 X25.1662 Y-3.4652
G01 X25.1539 Y-3.4722
G01 X25.1415 Y-3.4789
G01 X25.1165 Y-3.4915
G01 X25.0910 Y-3.5034
G01 X25.0649 Y-3.5142
G01 X25.0289 Y-3.5275
G00 Z2.0000
G00 X25.6908 Y-2.1071
G01 F250.00
G01 Z-0.1086
G01 F500.00
G01 X25.7861 Y-2.4880
G01 X25.7931 Y-2.5112
G01 X25.7959 Y-2.5184
G01 X25.8046 Y-2.5382
G01 X25.9010 Y-2.7309
G01 X25.9128 Y-2.7515
G01 X25.9251 Y-2.7687
G01 X25.9315 Y-2.7767
G01 X25.9458 Y-2.7923
G01 X26.1378 Y-2.9844
G01 X26.1513 Y-2.9967
G01 X26.1565 Y-3.0009
G01 X26.1712 Y-3.0118
G01 X26.1886 Y-3.0227
G01 X26.2108 Y-3.0338
G01 X26.2320 Y-3.0420
G01 X26.5177 Y-3.1373
G01 X26.5431 Y-3.1442
G01 X26.5690 Y-3.1484
G01 X26.5927 Y-3.1498
G01 X26.7857 Y-3.1498
G01 X26.8069 Y-3.1488
G01 X26.8170 Y-3.1477
G01 X26.8379 Y-3.1442
G01 X26.8632 Y-3.1373
G01 X27.1510 Y-3.0413
G01 X27.1701 Y-3.0338
G01 X27.1866 Y-3.0258
G01 X27.1943 Y-3.0215
G01 X27.2098 Y-3.0118
G01 X27.2279 Y-2.9981
G01 X27.2431 Y-2.9844
G01 X27.3400 Y-2.8876
G01 X27.3546 Y-2.8715
G01 X27.3704 Y-2.8504
G01 X27.3828 Y-2.8298
G01 X27.3931 Y-2.8081
G01 X27.4005 Y-2.7876
G01 X27.4070 Y-2.7621
G01 X27.4100 Y-2.7429
G01 X27.4109 Y-2.7337
G01 X27.4117 Y-2.7143
G01 X27.4109 Y-2.6949
G01 X27.4100 Y-2.6856
G01 X27.4070 Y-2.6665
G01 X27.4024 Y-2.6476
G01 X27.3997 Y-2.6387
G01 X27.3931 Y-2.6205
G01 X27.3849 Y-2.6029
G01 X27.3805 Y-2.5947
G01 X27.3704 Y-2.5781
G01 X27.3546 Y-2.5570
G01 X27.3416 Y-2.5427
G01 X27.3366 Y-2.5378
G01 X27.3221 Y-2.5248
G01 X27.3066 Y-2.5132
G01 X27.3009 Y-2.5092
G01 X27.2842 Y-2.4993
G01 X27.2626 Y-2.4888
G01 X27.2378 Y-2.4798
G01 X27.2145 Y-2.4739
G01 X27.1907 Y-2.4704
G01 X27.1713 Y-2.4693
G01 X27.1620 Y-2.4693
G01 X27.1426 Y-2.4704
G01 X27.1234 Y-2.4731
G01 X27.1166 Y-2.4744
G01 X27.0978 Y-2.4791
G01 X27.0729 Y-2.4879
G01 X27.0491 Y-2.4993
G01 X27.0305 Y-2.5105
G01 X27.0094 Y-2.5263
G01 X26.9934 Y-2.5410
G01 X26.9390 Y-2.5953
G01 X26.7459 Y-2.6597
G01 X26.6350 Y-2.6597
G01 X26.4419 Y-2.5953
G01 X26.3205 Y-2.4739
G01 X26.2550 Y-2.3430
G01 X26.1736 Y-2.0174
G01 X26.1736 Y-1.7921
G01 X26.2550 Y-1.4665
G01 X26.3205 Y-1.3356
G01 X26.4419 Y-1.2142
G01 X26.6350 Y-1.1498
G01 X26.7459 Y-1.1498
G01 X26.9390 Y-1.2142
G01 X26.9950 Y-1.2702
G01 X27.0130 Y-1.2861
G01 X27.0305 Y-1.2990
G01 X27.0491 Y-1.3103
G01 X27.0686 Y-1.3198
G01 X27.0772 Y-1.3233
G01 X27.0955 Y-1.3298
G01 X27.1189 Y-1.3356
G01 X27.1426 Y-1.3391
G01 X27.1620 Y-1.3402
G01 X27.1713 Y-1.3402
G01 X27.1930 Y-1.3389
G01 X27.2145 Y-1.3356
G01 X27.2356 Y-1.3304
G01 X27.2605 Y-1.3217
G01 X27.2842 Y-1.3103
G01 X27.3009 Y-1.3003
G01 X27.3066 Y-1.2963
G01 X27.3221 Y-1.2847
G01 X27.3366 Y-1.2717
G01 X27.3432 Y-1.2652
G01 X27.3561 Y-1.2507
G01 X27.3704 Y-1.2314
G01 X27.3828 Y-1.2108
G01 X27.3912 Y-1.1933
G01 X27.3948 Y-1.1847
G01 X27.4012 Y-1.1664
G01 X27.4060 Y-1.1476
G01 X27.4075 Y-1.1408
G01 X27.4100 Y-1.1239
G01 X27.4109 Y-1.1146
G01 X27.4117 Y-1.0952
G01 X27.4106 Y-1.0712
G01 X27.4070 Y-1.0474
G01 X27.4024 Y-1.0286
G01 X27.3997 Y-1.0197
G01 X27.3931 Y-1.0015
G01 X27.3849 Y-0.9839
G01 X27.3805 Y-0.9757
G01 X27.3704 Y-0.9591
G01 X27.3561 Y-0.9398
G01 X27.3416 Y-0.9236
G01 X27.2431 Y-0.8252
G01 X27.2279 Y-0.8114
G01 X27.2134 Y-0.8003
G01 X27.2061 Y-0.7953
G01 X27.1885 Y-0.7847
G01 X27.1701 Y-0.7757
G01 X27.1489 Y-0.7675
G01 X26.8632 Y-0.6723
G01 X26.8379 Y-0.6653
G01 X26.8145 Y-0.6614
G01 X26.8069 Y-0.6607
G01 X26.7857 Y-0.6597
G01 X26.5927 Y-0.6597
G01 X26.5690 Y-0.6611
G01 X26.5431 Y-0.6653
G01 X26.5177 Y-0.6723
G01 X26.2299 Y-0.7682
G01 X26.2108 Y-0.7757
G01 X26.1944 Y-0.7837
G01 X26.1867 Y-0.7880
G01 X26.1712 Y-0.7977
G01 X26.1530 Y-0.8114
G01 X26.1362 Y-0.8267
G01 X25.9458 Y-1.0172
G01 X25.9315 Y-1.0328
G01 X25.9266 Y-1.0387
G01 X25.9128 Y-1.0580
G01 X25.8998 Y-1.0809
G01 X25.8046 Y-1.2714
G01 X25.7940 Y-1.2959
G01 X25.7861 Y-1.3215
G01 X25.6908 Y-1.7025
G01 X25.6855 Y-1.7308
G01 X25.6835 Y-1.7619
G01 X25.6835 Y-2.0476
G01 X25.6852 Y-2.0764
G01 X25.6908 Y-2.1071
G00 Z2.0000
G00 X25.5476 Y-1.5702
G01 F250.00
G01 Z-0.1086
G01 F500.00
G01 X25.4751 Y-1.2800
G01 X25.4712 Y-1.2660
G01 X25.4617 Y-1.2366
G01 X25.4562 Y-1.2231
G01 X25.4436 Y-1.1949
G01 X25.3483 Y-1.0044
G01 X25.3416 Y-0.9918
G01 X25.3301 Y-0.9717
G01 X25.3223 Y-0.9597
G01 X25.3046 Y-0.9351
G01 X25.2957 Y-0.9240
G01 X25.2754 Y-0.9014
G01 X25.0799 Y-0.7058
G01 X25.0561 Y-0.6838
G01 X25.0417 Y-0.6722
G01 X25.0257 Y-0.6601
G01 X25.0155 Y-0.6532
G01 X24.9878 Y-0.6363
G01 X24.9769 Y-0.6306
G01 X24.9533 Y-0.6192
G01 X24.9231 Y-0.6073
G01 X24.6248 Y-0.5079
G01 X24.5955 Y-0.4998
G01 X24.5746 Y-0.4956
G01 X24.5445 Y-0.4911
G01 X24.5303 Y-0.4899
G01 X24.5071 Y-0.4888
G01 X24.0238 Y-0.4887
G01 X23.9960 Y-0.4897
G01 X23.9765 Y-0.4914
G01 X23.9426 Y-0.4967
G01 X23.9093 Y-0.5048
G01 X23.8968 Y-0.5086
G01 X23.8768 Y-0.5157
G01 X23.8586 Y-0.5229
G01 X23.8277 Y-0.5378
G01 X23.7981 Y-0.5552
G01 X23.7820 Y-0.5663
G01 X23.7650 Y-0.5791
G01 X23.7549 Y-0.5873
G01 X23.7343 Y-0.6060
G01 X23.7250 Y-0.6152
G01 X23.7064 Y-0.6358
G01 X23.6941 Y-0.6511
G01 X23.6815 Y-0.6682
G01 X23.6709 Y-0.6846
G01 X23.6569 Y-0.7086
G01 X23.6447 Y-0.7336
G01 X23.6370 Y-0.7516
G01 X23.6276 Y-0.7778
G01 X23.6238 Y-0.7903
G01 X23.6171 Y-0.8172
G01 X23.6145 Y-0.8300
G01 X23.6105 Y-0.8575
G01 X23.6092 Y-0.8705
G01 X23.6078 Y-0.8982
G01 X23.6077 Y-2.9048
G01 X23.6081 Y-2.9178
G01 X23.6092 Y-2.9390
G01 X23.6105 Y-2.9520
G01 X23.6157 Y-2.9859
G01 X23.6222 Y-3.0130
G01 X23.6257 Y-3.0255
G01 X23.6370 Y-3.0579
G01 X23.6420 Y-3.0700
G01 X23.6539 Y-3.0951
G01 X23.6600 Y-3.1066
G01 X23.6709 Y-3.1249
G01 X23.6779 Y-3.1359
G01 X23.6854 Y-3.1466
G01 X23.6981 Y-3.1636
G01 X23.7064 Y-3.1737
G01 X23.7250 Y-3.1943
G01 X23.7343 Y-3.2035
G01 X23.7549 Y-3.2222
G01 X23.7701 Y-3.2344
G01 X23.7873 Y-3.2470
G01 X23.8037 Y-3.2577
G01 X23.8277 Y-3.2717
G01 X23.8526 Y-3.2839
G01 X23.8706 Y-3.2916
G01 X23.8968 Y-3.3009
G01 X23.9093 Y-3.3047
G01 X23.9362 Y-3.3115
G01 X23.9555 Y-3.3151
G01 X23.9830 Y-3.3188
G01 X23.9960 Y-3.3198
G01 X24.0238 Y-3.3208
G01 X24.5000 Y-3.3208
G01 X24.5143 Y-3.3205
G01 X24.5374 Y-3.3191
G01 X24.5587 Y-3.3165
G01 X24.5816 Y-3.3127
G01 X24.5955 Y-3.3097
G01 X24.6179 Y-3.3036
G01 X24.6316 Y-3.2995
G01 X24.9231 Y-3.2022
G01 X24.9533 Y-3.1904
G01 X24.9769 Y-3.1790
G01 X24.9878 Y-3.1732
G01 X24.9985 Y-3.1670
G01 X25.0155 Y-3.1564
G01 X25.0257 Y-3.1494
G01 X25.0514 Y-3.1297
G01 X25.0755 Y-3.1080
G01 X25.2754 Y-2.9081
G01 X25.2957 Y-2.8856
G01 X25.3046 Y-2.8745
G01 X25.3223 Y-2.8498
G01 X25.3301 Y-2.8378
G01 X25.3416 Y-2.8177
G01 X25.3483 Y-2.8051
G01 X25.4436 Y-2.6146
G01 X25.4562 Y-2.5864
G01 X25.4617 Y-2.5729
G01 X25.4663 Y-2.5592
G01 X25.4751 Y-2.5295
G01 X25.5476 Y-2.2393
G01 X25.6202 Y-2.5295
G01 X25.6241 Y-2.5435
G01 X25.6336 Y-2.5729
G01 X25.6390 Y-2.5864
G01 X25.6517 Y-2.6146
G01 X25.7469 Y-2.8051
G01 X25.7536 Y-2.8177
G01 X25.7690 Y-2.8439
G01 X25.7864 Y-2.8687
G01 X25.7950 Y-2.8801
G01 X25.8043 Y-2.8909
G01 X25.8199 Y-2.9081
G01 X26.0153 Y-3.1037
G01 X26.0391 Y-3.1257
G01 X26.0486 Y-3.1336
G01 X26.0696 Y-3.1494
G01 X26.0797 Y-3.1564
G01 X26.1021 Y-3.1702
G01 X26.1128 Y-3.1761
G01 X26.1363 Y-3.1878
G01 X26.1476 Y-3.1928
G01 X26.1721 Y-3.2022
G01 X26.4705 Y-3.3016
G01 X26.4928 Y-3.3079
G01 X26.5067 Y-3.3113
G01 X26.5366 Y-3.3165
G01 X26.5578 Y-3.3191
G01 X26.5881 Y-3.3207
G01 X26.7857 Y-3.3208
G01 X26.8000 Y-3.3205
G01 X26.8303 Y-3.3184
G01 X26.8444 Y-3.3165
G01 X26.8673 Y-3.3127
G01 X26.8881 Y-3.3079
G01 X26.9173 Y-3.2995
G01 X27.2030 Y-3.2042
G01 X27.2276 Y-3.1951
G01 X27.2390 Y-3.1904
G01 X27.2502 Y-3.1851
G01 X27.2735 Y-3.1732
G01 X27.3012 Y-3.1564
G01 X27.3164 Y-3.1457
G01 X27.3371 Y-3.1297
G01 X27.3612 Y-3.1080
G01 X27.4654 Y-3.0038
G01 X27.4883 Y-2.9782
G01 X27.5089 Y-2.9508
G01 X27.5162 Y-2.9400
G01 X27.5305 Y-2.9161
G01 X27.5366 Y-2.9046
G01 X27.5485 Y-2.8795
G01 X27.5535 Y-2.8674
G01 X27.5629 Y-2.8413
G01 X27.5666 Y-2.8288
G01 X27.5719 Y-2.8082
G01 X27.5747 Y-2.7955
G01 X27.5770 Y-2.7826
G01 X27.5800 Y-2.7616
G01 X27.5817 Y-2.7420
G01 X27.5827 Y-2.7208
G01 X27.5827 Y-2.7078
G01 X27.5813 Y-2.6800
G01 X27.5791 Y-2.6605
G01 X27.5759 Y-2.6395
G01 X27.5734 Y-2.6267
G01 X27.5666 Y-2.5998
G01 X27.5629 Y-2.5873
G01 X27.5535 Y-2.5611
G01 X27.5485 Y-2.5491
G01 X27.5366 Y-2.5239
G01 X27.5305 Y-2.5124
G01 X27.5126 Y-2.4831
G01 X27.5051 Y-2.4725
G01 X27.4883 Y-2.4503
G01 X27.4699 Y-2.4295
G01 X27.4609 Y-2.4201
G01 X27.4405 Y-2.4012
G01 X27.4306 Y-2.3927
G01 X27.4085 Y-2.3758
G01 X27.3978 Y-2.3683
G01 X27.3868 Y-2.3613
G01 X27.3628 Y-2.3473
G01 X27.3378 Y-2.3352
G01 X27.3259 Y-2.3299
G01 X27.2937 Y-2.3181
G01 X27.2812 Y-2.3143
G01 X27.2542 Y-2.3076
G01 X27.2414 Y-2.3050
G01 X27.2139 Y-2.3009
G01 X27.2009 Y-2.2997
G01 X27.1732 Y-2.2983
G01 X27.1601 Y-2.2983
G01 X27.1389 Y-2.2993
G01 X27.1194 Y-2.3009
G01 X27.0984 Y-2.3040
G01 X27.0855 Y-2.3062
G01 X27.0728 Y-2.3091
G01 X27.0522 Y-2.3143
G01 X27.0397 Y-2.3181
G01 X27.0135 Y-2.3275
G01 X27.0014 Y-2.3325
G01 X26.9763 Y-2.3443
G01 X26.9648 Y-2.3505
G01 X26.9410 Y-2.3648
G01 X26.9248 Y-2.3758
G01 X26.9078 Y-2.3886
G01 X26.8928 Y-2.4012
G01 X26.8771 Y-2.4155
G01 X26.8467 Y-2.4459
G01 X26.7182 Y-2.4887
G01 X26.6628 Y-2.4887
G01 X26.5343 Y-2.4459
G01 X26.4610 Y-2.3726
G01 X26.4164 Y-2.2833
G01 X26.3446 Y-1.9964
G01 X26.3446 Y-1.8131
G01 X26.4164 Y-1.5262
G01 X26.4610 Y-1.4369
G01 X26.5343 Y-1.3637
G01 X26.6628 Y-1.3208
G01 X26.7182 Y-1.3208
G01 X26.8467 Y-1.3637
G01 X26.8771 Y-1.3940
G01 X26.8928 Y-1.4083
G01 X26.9078 Y-1.4209
G01 X26.9301 Y-1.4375
G01 X26.9465 Y-1.4482
G01 X26.9705 Y-1.4622
G01 X26.9955 Y-1.4744
G01 X27.0074 Y-1.4796
G01 X27.0196 Y-1.4843
G01 X27.0459 Y-1.4934
G01 X27.0728 Y-1.5005
G01 X27.0855 Y-1.5033
G01 X27.0984 Y-1.5056
G01 X27.1259 Y-1.5093
G01 X27.1536 Y-1.5110
G01 X27.1732 Y-1.5112
G01 X27.2009 Y-1.5099
G01 X27.2204 Y-1.5077
G01 X27.2478 Y-1.5033
G01 X27.2749 Y-1.4969
G01 X27.2937 Y-1.4914
G01 X27.3198 Y-1.4821
G01 X27.3378 Y-1.4744
G01 X27.3628 Y-1.4622
G01 X27.3868 Y-1.4482
G01 X27.3978 Y-1.4412
G01 X27.4203 Y-1.4249
G01 X27.4356 Y-1.4127
G01 X27.4562 Y-1.3940
G01 X27.4699 Y-1.3800
G01 X27.4883 Y-1.3592
G01 X27.5051 Y-1.3371
G01 X27.5162 Y-1.3209
G01 X27.5305 Y-1.2971
G01 X27.5395 Y-1.2797
G01 X27.5511 Y-1.2545
G01 X27.5558 Y-1.2423
G01 X27.5648 Y-1.2160
G01 X27.5719 Y-1.1891
G01 X27.5759 Y-1.1700
G01 X27.5800 Y-1.1425
G01 X27.5817 Y-1.1230
G01 X27.5827 Y-1.0952
G01 X27.5817 Y-1.0675
G01 X27.5800 Y-1.0480
G01 X27.5759 Y-1.0205
G01 X27.5734 Y-1.0077
G01 X27.5666 Y-0.9807
G01 X27.5629 Y-0.9682
G01 X27.5535 Y-0.9421
G01 X27.5485 Y-0.9300
G01 X27.5366 Y-0.9049
G01 X27.5305 Y-0.8934
G01 X27.5162 Y-0.8696
G01 X27.5089 Y-0.8587
G01 X27.4924 Y-0.8364
G01 X27.4841 Y-0.8263
G01 X27.4654 Y-0.8057
G01 X27.3612 Y-0.7015
G01 X27.3371 Y-0.6798
G01 X27.3114 Y-0.6601
G01 X27.3012 Y-0.6532
G01 X27.2842 Y-0.6425
G01 X27.2681 Y-0.6334
G01 X27.2390 Y-0.6192
G01 X27.2146 Y-0.6094
G01 X27.2030 Y-0.6053
G01 X26.9173 Y-0.5100
G01 X26.9036 Y-0.5059
G01 X26.8812 Y-0.4998
G01 X26.8603 Y-0.4956
G01 X26.8303 Y-0.4911
G01 X26.8160 Y-0.4899
G01 X26.7928 Y-0.4888
G01 X26.5881 Y-0.4888
G01 X26.5649 Y-0.4899
G01 X26.5507 Y-0.4911
G01 X26.5366 Y-0.4930
G01 X26.5067 Y-0.4982
G01 X26.4773 Y-0.5059
G01 X26.4637 Y-0.5100
G01 X26.1779 Y-0.6053
G01 X26.1534 Y-0.6145
G01 X26.1420 Y-0.6192
G01 X26.1128 Y-0.6334
G01 X26.1021 Y-0.6394
G01 X26.0849 Y-0.6499
G01 X26.0696 Y-0.6601
G01 X26.0438 Y-0.6798
G01 X26.0197 Y-0.7015
G01 X25.8199 Y-0.9014
G01 X25.7996 Y-0.9240
G01 X25.7906 Y-0.9351
G01 X25.7729 Y-0.9597
G01 X25.7652 Y-0.9717
G01 X25.7536 Y-0.9918
G01 X25.7469 Y-1.0044
G01 X25.6517 Y-1.1949
G01 X25.6390 Y-1.2231
G01 X25.6336 Y-1.2366
G01 X25.6289 Y-1.2504
G01 X25.6202 Y-1.2800
G01 X25.5476 Y-1.5702
G00 Z2.0000
G00 X27.2657 Y-1.9629
G01 F250.00
G01 Z-0.1086
G01 F500.00
G01 X27.2657 Y-1.8467
G01 X27.2410 Y-1.8497
G01 X27.2261 Y-1.8509
G01 X27.1816 Y-1.8531
G01 X27.1517 Y-1.8531
G01 X27.1072 Y-1.8509
G01 X27.0775 Y-1.8480
G01 X27.0334 Y-1.8415
G01 X27.0042 Y-1.8357
G01 X26.9754 Y-1.8286
G01 X26.9466 Y-1.8207
G01 X26.9324 Y-1.8162
G01 X26.9044 Y-1.8063
G01 X26.8766 Y-1.7956
G01 X26.8493 Y-1.7835
G01 X26.8226 Y-1.7707
G01 X26.8093 Y-1.7638
G01 X26.7833 Y-1.7491
G01 X26.7580 Y-1.7337
G01 X26.7455 Y-1.7256
G01 X26.7230 Y-1.7098
G01 X26.6866 Y-1.8552
G01 X26.6866 Y-1.9543
G01 X26.7230 Y-2.0998
G01 X26.7455 Y-2.0840
G01 X26.7580 Y-2.0758
G01 X26.7833 Y-2.0604
G01 X26.8093 Y-2.0457
G01 X26.8226 Y-2.0389
G01 X26.8493 Y-2.0260
G01 X26.8766 Y-2.0139
G01 X26.9044 Y-2.0032
G01 X26.9324 Y-1.9934
G01 X26.9466 Y-1.9889
G01 X26.9754 Y-1.9809
G01 X27.0042 Y-1.9739
G01 X27.0334 Y-1.9680
G01 X27.0775 Y-1.9615
G01 X27.1072 Y-1.9586
G01 X27.1517 Y-1.9564
G01 X27.1816 Y-1.9564
G01 X27.2261 Y-1.9586
G01 X27.2410 Y-1.9599
G01 X27.2657 Y-1.9629
G00 Z2.0000
G00 X27.4367 Y-2.1931
G01 F250.00
G01 Z-0.1086
G01 F500.00
G01 X27.4367 Y-1.6165
G01 X27.4109 Y-1.6289
G01 X27.3913 Y-1.6376
G01 X27.3575 Y-1.6503
G01 X27.3473 Y-1.6538
G01 X27.3268 Y-1.6600
G01 X27.3021 Y-1.6663
G01 X27.2812 Y-1.6710
G01 X27.2601 Y-1.6747
G01 X27.2349 Y-1.6783
G01 X27.2242 Y-1.6795
G01 X27.2028 Y-1.6811
G01 X27.1774 Y-1.6822
G01 X27.1559 Y-1.6822
G01 X27.1305 Y-1.6811
G01 X27.1091 Y-1.6795
G01 X27.0878 Y-1.6769
G01 X27.0627 Y-1.6730
G01 X27.0416 Y-1.6688
G01 X27.0169 Y-1.6628
G01 X26.9962 Y-1.6570
G01 X26.9759 Y-1.6503
G01 X26.9520 Y-1.6416
G01 X26.9321 Y-1.6334
G01 X26.9091 Y-1.6226
G01 X26.8899 Y-1.6130
G01 X26.8586 Y-1.5948
G01 X26.8405 Y-1.5834
G01 X26.8230 Y-1.5710
G01 X26.7942 Y-1.5491
G01 X26.7780 Y-1.5350
G01 X26.7544 Y-1.5132
G01 X26.6905 Y-1.4918
G01 X26.6267 Y-1.5131
G01 X26.6015 Y-1.5382
G01 X26.5777 Y-1.5859
G01 X26.5156 Y-1.8342
G01 X26.5156 Y-1.9753
G01 X26.5777 Y-2.2237
G01 X26.6015 Y-2.2713
G01 X26.6266 Y-2.2964
G01 X26.6905 Y-2.3177
G01 X26.7544 Y-2.2964
G01 X26.7780 Y-2.2745
G01 X26.7942 Y-2.2605
G01 X26.8111 Y-2.2473
G01 X26.8317 Y-2.2322
G01 X26.8495 Y-2.2203
G01 X26.8713 Y-2.2071
G01 X26.8899 Y-2.1965
G01 X26.9091 Y-2.1869
G01 X26.9321 Y-2.1761
G01 X26.9520 Y-2.1679
G01 X26.9759 Y-2.1592
G01 X26.9962 Y-2.1525
G01 X27.0312 Y-2.1432
G01 X27.0521 Y-2.1385
G01 X27.0733 Y-2.1348
G01 X27.0985 Y-2.1312
G01 X27.1091 Y-2.1300
G01 X27.1305 Y-2.1285
G01 X27.1559 Y-2.1273
G01 X27.1774 Y-2.1273
G01 X27.2028 Y-2.1285
G01 X27.2242 Y-2.1300
G01 X27.2455 Y-2.1327
G01 X27.2707 Y-2.1365
G01 X27.2917 Y-2.1407
G01 X27.3021 Y-2.1432
G01 X27.3268 Y-2.1495
G01 X27.3473 Y-2.1557
G01 X27.3713 Y-2.1642
G01 X27.3913 Y-2.1719
G01 X27.4109 Y-2.1806
G01 X27.4367 Y-2.1931
G00 Z2.0000
G00 X27.7788 Y-2.9094
G01 F250.00
G01 Z-0.1086
G01 F500.00
G01 X27.7799 Y-2.9288
G01 X27.7830 Y-2.9503
G01 X27.7880 Y-2.9714
G01 X27.7907 Y-2.9803
G01 X27.7974 Y-2.9985
G01 X27.8077 Y-3.0203
G01 X27.8200 Y-3.0409
G01 X27.8315 Y-3.0566
G01 X27.8374 Y-3.0638
G01 X27.8522 Y-3.0797
G01 X27.8683 Y-3.0942
G01 X27.8857 Y-3.1072
G01 X27.9042 Y-3.1186
G01 X27.9124 Y-3.1230
G01 X27.9300 Y-3.1312
G01 X27.9504 Y-3.1386
G01 X27.9714 Y-3.1441
G01 X27.9806 Y-3.1459
G01 X27.9998 Y-3.1487
G01 X28.0215 Y-3.1498
G01 X28.5000 Y-3.1498
G01 X28.5212 Y-3.1488
G01 X28.5288 Y-3.1481
G01 X28.5522 Y-3.1442
G01 X28.5751 Y-3.1380
G01 X28.8632 Y-3.0420
G01 X28.8803 Y-3.0355
G01 X28.8884 Y-3.0320
G01 X28.9048 Y-3.0237
G01 X28.9204 Y-3.0142
G01 X28.9259 Y-3.0105
G01 X28.9405 Y-2.9995
G01 X28.9574 Y-2.9844
G01 X29.1513 Y-2.7905
G01 X29.1654 Y-2.7748
G01 X29.1701 Y-2.7687
G01 X29.1824 Y-2.7515
G01 X29.1942 Y-2.7309
G01 X29.2906 Y-2.5382
G01 X29.2993 Y-2.5184
G01 X29.3021 Y-2.5112
G01 X29.3092 Y-2.4880
G01 X29.4051 Y-2.1042
G01 X29.4100 Y-2.0764
G01 X29.4117 Y-2.0476
G01 X29.4117 Y-1.7619
G01 X29.4104 Y-1.7378
G01 X29.4094 Y-1.7285
G01 X29.4044 Y-1.7025
G01 X29.3092 Y-1.3215
G01 X29.3021 Y-1.2984
G01 X29.2993 Y-1.2911
G01 X29.2906 Y-1.2714
G01 X29.1942 Y-1.0786
G01 X29.1824 Y-1.0580
G01 X29.1701 Y-1.0408
G01 X29.1637 Y-1.0328
G01 X29.1495 Y-1.0172
G01 X28.9574 Y-0.8252
G01 X28.9422 Y-0.8114
G01 X28.9277 Y-0.8003
G01 X28.9204 Y-0.7953
G01 X28.9028 Y-0.7847
G01 X28.8844 Y-0.7757
G01 X28.8632 Y-0.7675
G01 X28.5775 Y-0.6723
G01 X28.5522 Y-0.6653
G01 X28.5288 Y-0.6614
G01 X28.5212 Y-0.6607
G01 X28.5000 Y-0.6597
G01 X28.0238 Y-0.6597
G01 X28.0044 Y-0.6605
G01 X27.9952 Y-0.6614
G01 X27.9760 Y-0.6644
G01 X27.9572 Y-0.6690
G01 X27.9482 Y-0.6717
G01 X27.9300 Y-0.6783
G01 X27.9124 Y-0.6865
G01 X27.9042 Y-0.6909
G01 X27.8877 Y-0.7010
G01 X27.8720 Y-0.7124
G01 X27.8648 Y-0.7184
G01 X27.8505 Y-0.7315
G01 X27.8344 Y-0.7493
G01 X27.8227 Y-0.7648
G01 X27.8175 Y-0.7725
G01 X27.8077 Y-0.7892
G01 X27.7974 Y-0.8110
G01 X27.7907 Y-0.8292
G01 X27.7880 Y-0.8381
G01 X27.7834 Y-0.8569
G01 X27.7805 Y-0.8761
G01 X27.7797 Y-0.8831
G01 X27.7788 Y-0.9024
G01 X27.7788 Y-2.9094
G00 Z2.0000
G00 X28.2689 Y-2.6597
G01 F250.00
G01 Z-0.1086
G01 F500.00
G01 X28.4602 Y-2.6597
G01 X28.6533 Y-2.5953
G01 X28.7748 Y-2.4739
G01 X28.8402 Y-2.3430
G01 X28.9216 Y-2.0174
G01 X28.9216 Y-1.7921
G01 X28.8402 Y-1.4665
G01 X28.7748 Y-1.3356
G01 X28.6533 Y-1.2142
G01 X28.4602 Y-1.1498
G01 X28.2689 Y-1.1498
G01 X28.2689 Y-2.6597
G00 Z2.0000
G00 X28.4399 Y-2.4862
G01 F250.00
G01 Z-0.1086
G01 F500.00
G01 X28.5610 Y-2.4459
G01 X28.6342 Y-2.3726
G01 X28.6789 Y-2.2833
G01 X28.7506 Y-1.9964
G01 X28.7506 Y-1.8131
G01 X28.6789 Y-1.5262
G01 X28.6342 Y-1.4369
G01 X28.5610 Y-1.3637
G01 X28.4399 Y-1.3233
G01 X28.4399 Y-2.4862
G00 Z2.0000
G00 X29.3553 Y-3.0702
G01 F250.00
G01 Z-0.1086
G01 F500.00
G01 X29.3703 Y-3.0714
G01 X29.3915 Y-3.0740
G01 X29.5177 Y-3.0927
G01 X29.5389 Y-3.0964
G01 X29.5598 Y-3.1011
G01 X29.6836 Y-3.1321
G01 X29.7042 Y-3.1378
G01 X29.7246 Y-3.1445
G01 X29.8447 Y-3.1875
G01 X29.8652 Y-3.1954
G01 X29.6957 Y-3.0258
G01 X29.6693 Y-2.9964
G01 X29.6546 Y-2.9781
G01 X29.6383 Y-2.9557
G01 X29.6251 Y-2.9363
G01 X29.6189 Y-2.9264
G01 X29.6050 Y-2.9023
G01 X29.5940 Y-2.8816
G01 X29.5476 Y-2.7889
G01 X29.4959 Y-2.8920
G01 X29.4764 Y-2.9264
G01 X29.4637 Y-2.9461
G01 X29.4406 Y-2.9781
G01 X29.4259 Y-2.9964
G01 X29.3995 Y-3.0258
G01 X29.3553 Y-3.0702
G00 Z2.0000
G00 X29.6908 Y-2.1071
G01 F250.00
G01 Z-0.1086
G01 F500.00
G01 X29.7861 Y-2.4880
G01 X29.7931 Y-2.5112
G01 X29.7959 Y-2.5184
G01 X29.8046 Y-2.5382
G01 X29.9010 Y-2.7309
G01 X29.9128 Y-2.7515
G01 X29.9251 Y-2.7687
G01 X29.9315 Y-2.7767
G01 X29.9458 Y-2.7923
G01 X30.1378 Y-2.9844
G01 X30.1513 Y-2.9967
G01 X30.1565 Y-3.0009
G01 X30.1712 Y-3.0118
G01 X30.1886 Y-3.0227
G01 X30.2108 Y-3.0338
G01 X30.2320 Y-3.0420
G01 X30.5177 Y-3.1373
G01 X30.5431 Y-3.1442
G01 X30.5690 Y-3.1484
G01 X30.5927 Y-3.1498
G01 X30.7857 Y-3.1498
G01 X30.8069 Y-3.1488
G01 X30.8170 Y-3.1477
G01 X30.8379 Y-3.1442
G01 X30.8632 Y-3.1373
G01 X31.1510 Y-3.0413
G01 X31.1701 Y-3.0338
G01 X31.1866 Y-3.0258
G01 X31.1943 Y-3.0215
G01 X31.2098 Y-3.0118
G01 X31.2279 Y-2.9981
G01 X31.2431 Y-2.9844
G01 X31.3400 Y-2.8876
G01 X31.3546 Y-2.8715
G01 X31.3704 Y-2.8504
G01 X31.3828 Y-2.8298
G01 X31.3931 Y-2.8081
G01 X31.4005 Y-2.7876
G01 X31.4070 Y-2.7621
G01 X31.4100 Y-2.7429
G01 X31.4109 Y-2.7337
G01 X31.4117 Y-2.7143
G01 X31.4109 Y-2.6949
G01 X31.4100 Y-2.6856
G01 X31.4070 Y-2.6665
G01 X31.4024 Y-2.6476
G01 X31.3997 Y-2.6387
G01 X31.3931 Y-2.6205
G01 X31.3849 Y-2.6029
G01 X31.3805 Y-2.5947
G01 X31.3704 Y-2.5781
G01 X31.3546 Y-2.5570
G01 X31.3416 Y-2.5427
G01 X31.3366 Y-2.5378
G01 X31.3221 Y-2.5248
G01 X31.3066 Y-2.5132
G01 X31.3009 Y-2.5092
G01 X31.2842 Y-2.4993
G01 X31.2626 Y-2.4888
G01 X31.2378 Y-2.4798
G01 X31.2145 Y-2.4739
G01 X31.1907 Y-2.4704
G01 X31.1713 Y-2.4693
G01 X31.1620 Y-2.4693
G01 X31.1426 Y-2.4704
G01 X31.1234 Y-2.4731
G01 X31.1166 Y-2.4744
G01 X31.0978 Y-2.4791
G01 X31.0729 Y-2.4879
G01 X31.0491 Y-2.4993
G01 X31.0305 Y-2.5105
G01 X31.0094 Y-2.5263
G01 X30.9934 Y-2.5410
G01 X30.9390 Y-2.5953
G01 X30.7459 Y-2.6597
G01 X30.6350 Y-2.6597
G01 X30.4419 Y-2.5953
G01 X30.3205 Y-2.4739
G01 X30.2550 Y-2.3430
G01 X30.1736 Y-2.0174
G01 X30.1736 Y-1.7921
G01 X30.2550 Y-1.4665
G01 X30.3205 Y-1.3356
G01 X30.4419 Y-1.2142
G01 X30.6350 Y-1.1498
G01 X30.7459 Y-1.1498
G01 X30.9390 Y-1.2142
G01 X30.9950 Y-1.2702
G01 X31.0130 Y-1.2861
G01 X31.0305 Y-1.2990
G01 X31.0491 Y-1.3103
G01 X31.0686 Y-1.3198
G01 X31.0772 Y-1.3233
G01 X31.0955 Y-1.3298
G01 X31.1189 Y-1.3356
G01 X31.1426 Y-1.3391
G01 X31.1620 Y-1.3402
G01 X31.1713 Y-1.3402
G01 X31.1930 Y-1.3389
G01 X31.2145 Y-1.3356
G01 X31.2356 Y-1.3304
G01 X31.2605 Y-1.3217
G01 X31.2842 Y-1.3103
G01 X31.3009 Y-1.3003
G01 X31.3066 Y-1.2963
G01 X31.3221 Y-1.2847
G01 X31.3366 Y-1.2717
G01 X31.3432 Y-1.2652
G01 X31.3561 Y-1.2507
G01 X31.3704 Y-1.2314
G01 X31.3828 Y-1.2108
G01 X31.3912 Y-1.1933
G01 X31.3948 Y-1.1847
G01 X31.4012 Y-1.1664
G01 X31.4060 Y-1.1476
G01 X31.4075 Y-1.1408
G01 X31.4100 Y-1.1239
G01 X31.4109 Y-1.1146
G01 X31.4117 Y-1.0952
G01 X31.4106 Y-1.0712
G01 X31.4070 Y-1.0474
G01 X31.4024 Y-1.0286
G01 X31.3997 Y-1.0197
G01 X31.3931 Y-1.0015
G01 X31.3849 Y-0.9839
G01 X31.3805 Y-0.9757
G01 X31.3704 Y-0.9591
G01 X31.3561 Y-0.9398
G01 X31.3416 Y-0.9236
G01 X31.2431 Y-0.8252
G01 X31.2279 Y-0.8114
G01 X31.2134 Y-0.8003
G01 X31.2061 Y-0.7953
G01 X31.1885 Y-0.7847
G01 X31.1701 Y-0.7757
G01 X31.1489 Y-0.7675
G01 X30.8632 Y-0.6723
G01 X30.8379 Y-0.6653
G01 X30.8145 Y-0.6614
G01 X30.8069 Y-0.6607
G01 X30.7857 Y-0.6597
G01 X30.5927 Y-0.6597
G01 X30.5690 Y-0.6611
G01 X30.5431 Y-0.6653
G01 X30.5177 Y-0.6723
G01 X30.2299 Y-0.7682
G01 X30.2108 Y-0.7757
G01 X30.1944 Y-0.7837
G01 X30.1867 Y-0.7880
G01 X30.1712 Y-0.7977
G01 X30.1530 Y-0.8114
G01 X30.1362 Y-0.8267
G01 X29.9458 Y-1.0172
G01 X29.9315 Y-1.0328
G01 X29.9266 Y-1.0387
G01 X29.9128 Y-1.0580
G01 X29.8998 Y-1.0809
G01 X29.8046 Y-1.2714
G01 X29.7940 Y-1.2959
G01 X29.7861 Y-1.3215
G01 X29.6908 Y-1.7025
G01 X29.6855 Y-1.7308
G01 X29.6835 Y-1.7619
G01 X29.6835 Y-2.0476
G01 X29.6852 Y-2.0764
G01 X29.6908 Y-2.1071
G00 Z2.0000
G00 X29.5476 Y-1.5702
G01 F250.00
G01 Z-0.1086
G01 F500.00
G01 X29.4751 Y-1.2800
G01 X29.4712 Y-1.2660
G01 X29.4617 Y-1.2366
G01 X29.4562 Y-1.2231
G01 X29.4436 Y-1.1949
G01 X29.3483 Y-1.0044
G01 X29.3416 Y-0.9918
G01 X29.3301 Y-0.9717
G01 X29.3223 Y-0.9597
G01 X29.3046 Y-0.9351
G01 X29.2957 Y-0.9240
G01 X29.2754 Y-0.9014
G01 X29.0799 Y-0.7058
G01 X29.0561 Y-0.6838
G01 X29.0417 Y-0.6722
G01 X29.0257 Y-0.6601
G01 X29.0155 Y-0.6532
G01 X28.9878 Y-0.6363
G01 X28.9769 Y-0.6306
G01 X28.9533 Y-0.6192
G01 X28.9231 Y-0.6073
G01 X28.6248 Y-0.5079
G01 X28.5955 Y-0.4998
G01 X28.5746 Y-0.4956
G01 X28.5445 Y-0.4911
G01 X28.5303 Y-0.4899
G01 X28.5071 Y-0.4888
G01 X28.0238 Y-0.4887
G01 X27.9960 Y-0.4897
G01 X27.9765 Y-0.4914
G01 X27.9426 Y-0.4967
G01 X27.9093 Y-0.5048
G01 X27.8968 Y-0.5086
G01 X27.8768 Y-0.5157
G01 X27.8586 Y-0.5229
G01 X27.8277 Y-0.5378
G01 X27.7981 Y-0.5552
G01 X27.7820 Y-0.5663
G01 X27.7650 Y-0.5791
G01 X27.7549 Y-0.5873
G01 X27.7343 Y-0.6060
G01 X27.7250 Y-0.6152
G01 X27.7064 Y-0.6358
G01 X27.6941 Y-0.6511
G01 X27.6815 Y-0.6682
G01 X27.6709 Y-0.6846
G01 X27.6569 Y-0.7086
G01 X27.6447 Y-0.7336
G01 X27.6370 Y-0.7516
G01 X27.6276 Y-0.7778
G01 X27.6238 Y-0.7903
G01 X27.6171 Y-0.8172
G01 X27.6145 Y-0.8300
G01 X27.6105 Y-0.8575
G01 X27.6092 Y-0.8705
G01 X27.6078 Y-0.8982
G01 X27.6077 Y-2.9048
G01 X27.6081 Y-2.9178
G01 X27.6092 Y-2.9390
G01 X27.6105 Y-2.9520
G01 X27.6157 Y-2.9859
G01 X27.6222 Y-3.0130
G01 X27.6257 Y-3.0255
G01 X27.6370 Y-3.0579
G01 X27.6420 Y-3.0700
G01 X27.6539 Y-3.0951
G01 X27.6600 Y-3.1066
G01 X27.6709 Y-3.1249
G01 X27.6779 Y-3.1359
G01 X27.6854 Y-3.1466
G01 X27.6981 Y-3.1636
G01 X27.7064 Y-3.1737
G01 X27.7250 Y-3.1943
G01 X27.7343 Y-3.2035
G01 X27.7549 Y-3.2222
G01 X27.7701 Y-3.2344
G01 X27.7873 Y-3.2470
G01 X27.8037 Y-3.2577
G01 X27.8277 Y-3.2717
G01 X27.8526 Y-3.2839
G01 X27.8706 Y-3.2916
G01 X27.8968 Y-3.3009
G01 X27.9093 Y-3.3047
G01 X27.9362 Y-3.3115
G01 X27.9555 Y-3.3151
G01 X27.9830 Y-3.3188
G01 X27.9960 Y-3.3198
G01 X28.0238 Y-3.3208
G01 X28.5000 Y-3.3208
G01 X28.5143 Y-3.3205
G01 X28.5374 Y-3.3191
G01 X28.5587 Y-3.3165
G01 X28.5816 Y-3.3127
G01 X28.5955 Y-3.3097
G01 X28.6179 Y-3.3036
G01 X28.6316 Y-3.2995
G01 X28.9231 Y-3.2022
G01 X28.9533 Y-3.1904
G01 X28.9769 Y-3.1790
G01 X28.9878 Y-3.1732
G01 X28.9985 Y-3.1670
G01 X29.0155 Y-3.1564
G01 X29.0257 Y-3.1494
G01 X29.0514 Y-3.1297
G01 X29.0755 Y-3.1080
G01 X29.2754 Y-2.9081
G01 X29.2957 Y-2.8856
G01 X29.3046 Y-2.8745
G01 X29.3223 Y-2.8498
G01 X29.3301 Y-2.8378
G01 X29.3416 Y-2.8177
G01 X29.3483 Y-2.8051
G01 X29.4436 Y-2.6146
G01 X29.4562 Y-2.5864
G01 X29.4617 Y-2.5729
G01 X29.4663 Y-2.5592
G01 X29.4751 Y-2.5295
G01 X29.5476 Y-2.2393
G01 X29.6202 Y-2.5295
G01 X29.6241 Y-2.5435
G01 X29.6336 Y-2.5729
G01 X29.6390 Y-2.5864
G01 X29.6517 Y-2.6146
G01 X29.7469 Y-2.8051
G01 X29.7536 Y-2.8177
G01 X29.7690 Y-2.8439
G01 X29.7864 Y-2.8687
G01 X29.7950 Y-2.8801
G01 X29.8043 Y-2.8909
G01 X29.8199 Y-2.9081
G01 X30.0153 Y-3.1037
G01 X30.0391 Y-3.1257
G01 X30.0486 Y-3.1336
G01 X30.0696 Y-3.1494
G01 X30.0797 Y-3.1564
G01 X30.1021 Y-3.1702
G01 X30.1128 Y-3.1761
G01 X30.1363 Y-3.1878
G01 X30.1476 Y-3.1928
G01 X30.1721 Y-3.2022
G01 X30.4705 Y-3.3016
G01 X30.4928 Y-3.3079
G01 X30.5067 Y-3.3113
G01 X30.5366 Y-3.3165
G01 X30.5578 Y-3.3191
G01 X30.5881 Y-3.3207
G01 X30.7857 Y-3.3208
G01 X30.8000 Y-3.3205
G01 X30.8303 Y-3.3184
G01 X30.8444 Y-3.3165
G01 X30.8673 Y-3.3127
G01 X30.8881 Y-3.3079
G01 X30.9173 Y-3.2995
G01 X31.2030 Y-3.2042
G01 X31.2276 Y-3.1951
G01 X31.2390 Y-3.1904
G01 X31.2502 Y-3.1851
G01 X31.2735 Y-3.1732
G01 X31.3012 Y-3.1564
G01 X31.3164 Y-3.1457
G01 X31.3371 Y-3.1297
G01 X31.3612 Y-3.1080
G01 X31.4654 Y-3.0038
G01 X31.4883 Y-2.9782
G01 X31.5089 Y-2.9508
G01 X31.5162 Y-2.9400
G01 X31.5305 Y-2.9161
G01 X31.5366 Y-2.9046
G01 X31.5485 Y-2.8795
G01 X31.5535 Y-2.8674
G01 X31.5629 Y-2.8413
G01 X31.5666 Y-2.8288
G01 X31.5719 Y-2.8082
G01 X31.5747 Y-2.7955
G01 X31.5770 Y-2.7826
G01 X31.5800 Y-2.7616
G01 X31.5817 Y-2.7420
G01 X31.5827 Y-2.7208
G01 X31.5827 Y-2.7078
G01 X31.5813 Y-2.6800
G01 X31.5791 Y-2.6605
G01 X31.5759 Y-2.6395
G01 X31.5734 Y-2.6267
G01 X31.5666 Y-2.5998
G01 X31.5629 Y-2.5873
G01 X31.5535 Y-2.5611
G01 X31.5485 Y-2.5491
G01 X31.5366 Y-2.5239
G01 X31.5305 Y-2.5124
G01 X31.5126 Y-2.4831
G01 X31.5051 Y-2.4725
G01 X31.4883 Y-2.4503
G01 X31.4699 Y-2.4295
G01 X31.4609 Y-2.4201
G01 X31.4405 Y-2.4012
G01 X31.4306 Y-2.3927
G01 X31.4085 Y-2.3758
G01 X31.3978 Y-2.3683
G01 X31.3868 Y-2.3613
G01 X31.3628 Y-2.3473
G01 X31.3378 Y-2.3352
G01 X31.3259 Y-2.3299
G01 X31.2937 Y-2.3181
G01 X31.2812 Y-2.3143
G01 X31.2542 Y-2.3076
G01 X31.2414 Y-2.3050
G01 X31.2139 Y-2.3009
G01 X31.2009 Y-2.2997
G01 X31.1732 Y-2.2983
G01 X31.1601 Y-2.2983
G01 X31.1389 Y-2.2993
G01 X31.1194 Y-2.3009
G01 X31.0984 Y-2.3040
G01 X31.0855 Y-2.3062
G01 X31.0728 Y-2.3091
G01 X31.0522 Y-2.3143
G01 X31.0397 Y-2.3181
G01 X31.0135 Y-2.3275
G01 X31.0014 Y-2.3325
G01 X30.9763 Y-2.3443
G01 X30.9648 Y-2.3505
G01 X30.9410 Y-2.3648
G01 X30.9248 Y-2.3758
G01 X30.9078 Y-2.3886
G01 X30.8928 Y-2.4012
G01 X30.8771 Y-2.4155
G01 X30.8467 Y-2.4459
G01 X30.7182 Y-2.4887
G01 X30.6628 Y-2.4887
G01 X30.5343 Y-2.4459
G01 X30.4610 Y-2.3726
G01 X30.4164 Y-2.2833
G01 X30.3446 Y-1.9964
G01 X30.3446 Y-1.8131
G01 X30.4164 Y-1.5262
G01 X30.4610 Y-1.4369
G01 X30.5343 Y-1.3637
G01 X30.6628 Y-1.3208
G01 X30.7182 Y-1.3208
G01 X30.8467 Y-1.3637
G01 X30.8771 Y-1.3940
G01 X30.8928 Y-1.4083
G01 X30.9078 Y-1.4209
G01 X30.9301 Y-1.4375
G01 X30.9465 Y-1.4482
G01 X30.9705 Y-1.4622
G01 X30.9955 Y-1.4744
G01 X31.0074 Y-1.4796
G01 X31.0196 Y-1.4843
G01 X31.0459 Y-1.4934
G01 X31.0728 Y-1.5005
G01 X31.0855 Y-1.5033
G01 X31.0984 Y-1.5056
G01 X31.1259 Y-1.5093
G01 X31.1536 Y-1.5110
G01 X31.1732 Y-1.5112
G01 X31.2009 Y-1.5099
G01 X31.2204 Y-1.5077
G01 X31.2478 Y-1.5033
G01 X31.2749 Y-1.4969
G01 X31.2937 Y-1.4914
G01 X31.3198 Y-1.4821
G01 X31.3378 Y-1.4744
G01 X31.3628 Y-1.4622
G01 X31.3868 Y-1.4482
G01 X31.3978 Y-1.4412
G01 X31.4203 Y-1.4249
G01 X31.4356 Y-1.4127
G01 X31.4562 Y-1.3940
G01 X31.4699 Y-1.3800
G01 X31.4883 Y-1.3592
G01 X31.5051 Y-1.3371
G01 X31.5162 Y-1.3209
G01 X31.5305 Y-1.2971
G01 X31.5395 Y-1.2797
G01 X31.5511 Y-1.2545
G01 X31.5558 Y-1.2423
G01 X31.5648 Y-1.2160
G01 X31.5719 Y-1.1891
