; generated by PrusaSlicer 2.2.0+linux-x64 on 2022-04-23 at 13:12:57 UTC

; 

; external perimeters extrusion width = 0.45mm
; perimeters extrusion width = 0.45mm
; infill extrusion width = 0.45mm
; solid infill extrusion width = 0.45mm
; top infill extrusion width = 0.40mm
; support material extrusion width = 0.35mm
; first layer extrusion width = 0.42mm

M73 P0 R73
M73 Q0 S74
M201 X1000 Y1000 Z200 E5000 ; sets maximum accelerations, mm/sec^2
M203 X200 Y200 Z12 E120 ; sets maximum feedrates, mm/sec
M204 P1250 R1250 T1250 ; sets acceleration (P, T) and retract acceleration (R), mm/sec^2
M205 X8.00 Y8.00 Z0.40 E4.50 ; sets the jerk limits, mm/sec
M205 S0 T0 ; sets the minimum extruding and travel feed rate, mm/sec
M107
M862.3 P "MK3S" ; printer model check
M862.1 P0.4 ; nozzle diameter check
M115 U3.10.0 ; tell printer latest fw version
G90 ; use absolute coordinates
M83 ; extruder relative mode
M104 S215 ; set extruder temp
M140 S60 ; set bed temp
M190 S60 ; wait for bed temp
M109 S215 ; wait for extruder temp
G28 W ; home all without mesh bed level
G80 ; mesh bed leveling
G1 Y-3.0 F1000.0 ; go outside print area
G92 E0.0
G1 X60.0 E9.0 F1000.0 ; intro line
M73 Q0 S74
M73 P0 R73
G1 X100.0 E12.5 F1000.0 ; intro line
G92 E0.0
M221 S95

; Don't change E values below. Excessive value can damage the printer.

M907 E538 ; set extruder motor current
G21 ; set units to millimeters
G90 ; use absolute coordinates
M83 ; use relative distances for extrusion
M900 K0.05 ; Filament gcode LA 1.5
M900 K30 ; Filament gcode LA 1.0
;BEFORE_LAYER_CHANGE
G92 E0.0
;0.2


G1 E-0.80000 F2100.00000
G1 Z0.400 F10800.000
;AFTER_LAYER_CHANGE
;0.2
G1 X101.715 Y87.904
G1 Z0.200
G1 E0.80000 F2100.00000
M204 S1000
G1 F1200.000
G1 X102.362 Y87.398 E0.02576
G1 X103.198 Y86.968 E0.02946
G1 X104.078 Y86.711 E0.02877
G1 X104.917 Y86.625 E0.02644
G1 X145.004 Y86.623 E1.25688
G1 X145.896 Y86.706 E0.02810
G1 X146.783 Y86.960 E0.02892
G1 X147.630 Y87.393 E0.02983
G1 X148.284 Y87.902 E0.02597
G1 X149.170 Y88.977 E0.04368
G1 X149.546 Y89.733 E0.02648
G1 X149.797 Y90.619 E0.02888
G1 X153.013 Y108.797 E0.57881
G1 X153.016 Y124.402 E0.48928
G1 X152.941 Y124.887 E0.01538
G1 X152.766 Y125.349 E0.01550
G1 X152.500 Y125.766 E0.01550
G1 X152.154 Y126.118 E0.01550
G1 X151.456 Y126.517 E0.02520
G1 X150.665 Y126.661 E0.02520
G1 X99.343 Y126.661 E1.60916
G1 X98.826 Y126.601 E0.01633
G1 X98.338 Y126.431 E0.01621
G1 X97.895 Y126.157 E0.01633
G1 X97.524 Y125.796 E0.01621
G1 X97.133 Y125.120 E0.02449
G1 X96.983 Y124.358 E0.02437
G1 X96.996 Y108.694 E0.49112
G1 X100.224 Y90.517 E0.57884
G1 X100.465 Y89.707 E0.02651
G1 X100.839 Y88.962 E0.02614
G1 X101.677 Y87.951 E0.04117
; printing object camera_holder.stl id:0 copy 0
G1 F8640.000
G1 X102.362 Y87.398 E-0.20329
G1 X103.198 Y86.968 E-0.21695
G1 X104.078 Y86.711 E-0.21187
G1 X104.629 Y86.655 E-0.12789
G1 E-0.04000 F2100.00000
G1 Z0.600 F10800.000
G1 X110.671 Y97.251
G1 Z0.200
G1 E0.80000 F2100.00000
G1 F1200.000
G1 X110.671 Y113.586 E0.51218
G1 X111.425 Y113.586 E0.02365
G1 X111.425 Y97.421 E0.50686
G1 X112.179 Y97.421 E0.02365
G1 X112.179 Y113.586 E0.50686
G1 X112.933 Y113.586 E0.02365
G1 X112.933 Y96.414 E0.53844
G1 X113.688 Y96.414 E0.02365
G1 X113.688 Y113.586 E0.53844
G1 X114.442 Y113.586 E0.02365
G1 X114.442 Y96.414 E0.53844
G1 X115.196 Y96.414 E0.02365
G1 X115.196 Y113.586 E0.53844
G1 X115.950 Y113.586 E0.02365
G1 X115.950 Y96.414 E0.53844
G1 X116.704 Y96.414 E0.02365
G1 X116.704 Y113.586 E0.53844
G1 X117.458 Y113.586 E0.02365
G1 X117.458 Y96.414 E0.53844
G1 X118.213 Y96.414 E0.02365
G1 X118.213 Y113.586 E0.53844
G1 X118.967 Y113.586 E0.02365
G1 X118.967 Y96.414 E0.53844
G1 X119.721 Y96.414 E0.02365
G1 X119.721 Y113.586 E0.53844
G1 X120.475 Y113.586 E0.02365
G1 X120.475 Y96.414 E0.53844
G1 X121.229 Y96.414 E0.02365
G1 X121.229 Y113.586 E0.53844
G1 X121.983 Y113.586 E0.02365
G1 X121.983 Y96.414 E0.53844
G1 X122.738 Y96.414 E0.02365
G1 X122.738 Y113.586 E0.53844
G1 X123.492 Y113.586 E0.02365
G1 X123.492 Y96.414 E0.53844
G1 X124.246 Y96.414 E0.02365
G1 X124.246 Y103.351 E0.21751
G1 X125.000 Y103.351 E0.02365
G1 X125.000 Y96.414 E0.21751
G1 X125.754 Y96.414 E0.02365
G1 X125.754 Y103.520 E0.22283
G1 F8640.000
G1 X125.754 Y100.229 E-0.76000
G1 E-0.04000 F2100.00000
G1 Z0.600 F10800.000
G1 X124.246 Y106.480
G1 Z0.200
G1 E0.80000 F2100.00000
G1 F1200.000
G1 X124.246 Y113.586 E0.22283
G1 X125.000 Y113.586 E0.02365
G1 X125.000 Y106.649 E0.21751
G1 X125.754 Y106.649 E0.02365
G1 X125.754 Y113.586 E0.21751
G1 X126.508 Y113.586 E0.02365
G1 X126.508 Y96.414 E0.53844
G1 X127.262 Y96.414 E0.02365
G1 X127.262 Y113.586 E0.53844
G1 X128.017 Y113.586 E0.02365
G1 X128.017 Y96.414 E0.53844
G1 X128.771 Y96.414 E0.02365
G1 X128.771 Y113.586 E0.53844
G1 X129.525 Y113.586 E0.02365
G1 X129.525 Y96.414 E0.53844
G1 X130.279 Y96.414 E0.02365
G1 X130.279 Y113.586 E0.53844
G1 X131.033 Y113.586 E0.02365
G1 X131.033 Y96.414 E0.53844
G1 X131.787 Y96.414 E0.02365
G1 X131.787 Y113.586 E0.53844
G1 X132.542 Y113.586 E0.02365
G1 X132.542 Y96.414 E0.53844
G1 X133.296 Y96.414 E0.02365
G1 X133.296 Y113.586 E0.53844
G1 X134.050 Y113.586 E0.02365
G1 X134.050 Y96.414 E0.53844
G1 X134.804 Y96.414 E0.02365
G1 X134.804 Y113.586 E0.53844
G1 X135.558 Y113.586 E0.02365
G1 X135.558 Y96.414 E0.53844
G1 X136.312 Y96.414 E0.02365
G1 X136.312 Y113.586 E0.53844
G1 X137.067 Y113.586 E0.02365
G1 X137.067 Y96.414 E0.53844
G1 X137.821 Y96.414 E0.02365
G1 X137.821 Y113.586 E0.53844
G1 X138.575 Y113.586 E0.02365
G1 X138.575 Y96.414 E0.53844
G1 X139.329 Y96.414 E0.02365
G1 X139.329 Y113.756 E0.54377
G1 F8640.000
G1 X139.329 Y110.465 E-0.76000
G1 E-0.04000 F2100.00000
G1 Z0.600 F10800.000
G1 X136.312 Y124.284
G1 Z0.200
G1 E0.80000 F2100.00000
G1 F1200.000
G1 X136.312 Y121.414 E0.09001
G1 X137.067 Y121.414 E0.02365
G1 X137.067 Y124.114 E0.08469
G1 X137.821 Y124.114 E0.02365
G1 X137.821 Y121.414 E0.08469
G1 X138.575 Y121.414 E0.02365
G1 X138.575 Y124.114 E0.08469
G1 X139.329 Y124.114 E0.02365
G1 X139.329 Y121.414 E0.08469
G1 X139.421 Y121.414 E0.00289
G1 X139.664 Y121.171 E0.01074
G1 X139.664 Y117.019 E0.13019
G1 X139.729 Y116.303 E0.02253
G1 X139.934 Y115.589 E0.02329
G1 X140.083 Y115.302 E0.01014
G1 X140.083 Y124.114 E0.27630
G1 X140.837 Y124.114 E0.02365
G1 X140.837 Y114.249 E0.30931
G1 X141.402 Y113.790 E0.02282
G1 X141.591 Y113.692 E0.00668
G1 X141.591 Y124.114 E0.32678
G1 X142.346 Y124.114 E0.02365
G1 X142.346 Y113.361 E0.33717
G1 X142.803 Y113.229 E0.01493
G1 X143.100 Y113.202 E0.00933
G1 X143.100 Y124.114 E0.34215
G1 X143.854 Y124.114 E0.02365
G1 X143.854 Y113.164 E0.34336
G1 X144.608 Y113.164 E0.02365
G1 X144.608 Y124.114 E0.34336
G1 X145.362 Y124.114 E0.02365
G1 X145.362 Y113.164 E0.34336
G1 X146.116 Y113.164 E0.02365
G1 X146.116 Y124.114 E0.34336
G1 X146.871 Y124.114 E0.02365
G1 X146.871 Y113.164 E0.34336
G1 X147.625 Y113.164 E0.02365
G1 X147.625 Y124.114 E0.34336
G1 X148.379 Y124.114 E0.02365
G1 X148.379 Y108.956 E0.47527
G1 X149.133 Y108.956 E0.02365
G1 X149.133 Y124.114 E0.47527
G1 X149.887 Y124.114 E0.02365
G1 X149.887 Y108.956 E0.47527
G1 X150.641 Y108.956 E0.02365
G1 X150.641 Y124.284 E0.48059
G1 F8640.000
G1 X150.641 Y120.993 E-0.76000
M73 Q1 S73
G1 E-0.04000 F2100.00000
G1 Z0.600 F10800.000
G1 X113.688 Y124.284
G1 Z0.200
G1 E0.80000 F2100.00000
M73 P1 R72
G1 F1200.000
G1 X113.688 Y121.414 E0.09001
G1 X112.933 Y121.414 E0.02365
G1 X112.933 Y124.114 E0.08469
G1 X112.179 Y124.114 E0.02365
G1 X112.179 Y121.414 E0.08469
G1 X111.425 Y121.414 E0.02365
G1 X111.425 Y124.114 E0.08469
G1 X110.671 Y124.114 E0.02365
G1 X110.671 Y121.414 E0.08469
G1 X110.579 Y121.414 E0.00289
G1 X110.336 Y121.171 E0.01074
G1 X110.336 Y117.019 E0.13019
G1 X110.271 Y116.303 E0.02253
G1 X110.066 Y115.589 E0.02329
G1 X109.917 Y115.302 E0.01014
G1 X109.917 Y124.114 E0.27630
G1 X109.163 Y124.114 E0.02365
G1 X109.163 Y114.249 E0.30931
G1 X108.598 Y113.790 E0.02282
G1 X108.409 Y113.692 E0.00668
G1 X108.409 Y124.114 E0.32678
G1 X107.654 Y124.114 E0.02365
G1 X107.654 Y113.361 E0.33717
G1 X107.197 Y113.229 E0.01493
G1 X106.900 Y113.202 E0.00933
G1 X106.900 Y124.114 E0.34215
G1 X106.146 Y124.114 E0.02365
G1 X106.146 Y113.164 E0.34336
G1 X105.392 Y113.164 E0.02365
G1 X105.392 Y124.114 E0.34336
G1 X104.638 Y124.114 E0.02365
G1 X104.638 Y113.164 E0.34336
G1 X103.884 Y113.164 E0.02365
G1 X103.884 Y124.114 E0.34336
G1 X103.129 Y124.114 E0.02365
G1 X103.129 Y113.164 E0.34336
G1 X102.375 Y113.164 E0.02365
G1 X102.375 Y124.114 E0.34336
G1 X101.621 Y124.114 E0.02365
G1 X101.621 Y108.956 E0.47527
G1 X100.867 Y108.956 E0.02365
G1 X100.867 Y124.114 E0.47527
G1 X100.113 Y124.114 E0.02365
G1 X100.113 Y108.956 E0.47527
G1 X99.359 Y108.956 E0.02365
G1 X99.359 Y124.284 E0.48059
G1 F8640.000
G1 X99.359 Y120.993 E-0.76000
G1 E-0.04000 F2100.00000
G1 Z0.600 F10800.000
G1 X111.537 Y120.213
G1 Z0.200
G1 E0.80000 F2100.00000
G1 F1200.000
G1 X111.537 Y116.964 E0.10187
G1 X111.455 Y116.071 E0.02810
G1 X111.143 Y115.102 E0.03192
G1 X110.846 Y114.693 E0.01586
G1 X111.463 Y114.772 E0.01948
G1 X112.997 Y114.787 E0.04811
G1 X138.008 Y114.786 E0.78420
G1 X138.542 Y114.771 E0.01676
G1 X139.154 Y114.693 E0.01932
G1 X138.857 Y115.102 E0.01586
G1 X138.545 Y116.071 E0.03192
G1 X138.463 Y116.964 E0.02810
G1 X138.463 Y120.213 E0.10187
G1 X111.597 Y120.213 E0.84236
G1 X111.160 Y120.590 F10800.000
G1 F1200.000
G1 X111.160 Y116.981 E0.11315
G1 X111.083 Y116.147 E0.02626
G1 X110.803 Y115.275 E0.02873
G1 X110.514 Y114.877 E0.01541
G1 X109.958 Y114.210 E0.02724
G1 X110.474 Y114.210 E0.01618
G1 X110.962 Y114.333 E0.01578
G1 X111.487 Y114.395 E0.01657
G1 X112.999 Y114.410 E0.04742
G1 X138.003 Y114.408 E0.78398
G1 X138.515 Y114.395 E0.01607
G1 X139.038 Y114.333 E0.01651
G1 X139.526 Y114.210 E0.01578
G1 X140.042 Y114.210 E0.01618
G1 X139.486 Y114.877 E0.02724
G1 X139.197 Y115.275 E0.01541
G1 X138.917 Y116.147 E0.02873
G1 X138.840 Y116.981 E0.02626
G1 X138.840 Y120.590 E0.11315
G1 X111.220 Y120.590 E0.86601
G1 X111.345 Y120.235 F10800.000
G1 F8640.000
G1 X111.165 Y117.299 E-0.76000
G1 E-0.04000 F2100.00000
G1 Z0.600 F10800.000
G1 X109.281 Y112.877
G1 Z0.200
G1 E0.80000 F2100.00000
G1 F1200.000
G1 X108.838 Y112.578 E0.01676
G1 X108.364 Y112.317 E0.01696
G1 X107.420 Y112.044 E0.03082
G1 X106.536 Y111.963 E0.02782
G1 X103.287 Y111.963 E0.10187
G1 X103.287 Y91.536 E0.64047
G1 X103.319 Y91.191 E0.01086
G1 X103.410 Y90.872 E0.01040
G1 X103.569 Y90.566 E0.01083
G1 X103.792 Y90.292 E0.01106
G1 X104.066 Y90.069 E0.01106
G1 X104.372 Y89.910 E0.01083
G1 X104.691 Y89.819 E0.01040
G1 X105.036 Y89.787 E0.01086
G1 X144.964 Y89.787 E1.25191
G1 X145.309 Y89.819 E0.01086
G1 X145.628 Y89.910 E0.01040
G1 X145.934 Y90.069 E0.01083
G1 X146.208 Y90.292 E0.01106
G1 X146.431 Y90.566 E0.01106
G1 X146.590 Y90.872 E0.01083
G1 X146.681 Y91.191 E0.01040
G1 X146.713 Y91.536 E0.01086
G1 X146.713 Y111.963 E0.64047
G1 X143.464 Y111.963 E0.10187
G1 X142.580 Y112.044 E0.02782
G1 X141.636 Y112.317 E0.03082
G1 X141.162 Y112.578 E0.01696
G1 X140.719 Y112.877 E0.01676
G1 X140.762 Y112.550 E0.01036
G1 X140.784 Y112.012 E0.01687
G1 X140.787 Y95.213 E0.52672
G1 X109.213 Y95.213 E0.98999
G1 X109.216 Y112.012 E0.52672
G1 X109.238 Y112.550 E0.01687
G1 X109.273 Y112.818 E0.00848
G1 F8640.000
G1 X108.838 Y112.578 E-0.11468
G1 X108.364 Y112.317 E-0.12493
G1 X107.420 Y112.044 E-0.22698
G1 X106.536 Y111.963 E-0.20491
G1 X106.153 Y111.963 E-0.08850
G1 E-0.04000 F2100.00000
G1 Z0.600 F10800.000
G1 X140.410 Y95.590
G1 Z0.200
G1 E0.80000 F2100.00000
G1 F1200.000
G1 X109.590 Y95.590 E0.96634
G1 X109.593 Y112.004 E0.51466
G1 X109.614 Y112.518 E0.01611
G1 X109.681 Y113.036 E0.01640
G1 X109.790 Y113.523 E0.01564
G1 X109.790 Y114.008 E0.01522
G1 X109.656 Y113.848 E0.00654
G1 X109.333 Y113.562 E0.01354
G1 X109.048 Y113.175 E0.01506
G1 X108.641 Y112.900 E0.01541
G1 X108.219 Y112.667 E0.01510
G1 X107.350 Y112.416 E0.02838
G1 X106.519 Y112.340 E0.02616
G1 X102.910 Y112.340 E0.11315
G1 X102.910 Y91.519 E0.65284
G1 X102.946 Y91.121 E0.01252
G1 X103.058 Y90.732 E0.01269
G1 X103.252 Y90.358 E0.01322
G1 X103.524 Y90.024 E0.01350
G1 X103.858 Y89.752 E0.01350
G1 X104.232 Y89.558 E0.01322
G1 X104.621 Y89.446 E0.01269
G1 X105.019 Y89.410 E0.01252
G1 X144.981 Y89.410 E1.25299
G1 X145.379 Y89.446 E0.01252
G1 X145.768 Y89.558 E0.01269
G1 X146.142 Y89.752 E0.01322
G1 X146.476 Y90.024 E0.01350
G1 X146.748 Y90.358 E0.01350
G1 X146.942 Y90.732 E0.01322
G1 X147.054 Y91.121 E0.01269
G1 X147.090 Y91.519 E0.01252
G1 X147.090 Y112.340 E0.65284
G1 X143.481 Y112.340 E0.11315
G1 X142.650 Y112.416 E0.02616
G1 X141.781 Y112.667 E0.02838
G1 X141.359 Y112.900 E0.01510
G1 X140.952 Y113.175 E0.01541
G1 X140.667 Y113.562 E0.01506
G1 X140.344 Y113.848 E0.01354
G1 X140.210 Y114.008 E0.00654
G1 X140.210 Y113.523 E0.01522
G1 X140.319 Y113.036 E0.01564
G1 X140.386 Y112.518 E0.01640
G1 X140.407 Y112.004 E0.01611
G1 X140.410 Y95.650 E0.51278
G1 X140.410 Y95.190 F10800.000
G1 X140.438 Y95.100
G1 F1200.000
G1 X135.408 Y90.070 E0.22400
G1 X134.873 Y90.070 E0.01687
G1 X139.733 Y94.930 E0.21645
G1 X139.198 Y94.930 E0.01687
G1 X134.337 Y90.070 E0.21645
G1 X133.802 Y90.070 E0.01687
G1 X138.662 Y94.930 E0.21645
G1 X138.126 Y94.930 E0.01687
G1 X133.266 Y90.070 E0.21645
G1 X132.731 Y90.070 E0.01687
G1 X137.591 Y94.930 E0.21645
G1 X137.055 Y94.930 E0.01687
G1 X132.195 Y90.070 E0.21645
G1 X131.659 Y90.070 E0.01687
G1 X136.520 Y94.930 E0.21645
G1 X135.984 Y94.930 E0.01687
G1 X131.124 Y90.070 E0.21645
G1 X130.588 Y90.070 E0.01687
G1 X135.448 Y94.930 E0.21645
G1 X134.913 Y94.930 E0.01687
G1 X130.053 Y90.070 E0.21645
G1 X129.517 Y90.070 E0.01687
G1 X134.377 Y94.930 E0.21645
G1 X133.842 Y94.930 E0.01687
G1 X128.981 Y90.070 E0.21645
G1 X128.446 Y90.070 E0.01687
G1 X133.306 Y94.930 E0.21645
G1 X132.771 Y94.930 E0.01687
G1 X127.910 Y90.070 E0.21645
G1 X127.375 Y90.070 E0.01687
G1 X132.235 Y94.930 E0.21645
G1 X131.699 Y94.930 E0.01687
G1 X126.839 Y90.070 E0.21645
G1 X126.304 Y90.070 E0.01687
G1 X131.164 Y94.930 E0.21645
G1 X130.628 Y94.930 E0.01687
G1 X125.768 Y90.070 E0.21645
G1 X125.232 Y90.070 E0.01687
G1 X130.093 Y94.930 E0.21645
G1 X129.557 Y94.930 E0.01687
G1 X124.697 Y90.070 E0.21645
G1 X124.161 Y90.070 E0.01687
G1 X129.022 Y94.930 E0.21645
G1 X128.486 Y94.930 E0.01687
G1 X123.626 Y90.070 E0.21645
G1 X123.090 Y90.070 E0.01687
G1 X127.950 Y94.930 E0.21645
G1 X127.415 Y94.930 E0.01687
G1 X122.555 Y90.070 E0.21645
G1 X122.019 Y90.070 E0.01687
G1 X126.879 Y94.930 E0.21645
G1 X126.344 Y94.930 E0.01687
G1 X121.483 Y90.070 E0.21645
G1 X120.948 Y90.070 E0.01687
G1 X125.808 Y94.930 E0.21645
G1 X125.272 Y94.930 E0.01687
G1 X120.412 Y90.070 E0.21645
G1 X119.877 Y90.070 E0.01687
G1 X124.737 Y94.930 E0.21645
G1 X124.201 Y94.930 E0.01687
G1 X119.341 Y90.070 E0.21645
G1 X118.805 Y90.070 E0.01687
G1 X123.666 Y94.930 E0.21645
G1 X123.130 Y94.930 E0.01687
G1 X118.270 Y90.070 E0.21645
G1 X117.734 Y90.070 E0.01687
G1 X122.595 Y94.930 E0.21645
G1 X122.059 Y94.930 E0.01687
G1 X117.199 Y90.070 E0.21645
G1 X116.663 Y90.070 E0.01687
G1 X121.523 Y94.930 E0.21645
G1 X120.988 Y94.930 E0.01687
G1 X116.128 Y90.070 E0.21645
G1 X115.592 Y90.070 E0.01687
G1 X120.452 Y94.930 E0.21645
G1 X119.917 Y94.930 E0.01687
G1 X115.056 Y90.070 E0.21645
G1 X114.521 Y90.070 E0.01687
G1 X119.381 Y94.930 E0.21645
G1 X118.845 Y94.930 E0.01687
G1 X113.985 Y90.070 E0.21645
G1 X113.450 Y90.070 E0.01687
G1 X118.310 Y94.930 E0.21645
G1 X117.774 Y94.930 E0.01687
G1 X112.914 Y90.070 E0.21645
G1 X112.378 Y90.070 E0.01687
G1 X117.239 Y94.930 E0.21645
G1 X116.703 Y94.930 E0.01687
G1 X111.843 Y90.070 E0.21645
G1 X111.307 Y90.070 E0.01687
G1 X116.168 Y94.930 E0.21645
G1 X115.632 Y94.930 E0.01687
G1 X110.772 Y90.070 E0.21645
G1 X110.236 Y90.070 E0.01687
G1 X115.096 Y94.930 E0.21645
G1 X114.561 Y94.930 E0.01687
G1 X109.701 Y90.070 E0.21645
G1 X109.165 Y90.070 E0.01687
G1 X114.025 Y94.930 E0.21645
G1 X113.490 Y94.930 E0.01687
G1 X108.629 Y90.070 E0.21645
G1 X108.094 Y90.070 E0.01687
G1 X112.954 Y94.930 E0.21645
G1 X112.418 Y94.930 E0.01687
G1 X107.558 Y90.070 E0.21645
G1 X107.023 Y90.070 E0.01687
G1 X111.883 Y94.930 E0.21645
G1 X111.347 Y94.930 E0.01687
G1 X106.487 Y90.070 E0.21645
G1 X105.951 Y90.070 E0.01687
