(Exported by FreeCAD)
(Post Processor: grbl_post)
(Output Time:2022-02-09 16:37:13.510481)
(Begin preamble)
G17 G90
G21
(Begin operation: Fixture)
(Path: Fixture)
G54
(Finish operation: Fixture)
(Begin operation: TC: Default Tool)
(Path: TC: Default Tool)
(TC: Default Tool)
(Begin toolchange)
( M6 T1.0 )
M3 S12000.0
(Finish operation: TC: Default Tool)
(Begin operation: Adaptive)
(Path: Adaptive)
(Adaptive)
(Helix to depth: -0.400000)
G0 Z5.000
G0 X0.153 Y1.482 Z5.000
G0 X0.153 Y1.482 Z3.000
G1 X0.153 Y1.482 Z0.000 F240.000
G1 X0.153 Y1.482 Z0.000 F240.000
G1 X-0.139 Y1.483 Z-0.026 F240.000
G1 X-0.426 Y1.428 Z-0.052 F240.000
G1 X-0.696 Y1.317 Z-0.077 F240.000
G1 X-0.940 Y1.156 Z-0.103 F240.000
G1 X-1.147 Y0.951 Z-0.129 F240.000
G1 X-1.311 Y0.708 Z-0.155 F240.000
G1 X-1.424 Y0.439 Z-0.180 F240.000
G1 X-1.482 Y0.153 Z-0.206 F240.000
G1 X-1.483 Y-0.139 Z-0.232 F240.000
G1 X-1.428 Y-0.426 Z-0.258 F240.000
G1 X-1.317 Y-0.696 Z-0.283 F240.000
G1 X-1.156 Y-0.940 Z-0.309 F240.000
G1 X-0.951 Y-1.147 Z-0.335 F240.000
G1 X-0.708 Y-1.311 Z-0.361 F240.000
G1 X-0.439 Y-1.424 Z-0.387 F240.000
G1 X-0.153 Y-1.482 Z-0.400 F480.000
G1 X0.139 Y-1.483 Z-0.400 F480.000
G1 X0.426 Y-1.428 Z-0.400 F480.000
G1 X0.696 Y-1.317 Z-0.400 F480.000
G1 X0.940 Y-1.156 Z-0.400 F480.000
G1 X1.147 Y-0.951 Z-0.400 F480.000
G1 X1.311 Y-0.708 Z-0.400 F480.000
G1 X1.424 Y-0.439 Z-0.400 F480.000
G1 X1.482 Y-0.153 Z-0.400 F480.000
G1 X1.483 Y0.139 Z-0.400 F480.000
G1 X1.428 Y0.426 Z-0.400 F480.000
G1 X1.317 Y0.696 Z-0.400 F480.000
G1 X1.156 Y0.940 Z-0.400 F480.000
G1 X0.951 Y1.147 Z-0.400 F480.000
G1 X0.708 Y1.311 Z-0.400 F480.000
G1 X0.439 Y1.424 Z-0.400 F480.000
G1 X0.153 Y1.482 Z-0.400 F480.000
G1 X-0.139 Y1.483 Z-0.400 F480.000
G1 X-0.426 Y1.428 Z-0.400 F480.000
G1 X-0.696 Y1.317 Z-0.400 F480.000
G1 X-0.940 Y1.156 Z-0.400 F480.000
G1 X-1.147 Y0.951 Z-0.400 F480.000
G1 X-1.311 Y0.708 Z-0.400 F480.000
G1 X-1.424 Y0.439 Z-0.400 F480.000
G1 X-1.482 Y0.153 Z-0.400 F480.000
G1 X-1.483 Y-0.139 Z-0.400 F480.000
G1 X-1.428 Y-0.426 Z-0.400 F480.000
G1 X-1.317 Y-0.696 Z-0.400 F480.000
G1 X-1.156 Y-0.940 Z-0.400 F480.000
G1 X-0.951 Y-1.147 Z-0.400 F480.000
G1 X-0.708 Y-1.311 Z-0.400 F480.000
G1 X-0.439 Y-1.424 Z-0.400 F480.000
(Adaptive - depth: -0.400000)
G1 X0.000 Y-1.500 F480.000
G1 X0.055 Y-1.555 F480.000
G1 X0.200 Y-1.610 F480.000
G1 X0.350 Y-1.635 F480.000
G1 X0.575 Y-1.620 F480.000
G1 X0.650 Y-1.605 F480.000
G1 X1.115 Y-1.425 F480.000
G1 X1.350 Y-1.240 F480.000
G1 X1.470 Y-1.105 F480.000
G1 X1.575 Y-0.955 F480.000
G1 X1.695 Y-0.740 F480.000
G1 X1.810 Y-0.430 F480.000
G1 X1.860 Y-0.140 F480.000
G1 X1.865 Y0.095 F480.000
G1 X1.835 Y0.335 F480.000
G1 X1.775 Y0.580 F480.000
G1 X1.660 Y0.865 F480.000
G1 X1.500 Y1.125 F480.000
G1 X1.325 Y1.320 F480.000
G1 X1.145 Y1.475 F480.000
G1 X0.925 Y1.625 F480.000
G1 X0.640 Y1.760 F480.000
G1 X0.365 Y1.840 F480.000
G1 X0.105 Y1.875 F480.000
G1 X-0.140 Y1.870 F480.000
G1 X-0.400 Y1.830 F480.000
G1 X-0.665 Y1.755 F480.000
G1 X-0.950 Y1.625 F480.000
G1 X-1.185 Y1.460 F480.000
G1 X-1.365 Y1.295 F480.000
G1 X-1.525 Y1.095 F480.000
G1 X-1.660 Y0.875 F480.000
G1 X-1.775 Y0.595 F480.000
G1 X-1.840 Y0.330 F480.000
G1 X-1.870 Y0.055 F480.000
G1 X-1.860 Y-0.220 F480.000
G1 X-1.810 Y-0.490 F480.000
G1 X-1.725 Y-0.755 F480.000
G1 X-1.595 Y-1.000 F480.000
G1 X-1.450 Y-1.200 F480.000
G1 X-1.260 Y-1.390 F480.000
G1 X-1.055 Y-1.555 F480.000
G1 X-0.800 Y-1.720 F480.000
G1 X-0.490 Y-1.880 F480.000
G1 X-0.090 Y-1.975 F480.000
G1 X0.440 Y-2.015 F480.000
G1 X0.930 Y-1.935 F480.000
G1 X1.305 Y-1.765 F480.000
G1 X1.475 Y-1.640 F480.000
G1 X1.610 Y-1.515 F480.000
G1 X1.770 Y-1.345 F480.000
G1 X1.985 Y-1.045 F480.000
G1 X2.135 Y-0.720 F480.000
G1 X2.210 Y-0.465 F480.000
G1 X2.255 Y-0.210 F480.000
G1 X2.270 Y0.070 F480.000
G1 X2.245 Y0.390 F480.000
G1 X2.180 Y0.705 F480.000
G1 X2.065 Y0.990 F480.000
G1 X1.940 Y1.225 F480.000
G1 X1.765 Y1.465 F480.000
G1 X1.565 Y1.675 F480.000
G1 X1.325 Y1.870 F480.000
G1 X1.070 Y2.025 F480.000
G1 X0.795 Y2.150 F480.000
G1 X0.500 Y2.235 F480.000
G1 X0.200 Y2.280 F480.000
G1 X-0.095 Y2.290 F480.000
G1 X-0.390 Y2.260 F480.000
G1 X-0.680 Y2.190 F480.000
G1 X-0.960 Y2.090 F480.000
G1 X-1.255 Y1.935 F480.000
G1 X-1.505 Y1.745 F480.000
G1 X-1.695 Y1.565 F480.000
G1 X-1.880 Y1.330 F480.000
G1 X-2.025 Y1.075 F480.000
G1 X-2.140 Y0.815 F480.000
G1 X-2.230 Y0.500 F480.000
G1 X-2.275 Y0.200 F480.000
G1 X-2.285 Y-0.100 F480.000
G1 X-2.250 Y-0.405 F480.000
G1 X-2.185 Y-0.700 F480.000
G1 X-2.070 Y-1.010 F480.000
G1 X-1.915 Y-1.280 F480.000
G1 X-1.755 Y-1.500 F480.000
G1 X-1.540 Y-1.720 F480.000
G1 X-1.315 Y-1.915 F480.000
G1 X-1.000 Y-2.120 F480.000
G1 X-0.710 Y-2.260 F480.000
G1 X-0.405 Y-2.370 F480.000
G1 X-0.070 Y-2.445 F480.000
G1 X0.255 Y-2.480 F480.000
G1 X0.580 Y-2.460 F480.000
G1 X0.855 Y-2.415 F480.000
G1 X1.150 Y-2.325 F480.000
G1 X1.425 Y-2.195 F480.000
G1 X1.675 Y-2.035 F480.000
G1 X1.905 Y-1.840 F480.000
G1 X2.110 Y-1.625 F480.000
G1 X2.310 Y-1.350 F480.000
G1 X2.460 Y-1.075 F480.000
G1 X2.580 Y-0.775 F480.000
G1 X2.665 Y-0.460 F480.000
G1 X2.710 Y-0.140 F480.000
G1 X2.715 Y0.175 F480.000
G1 X2.680 Y0.490 F480.000
G1 X2.610 Y0.800 F480.000
G1 X2.490 Y1.130 F480.000
G1 X2.340 Y1.425 F480.000
G1 X2.160 Y1.700 F480.000
G1 X1.945 Y1.955 F480.000
G1 X1.695 Y2.175 F480.000
G1 X1.455 Y2.345 F480.000
G1 X1.170 Y2.495 F480.000
G1 X0.875 Y2.610 F480.000
G1 X0.550 Y2.690 F480.000
G1 X0.225 Y2.735 F480.000
G1 X-0.130 Y2.750 F480.000
G1 X-0.495 Y2.720 F480.000
G1 X-0.835 Y2.640 F480.000
G1 X-1.110 Y2.545 F480.000
G1 X-1.410 Y2.395 F480.000
G1 X-1.680 Y2.215 F480.000
G1 X-1.925 Y2.005 F480.000
G1 X-2.145 Y1.765 F480.000
G1 X-2.330 Y1.500 F480.000
G1 X-2.485 Y1.215 F480.000
G1 X-2.605 Y0.910 F480.000
G1 X-2.685 Y0.595 F480.000
G1 X-2.735 Y0.270 F480.000
G1 X-2.745 Y-0.090 F480.000
G1 X-2.715 Y-0.420 F480.000
G1 X-2.645 Y-0.750 F480.000
G1 X-2.535 Y-1.075 F480.000
G1 X-2.390 Y-1.380 F480.000
G1 X-2.210 Y-1.670 F480.000
G1 X-1.995 Y-1.940 F480.000
G1 X-1.755 Y-2.180 F480.000
G1 X-1.485 Y-2.395 F480.000
G1 X-1.190 Y-2.575 F480.000
G1 X-0.880 Y-2.720 F480.000
G1 X-0.550 Y-2.830 F480.000
G1 X-0.210 Y-2.910 F480.000
G1 X0.170 Y-2.950 F480.000
G1 X0.520 Y-2.950 F480.000
G1 X0.875 Y-2.895 F480.000
G1 X1.165 Y-2.820 F480.000
G1 X1.475 Y-2.695 F480.000
G1 X1.765 Y-2.540 F480.000
G1 X2.050 Y-2.340 F480.000
G1 X2.305 Y-2.115 F480.000
G1 X2.530 Y-1.860 F480.000
G1 X2.725 Y-1.580 F480.000
G1 X2.895 Y-1.285 F480.000
G1 X3.040 Y-0.940 F480.000
G1 X3.140 Y-0.600 F480.000
G1 X3.185 Y-0.245 F480.000
G1 X3.200 Y0.040 F480.000
G1 X3.185 Y0.395 F480.000
G1 X3.125 Y0.780 F480.000
G1 X3.010 Y1.150 F480.000
G1 X2.885 Y1.450 F480.000
G1 X2.710 Y1.770 F480.000
G1 X2.500 Y2.060 F480.000
G1 X2.265 Y2.320 F480.000
G1 X2.000 Y2.555 F480.000
G1 X1.710 Y2.760 F480.000
G1 X1.400 Y2.930 F480.000
G1 X1.070 Y3.065 F480.000
G1 X0.725 Y3.165 F480.000
G1 X0.375 Y3.225 F480.000
G1 X0.020 Y3.245 F480.000
G1 X-0.330 Y3.235 F480.000
G1 X-0.730 Y3.175 F480.000
G1 X-1.085 Y3.080 F480.000
G1 X-1.430 Y2.935 F480.000
G1 X-1.710 Y2.785 F480.000
G1 X-2.000 Y2.580 F480.000
G1 X-2.265 Y2.350 F480.000
G1 X-2.515 Y2.080 F480.000
G1 X-2.725 Y1.795 F480.000
G1 X-2.905 Y1.485 F480.000
G1 X-3.050 Y1.155 F480.000
G1 X-3.160 Y0.810 F480.000
G1 X-3.230 Y0.455 F480.000
G1 X-3.260 Y0.095 F480.000
G1 X-3.250 Y-0.260 F480.000
G1 X-3.200 Y-0.615 F480.000
G1 X-3.110 Y-0.960 F480.000
G1 X-2.985 Y-1.295 F480.000
G1 X-2.830 Y-1.620 F480.000
G1 X-2.615 Y-1.960 F480.000
G1 X-2.385 Y-2.255 F480.000
G1 X-2.120 Y-2.530 F480.000
G1 X-1.825 Y-2.780 F480.000
G1 X-1.500 Y-2.980 F480.000
G1 X-1.215 Y-3.120 F480.000
G1 X-0.885 Y-3.255 F480.000
G1 X-0.470 Y-3.380 F480.000
G1 X-0.035 Y-3.445 F480.000
G1 X0.300 Y-3.460 F480.000
G1 X0.630 Y-3.440 F480.000
G1 X0.995 Y-3.385 F480.000
G1 X1.405 Y-3.275 F480.000
G1 X1.750 Y-3.130 F480.000
G1 X2.040 Y-2.975 F480.000
G1 X2.345 Y-2.765 F480.000
G1 X2.610 Y-2.530 F480.000
G1 X2.850 Y-2.275 F480.000
G1 X3.085 Y-1.960 F480.000
G1 X3.280 Y-1.650 F480.000
G1 X3.470 Y-1.270 F480.000
G1 X3.590 Y-0.890 F480.000
G1 X3.665 Y-0.570 F480.000
G1 X3.710 Y-0.195 F480.000
G1 X3.720 Y0.165 F480.000
G1 X3.685 Y0.565 F480.000
G1 X3.615 Y0.935 F480.000
G1 X3.505 Y1.295 F480.000
G1 X3.355 Y1.655 F480.000
G1 X3.170 Y1.990 F480.000
G1 X2.950 Y2.305 F480.000
G1 X2.700 Y2.595 F480.000
G1 X2.420 Y2.860 F480.000
G1 X2.115 Y3.095 F480.000
G1 X1.785 Y3.300 F480.000
G1 X1.435 Y3.470 F480.000
G1 X1.070 Y3.600 F480.000
G1 X0.695 Y3.695 F480.000
G1 X0.310 Y3.750 F480.000
G1 X-0.070 Y3.765 F480.000
G1 X-0.450 Y3.740 F480.000
G1 X-0.825 Y3.675 F480.000
G1 X-1.195 Y3.580 F480.000
G1 X-1.605 Y3.425 F480.000
G1 X-1.955 Y3.235 F480.000
G1 X-2.230 Y3.055 F480.000
G1 X-2.525 Y2.810 F480.000
G1 X-2.790 Y2.550 F480.000
G1 X-3.055 Y2.225 F480.000
G1 X-3.270 Y1.900 F480.000
G1 X-3.455 Y1.550 F480.000
G1 X-3.605 Y1.180 F480.000
G1 X-3.705 Y0.795 F480.000
G1 X-3.765 Y0.455 F480.000
G1 X-3.785 Y0.075 F480.000
G1 X-3.770 Y-0.290 F480.000
G1 X-3.710 Y-0.690 F480.000
G1 X-3.625 Y-1.065 F480.000
G1 X-3.485 Y-1.480 F480.000
G1 X-3.315 Y-1.850 F480.000
G1 X-3.100 Y-2.200 F480.000
G1 X-2.890 Y-2.480 F480.000
G1 X-2.635 Y-2.770 F480.000
G1 X-2.305 Y-3.060 F480.000
G1 X-1.990 Y-3.290 F480.000
G1 X-1.645 Y-3.500 F480.000
G1 X-1.275 Y-3.675 F480.000
G1 X-0.895 Y-3.810 F480.000
G1 X-0.500 Y-3.910 F480.000
G1 X-0.095 Y-3.970 F480.000
G1 X0.305 Y-3.990 F480.000
G1 X0.705 Y-3.970 F480.000
G1 X1.105 Y-3.910 F480.000
G1 X1.495 Y-3.810 F480.000
G1 X1.870 Y-3.660 F480.000
G1 X2.165 Y-3.510 F480.000
G1 X2.490 Y-3.310 F480.000
G1 X2.835 Y-3.045 F480.000
G1 X3.145 Y-2.755 F480.000
G1 X3.410 Y-2.440 F480.000
G1 X3.625 Y-2.135 F480.000
G1 X3.820 Y-1.785 F480.000
G1 X3.975 Y-1.420 F480.000
G1 X4.095 Y-1.045 F480.000
G1 X4.185 Y-0.660 F480.000
G1 X4.240 Y-0.205 F480.000
G1 X4.255 Y0.200 F480.000
G1 X4.230 Y0.615 F480.000
G1 X4.145 Y1.030 F480.000
G1 X4.050 Y1.355 F480.000
G1 X3.915 Y1.720 F480.000
G1 X3.710 Y2.140 F480.000
G1 X3.480 Y2.520 F480.000
G1 X3.210 Y2.855 F480.000
G1 X2.970 Y3.105 F480.000
G1 X2.665 Y3.365 F480.000
G1 X2.350 Y3.595 F480.000
G1 X1.940 Y3.830 F480.000
G1 X1.560 Y4.005 F480.000
G1 X1.165 Y4.145 F480.000
G1 X0.740 Y4.250 F480.000
G1 X0.315 Y4.295 F480.000
G1 X-0.025 Y4.305 F480.000
G1 X-0.415 Y4.290 F480.000
G1 X-0.875 Y4.230 F480.000
G1 X-1.325 Y4.125 F480.000
G1 X-1.735 Y3.965 F480.000
G1 X-2.025 Y3.825 F480.000
G1 X-2.365 Y3.615 F480.000
G1 X-2.675 Y3.390 F480.000
G1 X-3.035 Y3.080 F480.000
G1 X-3.360 Y2.740 F480.000
G1 X-3.620 Y2.385 F480.000
G1 X-3.805 Y2.080 F480.000
G1 X-3.985 Y1.705 F480.000
G1 X-4.120 Y1.325 F480.000
G1 X-4.215 Y0.950 F480.000
G1 X-4.280 Y0.555 F480.000
G1 X-4.320 Y0.105 F480.000
G1 X-4.315 Y-0.360 F480.000
G1 X-4.250 Y-0.795 F480.000
G1 X-4.175 Y-1.135 F480.000
G1 X-4.055 Y-1.530 F480.000
G1 X-3.860 Y-1.970 F480.000
G1 X-3.665 Y-2.330 F480.000
G1 X-3.430 Y-2.690 F480.000
G1 X-3.155 Y-3.025 F480.000
G1 X-2.860 Y-3.330 F480.000
G1 X-2.525 Y-3.600 F480.000
G1 X-2.205 Y-3.815 F480.000
G1 X-1.845 Y-4.020 F480.000
G1 X-1.430 Y-4.215 F480.000
G1 X-0.970 Y-4.380 F480.000
G1 X-0.530 Y-4.475 F480.000
G1 X-0.175 Y-4.525 F480.000
G1 X0.240 Y-4.550 F480.000
G1 X0.685 Y-4.535 F480.000
G1 X1.145 Y-4.465 F480.000
G1 X1.515 Y-4.380 F480.000
G1 X1.920 Y-4.240 F480.000
G1 X2.305 Y-4.060 F480.000
G1 X2.660 Y-3.855 F480.000
G1 X3.005 Y-3.620 F480.000
G1 X3.360 Y-3.320 F480.000
G1 X3.655 Y-3.005 F480.000
G1 X3.885 Y-2.715 F480.000
G1 X4.120 Y-2.365 F480.000
G1 X4.345 Y-1.940 F480.000
G1 X4.510 Y-1.550 F480.000
G1 X4.645 Y-1.135 F480.000
G1 X4.740 Y-0.700 F480.000
G1 X4.795 Y-0.270 F480.000
G1 X4.815 Y0.160 F480.000
G1 X4.790 Y0.590 F480.000
G1 X4.730 Y1.020 F480.000
G1 X4.630 Y1.440 F480.000
G1 X4.490 Y1.850 F480.000
G1 X4.315 Y2.245 F480.000
G1 X4.105 Y2.625 F480.000
G1 X3.845 Y2.975 F480.000
G1 X3.610 Y3.245 F480.000
G1 X3.320 Y3.535 F480.000
G1 X2.940 Y3.860 F480.000
G1 X2.530 Y4.150 F480.000
G1 X2.115 Y4.380 F480.000
G1 X1.755 Y4.545 F480.000
G1 X1.320 Y4.700 F480.000
G1 X0.890 Y4.805 F480.000
G1 X0.460 Y4.855 F480.000
G1 X0.100 Y4.870 F480.000
G1 X-0.300 Y4.865 F480.000
G1 X-0.795 Y4.820 F480.000
G1 X-1.285 Y4.730 F480.000
G1 X-1.760 Y4.575 F480.000
G1 X-2.090 Y4.435 F480.000
G1 X-2.420 Y4.255 F480.000
G1 X-2.760 Y4.035 F480.000
G1 X-3.155 Y3.745 F480.000
G1 X-3.525 Y3.410 F480.000
G1 X-3.830 Y3.050 F480.000
G1 X-4.045 Y2.760 F480.000
G1 X-4.275 Y2.375 F480.000
G1 X-4.460 Y2.000 F480.000
G1 X-4.630 Y1.555 F480.000
G1 X-4.750 Y1.125 F480.000
G1 X-4.835 Y0.685 F480.000
G1 X-4.880 Y0.230 F480.000
G1 X-4.885 Y-0.215 F480.000
G1 X-4.855 Y-0.660 F480.000
G1 X-4.785 Y-1.100 F480.000
G1 X-4.660 Y-1.530 F480.000
G1 X-4.525 Y-1.885 F480.000
G1 X-4.350 Y-2.270 F480.000
G1 X-4.105 Y-2.705 F480.000
G1 X-3.825 Y-3.120 F480.000
G1 X-3.510 Y-3.480 F480.000
G1 X-3.245 Y-3.745 F480.000
G1 X-2.900 Y-4.025 F480.000
G1 X-2.550 Y-4.275 F480.000
G1 X-2.115 Y-4.525 F480.000
G1 X-1.695 Y-4.725 F480.000
G1 X-1.255 Y-4.890 F480.000
G1 X-0.785 Y-5.020 F480.000
G1 X-0.320 Y-5.090 F480.000
G1 X0.050 Y-5.120 F480.000
G1 X0.480 Y-5.125 F480.000
G1 X0.970 Y-5.085 F480.000
G1 X1.460 Y-4.990 F480.000
G1 X1.845 Y-4.885 F480.000
G1 X2.280 Y-4.725 F480.000
G1 X2.690 Y-4.525 F480.000
G1 X3.060 Y-4.290 F480.000
G1 X3.365 Y-4.060 F480.000
G1 X3.685 Y-3.785 F480.000
G1 X4.035 Y-3.430 F480.000
G1 X4.355 Y-3.045 F480.000
G1 X4.625 Y-2.640 F480.000
G1 X4.835 Y-2.275 F480.000
G1 X5.030 Y-1.845 F480.000
G1 X5.180 Y-1.415 F480.000
G1 X5.295 Y-0.980 F480.000
G1 X5.370 Y-0.525 F480.000
G1 X5.405 Y-0.070 F480.000
G1 X5.400 Y0.380 F480.000
G1 X5.355 Y0.830 F480.000
G1 X5.270 Y1.275 F480.000
G1 X5.155 Y1.715 F480.000
G1 X4.985 Y2.185 F480.000
G1 X4.775 Y2.605 F480.000
G1 X4.575 Y2.945 F480.000
G1 X4.315 Y3.315 F480.000
G1 X3.990 Y3.690 F480.000
G1 X3.675 Y4.005 F480.000
G1 X3.315 Y4.305 F480.000
G1 X2.940 Y4.580 F480.000
G1 X2.510 Y4.835 F480.000
G1 X2.075 Y5.050 F480.000
G1 X1.610 Y5.210 F480.000
G1 X1.250 Y5.305 F480.000
G1 X0.815 Y5.390 F480.000
G1 X0.315 Y5.445 F480.000
G1 X-0.180 Y5.460 F480.000
G1 X-0.675 Y5.440 F480.000
G1 X-1.165 Y5.360 F480.000
G1 X-1.560 Y5.250 F480.000
G1 X-1.915 Y5.135 F480.000
G1 X-2.375 Y4.940 F480.000
G1 X-2.810 Y4.700 F480.000
G1 X-3.195 Y4.455 F480.000
G1 X-3.585 Y4.155 F480.000
G1 X-3.940 Y3.825 F480.000
G1 X-4.250 Y3.465 F480.000
G1 X-4.470 Y3.160 F480.000
G1 X-4.710 Y2.790 F480.000
G1 X-4.945 Y2.345 F480.000
G1 X-5.140 Y1.885 F480.000
G1 X-5.280 Y1.415 F480.000
G1 X-5.370 Y1.015 F480.000
G1 X-5.445 Y0.550 F480.000
G1 X-5.470 Y0.050 F480.000
G1 X-5.460 Y-0.410 F480.000
G1 X-5.410 Y-0.890 F480.000
G1 X-5.320 Y-1.370 F480.000
G1 X-5.175 Y-1.825 F480.000
G1 X-5.030 Y-2.195 F480.000
G1 X-4.840 Y-2.605 F480.000
G1 X-4.590 Y-3.040 F480.000
G1 X-4.310 Y-3.455 F480.000
G1 X-3.980 Y-3.830 F480.000
G1 X-3.705 Y-4.100 F480.000
G1 X-3.360 Y-4.410 F480.000
G1 X-2.960 Y-4.710 F480.000
G1 X-2.535 Y-4.980 F480.000
G1 X-2.085 Y-5.200 F480.000
G1 X-1.695 Y-5.360 F480.000
G1 X-1.230 Y-5.505 F480.000
G1 X-0.770 Y-5.615 F480.000
G1 X-0.275 Y-5.690 F480.000
G1 X0.220 Y-5.730 F480.000
G1 X0.715 Y-5.715 F480.000
G1 X1.130 Y-5.670 F480.000
G1 X1.595 Y-5.580 F480.000
G1 X2.040 Y-5.450 F480.000
G1 X2.465 Y-5.290 F480.000
G1 X2.880 Y-5.085 F480.000
G1 X3.275 Y-4.850 F480.000
G1 X3.655 Y-4.590 F480.000
G1 X4.040 Y-4.270 F480.000
G1 X4.385 Y-3.930 F480.000
G1 X4.710 Y-3.560 F480.000
G1 X5.005 Y-3.155 F480.000
G1 X5.265 Y-2.740 F480.000
G1 X5.490 Y-2.300 F480.000
G1 X5.680 Y-1.840 F480.000
G1 X5.815 Y-1.360 F480.000
G1 X5.895 Y-0.970 F480.000
G1 X5.965 Y-0.520 F480.000
G1 X5.995 Y-0.020 F480.000
G1 X5.990 Y0.475 F480.000
G1 X5.950 Y0.970 F480.000
G1 X5.850 Y1.460 F480.000
G1 X5.740 Y1.865 F480.000
G1 X5.575 Y2.320 F480.000
G1 X5.380 Y2.750 F480.000
G1 X5.135 Y3.185 F480.000
G1 X4.860 Y3.595 F480.000
G1 X4.555 Y3.985 F480.000
G1 X4.215 Y4.350 F480.000
G1 X3.835 Y4.675 F480.000
G1 X3.505 Y4.925 F480.000
G1 X3.115 Y5.185 F480.000
G1 X2.670 Y5.420 F480.000
G1 X2.230 Y5.615 F480.000
G1 X1.755 Y5.785 F480.000
G1 X1.270 Y5.910 F480.000
G1 X0.775 Y6.000 F480.000
G1 X0.275 Y6.050 F480.000
G1 X-0.220 Y6.060 F480.000
G1 X-0.715 Y6.030 F480.000
G1 X-1.210 Y5.965 F480.000
G1 X-1.695 Y5.845 F480.000
G1 X-2.095 Y5.715 F480.000
G1 X-2.530 Y5.530 F480.000
G1 X-2.945 Y5.325 F480.000
G1 X-3.370 Y5.065 F480.000
G1 X-3.775 Y4.770 F480.000
G1 X-4.160 Y4.450 F480.000
G1 X-4.505 Y4.085 F480.000
G1 X-4.775 Y3.760 F480.000
G1 X-5.060 Y3.365 F480.000
G1 X-5.320 Y2.935 F480.000
G1 X-5.545 Y2.490 F480.000
G1 X-5.725 Y2.020 F480.000
G1 X-5.850 Y1.605 F480.000
G1 X-5.955 Y1.125 F480.000
G1 X-6.030 Y0.655 F480.000
G1 X-6.065 Y0.155 F480.000
G1 X-6.060 Y-0.340 F480.000
G1 X-6.025 Y-0.835 F480.000
G1 X-5.950 Y-1.325 F480.000
G1 X-5.815 Y-1.805 F480.000
G1 X-5.680 Y-2.190 F480.000
G1 X-5.495 Y-2.640 F480.000
G1 X-5.270 Y-3.085 F480.000
G1 X-5.010 Y-3.510 F480.000
G1 X-4.705 Y-3.905 F480.000
G1 X-4.425 Y-4.225 F480.000
G1 X-4.075 Y-4.585 F480.000
G1 X-3.700 Y-4.915 F480.000
G1 X-3.305 Y-5.220 F480.000
G1 X-2.875 Y-5.475 F480.000
G1 X-2.510 Y-5.665 F480.000
G1 X-2.050 Y-5.865 F480.000
G1 X-1.580 Y-6.035 F480.000
G1 X-1.095 Y-6.170 F480.000
G1 X-0.605 Y-6.270 F480.000
G1 X-0.105 Y-6.320 F480.000
G1 X0.355 Y-6.340 F480.000
G1 X0.850 Y-6.320 F480.000
G1 X1.345 Y-6.260 F480.000
G1 X1.830 Y-6.145 F480.000
G1 X2.220 Y-6.025 F480.000
G1 X2.660 Y-5.855 F480.000
G1 X3.110 Y-5.645 F480.000
G1 X3.545 Y-5.400 F480.000
G1 X3.960 Y-5.125 F480.000
G1 X4.355 Y-4.820 F480.000
G1 X4.725 Y-4.485 F480.000
G1 X5.055 Y-4.110 F480.000
G1 X5.315 Y-3.780 F480.000
G1 X5.600 Y-3.370 F480.000
G1 X5.855 Y-2.940 F480.000
G1 X6.075 Y-2.490 F480.000
G1 X6.255 Y-2.020 F480.000
G1 X6.405 Y-1.555 F480.000
G1 X6.520 Y-1.065 F480.000
G1 X6.595 Y-0.570 F480.000
G1 X6.635 Y-0.070 F480.000
G1 X6.635 Y0.425 F480.000
G1 X6.580 Y0.920 F480.000
G1 X6.505 Y1.335 F480.000
G1 X6.395 Y1.810 F480.000
G1 X6.245 Y2.285 F480.000
G1 X6.060 Y2.750 F480.000
G1 X5.845 Y3.200 F480.000
G1 X5.585 Y3.625 F480.000
G1 X5.320 Y4.000 F480.000
G1 X5.000 Y4.385 F480.000
G1 X4.660 Y4.750 F480.000
G1 X4.290 Y5.090 F480.000
G1 X3.900 Y5.400 F480.000
G1 X3.490 Y5.685 F480.000
G1 X3.050 Y5.920 F480.000
G1 X2.660 Y6.100 F480.000
G1 X2.195 Y6.285 F480.000
G1 X1.715 Y6.435 F480.000
G1 X1.225 Y6.550 F480.000
G1 X0.730 Y6.635 F480.000
G1 X0.230 Y6.685 F480.000
G1 X-0.265 Y6.680 F480.000
G1 X-0.695 Y6.655 F480.000
G1 X-1.190 Y6.585 F480.000
G1 X-1.680 Y6.485 F480.000
G1 X-2.160 Y6.345 F480.000
G1 X-2.625 Y6.170 F480.000
G1 X-3.080 Y5.965 F480.000
G1 X-3.510 Y5.710 F480.000
G1 X-3.880 Y5.460 F480.000
G1 X-4.270 Y5.150 F480.000
G1 X-4.640 Y4.815 F480.000
G1 X-4.985 Y4.450 F480.000
G1 X-5.300 Y4.065 F480.000
G1 X-5.590 Y3.660 F480.000
G1 X-5.850 Y3.230 F480.000
G1 X-6.080 Y2.785 F480.000
G1 X-6.275 Y2.325 F480.000
G1 X-6.420 Y1.845 F480.000
G1 X-6.520 Y1.420 F480.000
G1 X-6.610 Y0.925 F480.000
G1 X-6.665 Y0.425 F480.000
G1 X-6.685 Y-0.070 F480.000
G1 X-6.675 Y-0.565 F480.000
G1 X-6.610 Y-1.060 F480.000
G1 X-6.525 Y-1.525 F480.000
G1 X-6.395 Y-2.005 F480.000
G1 X-6.225 Y-2.475 F480.000
G1 X-6.035 Y-2.935 F480.000
G1 X-5.805 Y-3.380 F480.000
G1 X-5.545 Y-3.805 F480.000
G1 X-5.260 Y-4.215 F480.000
G1 X-4.945 Y-4.600 F480.000
G1 X-4.600 Y-4.965 F480.000
G1 X-4.235 Y-5.305 F480.000
G1 X-3.845 Y-5.615 F480.000
G1 X-3.420 Y-5.880 F480.000
G1 X-3.035 Y-6.095 F480.000
G1 X-2.585 Y-6.315 F480.000
G1 X-2.120 Y-6.505 F480.000
G1 X-1.645 Y-6.665 F480.000
G1 X-1.160 Y-6.795 F480.000
G1 X-0.670 Y-6.895 F480.000
G1 X-0.170 Y-6.950 F480.000
G1 X0.325 Y-6.980 F480.000
G1 X0.820 Y-6.955 F480.000
G1 X1.265 Y-6.900 F480.000
G1 X1.755 Y-6.805 F480.000
G1 X2.235 Y-6.665 F480.000
G1 X2.695 Y-6.505 F480.000
G1 X3.155 Y-6.315 F480.000
G1 X3.600 Y-6.085 F480.000
G1 X4.030 Y-5.830 F480.000
G1 X4.440 Y-5.550 F480.000
G1 X4.830 Y-5.240 F480.000
G1 X5.185 Y-4.890 F480.000
G1 X5.490 Y-4.555 F480.000
G1 X5.805 Y-4.170 F480.000
G1 X6.085 Y-3.755 F480.000
G1 X6.340 Y-3.325 F480.000
G1 X6.565 Y-2.875 F480.000
G1 X6.765 Y-2.415 F480.000
G1 X6.930 Y-1.940 F480.000
G1 X7.065 Y-1.455 F480.000
G1 X7.170 Y-0.965 F480.000
G1 X7.240 Y-0.470 F480.000
G1 X7.260 Y0.025 F480.000
G1 X7.255 Y0.505 F480.000
G1 X7.210 Y1.000 F480.000
G1 X7.125 Y1.490 F480.000
G1 X7.010 Y1.975 F480.000
G1 X6.855 Y2.450 F480.000
G1 X6.665 Y2.910 F480.000
G1 X6.450 Y3.360 F480.000
G1 X6.200 Y3.790 F480.000
G1 X5.920 Y4.205 F480.000
G1 X5.615 Y4.600 F480.000
G1 X5.290 Y4.980 F480.000
G1 X4.940 Y5.335 F480.000
G1 X4.565 Y5.670 F480.000
G1 X4.175 Y5.980 F480.000
G1 X3.750 Y6.245 F480.000
G1 X3.355 Y6.465 F480.000
G1 X2.900 Y6.675 F480.000
G1 X2.435 Y6.860 F480.000
G1 X1.955 Y7.010 F480.000
G1 X1.465 Y7.130 F480.000
G1 X0.970 Y7.220 F480.000
G1 X0.470 Y7.275 F480.000
G1 X-0.025 Y7.300 F480.000
G1 X-0.520 Y7.290 F480.000
G1 X-1.015 Y7.250 F480.000
G1 X-1.505 Y7.175 F480.000
G1 X-1.990 Y7.070 F480.000
G1 X-2.465 Y6.915 F480.000
G1 X-2.905 Y6.745 F480.000
G1 X-3.355 Y6.530 F480.000
G1 X-3.785 Y6.275 F480.000
G1 X-4.195 Y5.995 F480.000
G1 X-4.595 Y5.695 F480.000
G1 X-4.965 Y5.360 F480.000
G1 X-5.315 Y5.000 F480.000
G1 X-5.640 Y4.620 F480.000
G1 X-5.945 Y4.225 F480.000
G1 X-6.220 Y3.805 F480.000
G1 X-6.470 Y3.370 F480.000
G1 X-6.695 Y2.920 F480.000
G1 X-6.875 Y2.450 F480.000
G1 X-7.030 Y1.980 F480.000
G1 X-7.150 Y1.495 F480.000
G1 X-7.230 Y1.000 F480.000
G1 X-7.280 Y0.500 F480.000
G1 X-7.305 Y0.000 F480.000
G1 X-7.290 Y-0.495 F480.000
G1 X-7.245 Y-0.990 F480.000
G1 X-7.170 Y-1.480 F480.000
G1 X-7.060 Y-1.965 F480.000
G1 X-6.920 Y-2.445 F480.000
G1 X-6.750 Y-2.915 F480.000
G1 X-6.535 Y-3.365 F480.000
G1 X-6.300 Y-3.790 F480.000
G1 X-6.035 Y-4.215 F480.000
G1 X-5.740 Y-4.620 F480.000
G1 X-5.420 Y-5.005 F480.000
G1 X-5.080 Y-5.370 F480.000
G1 X-4.715 Y-5.715 F480.000
G1 X-4.330 Y-6.035 F480.000
G1 X-3.915 Y-6.315 F480.000
G1 X-3.500 Y-6.560 F480.000
G1 X-3.055 Y-6.790 F480.000
G1 X-2.600 Y-6.995 F480.000
G1 X-2.130 Y-7.170 F480.000
G1 X-1.650 Y-7.315 F480.000
G1 X-1.160 Y-7.430 F480.000
G1 X-0.665 Y-7.515 F480.000
G1 X-0.165 Y-7.570 F480.000
G1 X0.330 Y-7.595 F480.000
G1 X0.825 Y-7.575 F480.000
G1 X1.320 Y-7.530 F480.000
G1 X1.810 Y-7.445 F480.000
G1 X2.295 Y-7.325 F480.000
G1 X2.770 Y-7.175 F480.000
G1 X3.235 Y-6.990 F480.000
G1 X3.685 Y-6.770 F480.000
G1 X4.120 Y-6.520 F480.000
G1 X4.540 Y-6.255 F480.000
G1 X4.940 Y-5.955 F480.000
G1 X5.320 Y-5.630 F480.000
G1 X5.680 Y-5.285 F480.000
G1 X6.015 Y-4.915 F480.000
G1 X6.330 Y-4.525 F480.000
G1 X6.620 Y-4.115 F480.000
G1 X6.880 Y-3.690 F480.000
G1 X7.115 Y-3.245 F480.000
G1 X7.320 Y-2.790 F480.000
G1 X7.495 Y-2.320 F480.000
G1 X7.640 Y-1.840 F480.000
G1 X7.755 Y-1.350 F480.000
G1 X7.840 Y-0.855 F480.000
G1 X7.895 Y-0.355 F480.000
G1 X7.905 Y0.140 F480.000
G1 X7.890 Y0.635 F480.000
G1 X7.840 Y1.130 F480.000
G1 X7.755 Y1.620 F480.000
G1 X7.635 Y2.105 F480.000
G1 X7.485 Y2.580 F480.000
G1 X7.300 Y3.045 F480.000
G1 X7.085 Y3.495 F480.000
G1 X6.845 Y3.935 F480.000
G1 X6.585 Y4.360 F480.000
G1 X6.295 Y4.765 F480.000
G1 X5.985 Y5.155 F480.000
G1 X5.650 Y5.525 F480.000
G1 X5.295 Y5.875 F480.000
G1 X4.920 Y6.205 F480.000
G1 X4.525 Y6.510 F480.000
G1 X4.105 Y6.780 F480.000
G1 X3.670 Y7.030 F480.000
G1 X3.220 Y7.250 F480.000
G1 X2.755 Y7.435 F480.000
G1 X2.280 Y7.590 F480.000
G1 X1.795 Y7.715 F480.000
G1 X1.305 Y7.815 F480.000
G1 X0.805 Y7.880 F480.000
G1 X0.305 Y7.915 F480.000
G1 X-0.190 Y7.935 F480.000
G1 X-0.685 Y7.915 F480.000
G1 X-1.180 Y7.870 F480.000
G1 X-1.670 Y7.780 F480.000
G1 X-2.155 Y7.665 F480.000
G1 X-2.630 Y7.520 F480.000
G1 X-3.095 Y7.340 F480.000
G1 X-3.550 Y7.135 F480.000
G1 X-3.990 Y6.900 F480.000
G1 X-4.415 Y6.635 F480.000
G1 X-4.820 Y6.345 F480.000
G1 X-5.205 Y6.025 F480.000
G1 X-5.570 Y5.680 F480.000
G1 X-5.910 Y5.315 F480.000
G1 X-6.225 Y4.925 F480.000
G1 X-6.515 Y4.515 F480.000
G1 X-6.790 Y4.095 F480.000
G1 X-7.030 Y3.655 F480.000
G1 X-7.245 Y3.205 F480.000
G1 X-7.435 Y2.740 F480.000
G1 X-7.595 Y2.265 F480.000
G1 X-7.730 Y1.780 F480.000
G1 X-7.835 Y1.290 F480.000
G1 X-7.910 Y0.795 F480.000
G1 X-7.935 Y0.295 F480.000
G1 X-7.940 Y-0.200 F480.000
G1 X-7.920 Y-0.695 F480.000
G1 X-7.865 Y-1.190 F480.000
G1 X-7.785 Y-1.680 F480.000
G1 X-7.675 Y-2.165 F480.000
G1 X-7.540 Y-2.645 F480.000
G1 X-7.355 Y-3.110 F480.000
G1 X-7.150 Y-3.565 F480.000
G1 X-6.915 Y-4.005 F480.000
G1 X-6.660 Y-4.435 F480.000
G1 X-6.375 Y-4.845 F480.000
G1 X-6.065 Y-5.235 F480.000
G1 X-5.735 Y-5.610 F480.000
G1 X-5.380 Y-5.960 F480.000
G1 X-5.005 Y-6.290 F480.000
G1 X-4.610 Y-6.595 F480.000
G1 X-4.195 Y-6.875 F480.000
G1 X-3.765 Y-7.130 F480.000
G1 X-3.320 Y-7.360 F480.000
G1 X-2.865 Y-7.570 F480.000
G1 X-2.395 Y-7.750 F480.000
G1 X-1.920 Y-7.905 F480.000
G1 X-1.435 Y-8.035 F480.000
G1 X-0.945 Y-8.135 F480.000
G1 X-0.450 Y-8.210 F480.000
G1 X0.045 Y-8.235 F480.000
G1 X0.540 Y-8.240 F480.000
G1 X1.035 Y-8.210 F480.000
G1 X1.530 Y-8.140 F480.000
G1 X2.020 Y-8.040 F480.000
G1 X2.505 Y-7.920 F480.000
G1 X2.980 Y-7.765 F480.000
G1 X3.445 Y-7.585 F480.000
G1 X3.900 Y-7.380 F480.000
G1 X4.340 Y-7.145 F480.000
G1 X4.765 Y-6.885 F480.000
G1 X5.175 Y-6.600 F480.000
G1 X5.565 Y-6.290 F480.000
G1 X5.940 Y-5.955 F480.000
G1 X6.295 Y-5.600 F480.000
G1 X6.625 Y-5.225 F480.000
G1 X6.935 Y-4.830 F480.000
G1 X7.220 Y-4.420 F480.000
G1 X7.480 Y-3.990 F480.000
G1 X7.715 Y-3.545 F480.000
G1 X7.920 Y-3.090 F480.000
G1 X8.100 Y-2.620 F480.000
G1 X8.250 Y-2.140 F480.000
G1 X8.375 Y-1.655 F480.000
G1 X8.470 Y-1.160 F480.000
G1 X8.535 Y-0.660 F480.000
G1 X8.570 Y-0.160 F480.000
G1 X8.575 Y0.335 F480.000
G1 X8.530 Y0.830 F480.000
G1 X8.465 Y1.325 F480.000
G1 X8.365 Y1.815 F480.000
G1 X8.245 Y2.300 F480.000
G1 X8.090 Y2.775 F480.000
G1 X7.905 Y3.240 F480.000
G1 X7.695 Y3.695 F480.000
G1 X7.470 Y4.140 F480.000
G1 X7.215 Y4.570 F480.000
G1 X6.935 Y4.985 F480.000
G1 X6.635 Y5.385 F480.000
G1 X6.315 Y5.770 F480.000
G1 X5.975 Y6.135 F480.000
G1 X5.615 Y6.480 F480.000
G1 X5.225 Y6.795 F480.000
G1 X4.825 Y7.095 F480.000
G1 X4.405 Y7.365 F480.000
G1 X3.965 Y7.605 F480.000
G1 X3.515 Y7.820 F480.000
G1 X3.050 Y8.010 F480.000
G1 X2.575 Y8.170 F480.000
G1 X2.090 Y8.300 F480.000
G1 X1.600 Y8.410 F480.000
G1 X1.105 Y8.485 F480.000
G1 X0.605 Y8.535 F480.000
G1 X0.105 Y8.560 F480.000
G1 X-0.390 Y8.565 F480.000
G1 X-0.885 Y8.540 F480.000
G1 X-1.380 Y8.490 F480.000
G1 X-1.870 Y8.400 F480.000
G1 X-2.355 Y8.290 F480.000
G1 X-2.835 Y8.150 F480.000
G1 X-3.305 Y7.980 F480.000
G1 X-3.755 Y7.760 F480.000
G1 X-4.170 Y7.535 F480.000
G1 X-4.595 Y7.275 F480.000
G1 X-5.010 Y6.995 F480.000
G1 X-5.405 Y6.690 F480.000
G1 X-5.785 Y6.365 F480.000
G1 X-6.145 Y6.020 F480.000
G1 X-6.475 Y5.645 F480.000
G1 X-6.790 Y5.255 F480.000
G1 X-7.080 Y4.845 F480.000
G1 X-7.340 Y4.415 F480.000
G1 X-7.585 Y3.980 F480.000
G1 X-7.800 Y3.525 F480.000
G1 X-7.990 Y3.060 F480.000
G1 X-8.155 Y2.585 F480.000
G1 X-8.300 Y2.105 F480.000
G1 X-8.415 Y1.615 F480.000
G1 X-8.510 Y1.120 F480.000
G1 X-8.555 Y0.620 F480.000
G1 X-8.585 Y0.120 F480.000
G1 X-8.580 Y-0.375 F480.000
G1 X-8.550 Y-0.870 F480.000
G1 X-8.490 Y-1.365 F480.000
G1 X-8.405 Y-1.855 F480.000
G1 X-8.290 Y-2.340 F480.000
G1 X-8.150 Y-2.820 F480.000
G1 X-7.980 Y-3.290 F480.000
G1 X-7.785 Y-3.750 F480.000
G1 X-7.565 Y-4.200 F480.000
G1 X-7.320 Y-4.635 F480.000
G1 X-7.050 Y-5.055 F480.000
G1 X-6.750 Y-5.455 F480.000
G1 X-6.430 Y-5.840 F480.000
G1 X-6.085 Y-6.200 F480.000
G1 X-5.715 Y-6.540 F480.000
G1 X-5.330 Y-6.855 F480.000
G1 X-4.930 Y-7.160 F480.000
G1 X-4.510 Y-7.435 F480.000
G1 X-4.075 Y-7.685 F480.000
G1 X-3.630 Y-7.915 F480.000
G1 X-3.180 Y-8.130 F480.000
G1 X-2.715 Y-8.320 F480.000
G1 X-2.240 Y-8.490 F480.000
G1 X-1.755 Y-8.620 F480.000
G1 X-1.265 Y-8.730 F480.000
G1 X-0.770 Y-8.815 F480.000
G1 X-0.270 Y-8.865 F480.000
G1 X0.225 Y-8.890 F480.000
G1 X0.720 Y-8.890 F480.000
G1 X1.215 Y-8.840 F480.000
G1 X1.710 Y-8.770 F480.000
G1 X2.195 Y-8.665 F480.000
G1 X2.680 Y-8.545 F480.000
G1 X3.155 Y-8.390 F480.000
G1 X3.620 Y-8.210 F480.000
G1 X4.075 Y-8.010 F480.000
G1 X4.520 Y-7.780 F480.000
G1 X4.950 Y-7.525 F480.000
G1 X5.365 Y-7.250 F480.000
G1 X5.765 Y-6.950 F480.000
G1 X6.150 Y-6.630 F480.000
G1 X6.515 Y-6.290 F480.000
G1 X6.860 Y-5.930 F480.000
G1 X7.185 Y-5.550 F480.000
G1 X7.490 Y-5.155 F480.000
G1 X7.775 Y-4.740 F480.000
G1 X8.035 Y-4.310 F480.000
G1 X8.270 Y-3.870 F480.000
G1 X8.480 Y-3.415 F480.000
G1 X8.665 Y-2.950 F480.000
G1 X8.825 Y-2.475 F480.000
G1 X8.960 Y-1.990 F480.000
G1 X9.070 Y-1.500 F480.000
G1 X9.150 Y-1.005 F480.000
G1 X9.205 Y-0.505 F480.000
G1 X9.220 Y-0.005 F480.000
G1 X9.210 Y0.490 F480.000
G1 X9.170 Y0.985 F480.000
G1 X9.095 Y1.480 F480.000
G1 X8.995 Y1.970 F480.000
G1 X8.865 Y2.450 F480.000
G1 X8.720 Y2.925 F480.000
G1 X8.540 Y3.390 F480.000
G1 X8.345 Y3.850 F480.000
G1 X8.125 Y4.300 F480.000
G1 X7.885 Y4.735 F480.000
G1 X7.625 Y5.160 F480.000
G1 X7.345 Y5.570 F480.000
G1 X6.695 Y6.330 F480.000
G1 X6.340 Y6.680 F480.000
G1 X5.970 Y7.020 F480.000
G1 X5.580 Y7.335 F480.000
G1 X5.175 Y7.630 F480.000
G1 X4.755 Y7.905 F480.000
G1 X4.320 Y8.160 F480.000
G1 X3.865 Y8.370 F480.000
G1 X3.405 Y8.565 F480.000
G1 X2.930 Y8.730 F480.000
G1 X2.450 Y8.875 F480.000
G1 X1.960 Y8.990 F480.000
G1 X1.465 Y9.080 F480.000
G1 X0.965 Y9.145 F480.000
G1 X0.465 Y9.195 F480.000
G1 X-0.030 Y9.215 F480.000
G1 X-0.525 Y9.210 F480.000
G1 X-1.020 Y9.185 F480.000
G1 X-1.515 Y9.135 F480.000
G1 X-2.005 Y9.045 F480.000
G1 X-2.490 Y8.935 F480.000
G1 X-2.970 Y8.795 F480.000
G1 X-3.440 Y8.625 F480.000
G1 X-3.895 Y8.415 F480.000
G1 X-4.340 Y8.185 F480.000
G1 X-4.775 Y7.935 F480.000
G1 X-5.195 Y7.665 F480.000
G1 X-5.600 Y7.370 F480.000
G1 X-5.990 Y7.060 F480.000
G1 X-6.365 Y6.730 F480.000
G1 X-6.710 Y6.365 F480.000
G1 X-7.040 Y5.990 F480.000
G1 X-7.345 Y5.595 F480.000
G1 X-7.635 Y5.185 F480.000
G1 X-7.900 Y4.760 F480.000
G1 X-8.140 Y4.320 F480.000
G1 X-8.360 Y3.870 F480.000
G1 X-8.555 Y3.405 F480.000
G1 X-8.725 Y2.935 F480.000
G1 X-8.880 Y2.460 F480.000
G1 X-9.005 Y1.975 F480.000
G1 X-9.110 Y1.485 F480.000
G1 X-9.190 Y0.990 F480.000
G1 X-9.225 Y0.490 F480.000
G1 X-9.245 Y-0.005 F480.000
G1 X-9.230 Y-0.500 F480.000
G1 X-9.195 Y-0.995 F480.000
G1 X-9.135 Y-1.490 F480.000
G1 X-9.045 Y-1.980 F480.000
G1 X-8.935 Y-2.465 F480.000
G1 X-8.795 Y-2.945 F480.000
G1 X-8.635 Y-3.415 F480.000
G1 X-8.450 Y-3.880 F480.000
G1 X-8.240 Y-4.335 F480.000
G1 X-8.005 Y-4.775 F480.000
G1 X-7.750 Y-5.205 F480.000
G1 X-7.460 Y-5.615 F480.000
G1 X-7.155 Y-6.010 F480.000
G1 X-6.825 Y-6.385 F480.000
G1 X-6.475 Y-6.740 F480.000
G1 X-6.105 Y-7.075 F480.000
G1 X-5.715 Y-7.390 F480.000
G1 X-5.315 Y-7.690 F480.000
G1 X-4.895 Y-7.965 F480.000
G1 X-4.465 Y-8.225 F480.000
G1 X-4.025 Y-8.460 F480.000
G1 X-3.570 Y-8.675 F480.000
G1 X-3.110 Y-8.870 F480.000
G1 X-2.640 Y-9.045 F480.000
G1 X-2.160 Y-9.195 F480.000
G1 X-1.675 Y-9.325 F480.000
G1 X-1.185 Y-9.430 F480.000
G1 X-0.690 Y-9.510 F480.000
G1 X-0.190 Y-9.550 F480.000
G1 X0.305 Y-9.570 F480.000
G1 X0.800 Y-9.560 F480.000
G1 X1.295 Y-9.515 F480.000
G1 X1.790 Y-9.450 F480.000
G1 X2.280 Y-9.355 F480.000
G1 X2.760 Y-9.230 F480.000
G1 X3.235 Y-9.075 F480.000
G1 X3.700 Y-8.895 F480.000
G1 X4.160 Y-8.700 F480.000
G1 X4.605 Y-8.475 F480.000
G1 X5.465 Y-7.965 F480.000
G1 X5.875 Y-7.680 F480.000
G1 X6.270 Y-7.375 F480.000
G1 X6.655 Y-7.055 F480.000
G1 X7.020 Y-6.715 F480.000
G1 X7.370 Y-6.355 F480.000
G1 X7.695 Y-5.975 F480.000
G1 X8.005 Y-5.580 F480.000
G1 X8.290 Y-5.170 F480.000
G1 X8.555 Y-4.745 F480.000
G1 X8.800 Y-4.305 F480.000
G1 X9.020 Y-3.855 F480.000
G1 X9.215 Y-3.395 F480.000
G1 X9.385 Y-2.925 F480.000
G1 X9.530 Y-2.445 F480.000
G1 X9.650 Y-1.960 F480.000
G1 X9.745 Y-1.465 F480.000
G1 X9.815 Y-0.970 F480.000
G1 X9.860 Y-0.470 F480.000
G1 X9.875 Y0.025 F480.000
G1 X9.865 Y0.520 F480.000
G1 X9.830 Y1.015 F480.000
G1 X9.770 Y1.510 F480.000
G1 X9.680 Y2.000 F480.000
G1 X9.565 Y2.485 F480.000
G1 X9.425 Y2.965 F480.000
G1 X9.260 Y3.435 F480.000
G1 X9.070 Y3.895 F480.000
G1 X8.855 Y4.345 F480.000
G1 X8.620 Y4.785 F480.000
G1 X8.370 Y5.215 F480.000
G1 X8.095 Y5.630 F480.000
G1 X7.800 Y6.035 F480.000
G1 X7.490 Y6.425 F480.000
G1 X7.160 Y6.800 F480.000
G1 X6.815 Y7.160 F480.000
G1 X6.440 Y7.490 F480.000
G1 X6.050 Y7.805 F480.000
G1 X5.650 Y8.105 F480.000
G1 X5.230 Y8.375 F480.000
G1 X4.800 Y8.630 F480.000
G1 X4.355 Y8.860 F480.000
G1 X3.900 Y9.065 F480.000
G1 X3.435 Y9.250 F480.000
G1 X2.960 Y9.410 F480.000
G1 X2.475 Y9.545 F480.000
G1 X1.985 Y9.655 F480.000
G1 X1.490 Y9.740 F480.000
G1 X0.995 Y9.810 F480.000
G1 X0.495 Y9.850 F480.000
G1 X0.000 Y9.870 F480.000
G1 X-0.495 Y9.870 F480.000
G1 X-0.990 Y9.845 F480.000
G1 X-1.485 Y9.795 F480.000
G1 X-1.980 Y9.725 F480.000
G1 X-2.470 Y9.630 F480.000
G1 X-2.950 Y9.495 F480.000
G1 X-3.420 Y9.325 F480.000
G1 X-3.880 Y9.135 F480.000
G1 X-4.335 Y8.930 F480.000
G1 X-4.780 Y8.700 F480.000
G1 X-5.210 Y8.450 F480.000
G1 X-5.630 Y8.180 F480.000
G1 X-6.035 Y7.890 F480.000
G1 X-6.425 Y7.580 F480.000
G1 X-6.790 Y7.240 F480.000
G1 X-7.145 Y6.885 F480.000
G1 X-7.475 Y6.510 F480.000
G1 X-8.075 Y5.710 F480.000
G1 X-8.345 Y5.285 F480.000
G1 X-8.600 Y4.855 F480.000
G1 X-8.835 Y4.410 F480.000
G1 X-9.045 Y3.955 F480.000
G1 X-9.240 Y3.490 F480.000
G1 X-9.410 Y3.020 F480.000
G1 X-9.560 Y2.540 F480.000
G1 X-9.690 Y2.055 F480.000
G1 X-9.775 Y1.560 F480.000
G1 X-9.845 Y1.060 F480.000
G1 X-9.885 Y0.560 F480.000
G1 X-9.900 Y0.060 F480.000
G1 X-9.890 Y-0.435 F480.000
G1 X-9.855 Y-0.930 F480.000
G1 X-9.805 Y-1.425 F480.000
G1 X-9.725 Y-1.915 F480.000
G1 X-9.625 Y-2.405 F480.000
G1 X-9.505 Y-2.890 F480.000
G1 X-9.360 Y-3.365 F480.000
G1 X-9.195 Y-3.835 F480.000
G1 X-9.005 Y-4.295 F480.000
G1 X-8.785 Y-4.745 F480.000
G1 X-8.550 Y-5.185 F480.000
G1 X-8.290 Y-5.610 F480.000
G1 X-8.005 Y-6.020 F480.000
G1 X-7.685 Y-6.405 F480.000
G1 X-7.350 Y-6.775 F480.000
G1 X-7.000 Y-7.135 F480.000
G1 X-6.635 Y-7.475 F480.000
G1 X-6.250 Y-7.795 F480.000
G1 X-5.855 Y-8.100 F480.000
G1 X-5.445 Y-8.385 F480.000
G1 X-4.590 Y-8.905 F480.000
G1 X-4.145 Y-9.135 F480.000
G1 X-3.690 Y-9.350 F480.000
G1 X-3.230 Y-9.545 F480.000
G1 X-2.760 Y-9.720 F480.000
G1 X-2.285 Y-9.875 F480.000
G1 X-1.795 Y-9.995 F480.000
G1 X-1.305 Y-10.100 F480.000
G1 X-0.810 Y-10.175 F480.000
G1 X-0.310 Y-10.220 F480.000
G1 X0.185 Y-10.245 F480.000
G1 X0.680 Y-10.245 F480.000
G1 X1.175 Y-10.215 F480.000
G1 X1.670 Y-10.160 F480.000
G1 X2.160 Y-10.080 F480.000
G1 X2.645 Y-9.960 F480.000
G1 X3.125 Y-9.820 F480.000
G1 X3.595 Y-9.660 F480.000
G1 X4.055 Y-9.475 F480.000
G1 X4.505 Y-9.265 F480.000
G1 X4.950 Y-9.040 F480.000
G1 X5.385 Y-8.790 F480.000
G1 X5.805 Y-8.525 F480.000
G1 X6.620 Y-7.945 F480.000
G1 X7.010 Y-7.630 F480.000
G1 X7.385 Y-7.300 F480.000
G1 X8.065 Y-6.565 F480.000
G1 X8.380 Y-6.175 F480.000
G1 X8.680 Y-5.775 F480.000
G1 X8.955 Y-5.360 F480.000
G1 X9.210 Y-4.930 F480.000
G1 X9.450 Y-4.490 F480.000
G1 X9.665 Y-4.035 F480.000
G1 X9.860 Y-3.575 F480.000
G1 X10.035 Y-3.105 F480.000
G1 X10.185 Y-2.625 F480.000
G1 X10.295 Y-2.135 F480.000
G1 X10.385 Y-1.640 F480.000
G1 X10.460 Y-1.145 F480.000
G1 X10.510 Y-0.645 F480.000
G1 X10.535 Y-0.145 F480.000
G1 X10.540 Y0.350 F480.000
G1 X10.520 Y0.845 F480.000
G1 X10.480 Y1.340 F480.000
G1 X10.395 Y1.830 F480.000
G1 X10.295 Y2.320 F480.000
G1 X10.165 Y2.800 F480.000
G1 X10.020 Y3.275 F480.000
G1 X9.845 Y3.740 F480.000
G1 X9.650 Y4.200 F480.000
G1 X9.435 Y4.650 F480.000
G1 X9.205 Y5.095 F480.000
G1 X8.950 Y5.525 F480.000
G1 X8.680 Y5.945 F480.000
G1 X8.395 Y6.355 F480.000
G1 X8.090 Y6.750 F480.000
G1 X7.770 Y7.135 F480.000
G1 X7.055 Y7.835 F480.000
G1 X6.675 Y8.160 F480.000
G1 X5.865 Y8.750 F480.000
G1 X5.440 Y9.015 F480.000
G1 X5.005 Y9.265 F480.000
G1 X4.560 Y9.495 F480.000
G1 X4.105 Y9.705 F480.000
G1 X3.635 Y9.885 F480.000
G1 X3.160 Y10.050 F480.000
G1 X2.680 Y10.190 F480.000
G1 X2.190 Y10.300 F480.000
G1 X1.695 Y10.390 F480.000
G1 X1.195 Y10.455 F480.000
G1 X0.695 Y10.505 F480.000
G1 X-0.300 Y10.545 F480.000
G1 X-0.795 Y10.535 F480.000
G1 X-1.290 Y10.505 F480.000
G1 X-1.785 Y10.445 F480.000
G1 X-2.275 Y10.345 F480.000
G1 X-2.760 Y10.230 F480.000
G1 X-3.240 Y10.095 F480.000
G1 X-3.710 Y9.925 F480.000
G1 X-4.170 Y9.735 F480.000
G1 X-4.620 Y9.525 F480.000
G1 X-5.065 Y9.300 F480.000
G1 X-5.495 Y9.050 F480.000
G1 X-5.915 Y8.780 F480.000
G1 X-6.325 Y8.495 F480.000
G1 X-6.720 Y8.190 F480.000
G1 X-7.100 Y7.870 F480.000
G1 X-7.455 Y7.520 F480.000
G1 X-7.800 Y7.155 F480.000
G1 X-8.125 Y6.775 F480.000
G1 X-8.425 Y6.375 F480.000
G1 X-8.705 Y5.960 F480.000
G1 X-8.970 Y5.535 F480.000
G1 X-9.220 Y5.100 F480.000
G1 X-9.450 Y4.655 F480.000
G1 X-9.665 Y4.200 F480.000
G1 X-9.860 Y3.740 F480.000
G1 X-10.035 Y3.270 F480.000
G1 X-10.190 Y2.795 F480.000
G1 X-10.410 Y1.815 F480.000
G1 X-10.485 Y1.320 F480.000
G1 X-10.530 Y0.820 F480.000
G1 X-10.555 Y0.320 F480.000
G1 X-10.565 Y-0.175 F480.000
G1 X-10.545 Y-0.670 F480.000
G1 X-10.505 Y-1.165 F480.000
G1 X-10.445 Y-1.660 F480.000
G1 X-10.360 Y-2.150 F480.000
G1 X-10.260 Y-2.640 F480.000
G1 X-10.135 Y-3.125 F480.000
G1 X-9.990 Y-3.600 F480.000
G1 X-9.830 Y-4.070 F480.000
G1 X-9.420 Y-4.975 F480.000
G1 X-9.185 Y-5.415 F480.000
G1 X-8.925 Y-5.840 F480.000
G1 X-8.645 Y-6.255 F480.000
G1 X-8.345 Y-6.655 F480.000
G1 X-8.025 Y-7.035 F480.000
G1 X-7.685 Y-7.400 F480.000
G1 X-7.325 Y-7.750 F480.000
G1 X-6.565 Y-8.400 F480.000
G1 X-6.160 Y-8.695 F480.000
G1 X-5.325 Y-9.245 F480.000
G1 X-4.895 Y-9.500 F480.000
G1 X-4.455 Y-9.740 F480.000
G1 X-4.010 Y-9.965 F480.000
G1 X-3.075 Y-10.325 F480.000
G1 X-2.600 Y-10.480 F480.000
G1 X-2.115 Y-10.605 F480.000
G1 X-1.625 Y-10.710 F480.000
G1 X-1.130 Y-10.800 F480.000
G1 X-0.630 Y-10.865 F480.000
G1 X-0.130 Y-10.910 F480.000
G1 X0.365 Y-10.915 F480.000
G1 X0.860 Y-10.905 F480.000
G1 X1.355 Y-10.870 F480.000
G1 X1.850 Y-10.800 F480.000
G1 X2.340 Y-10.710 F480.000
G1 X2.825 Y-10.595 F480.000
G1 X3.305 Y-10.460 F480.000
G1 X3.775 Y-10.300 F480.000
G1 X4.240 Y-10.120 F480.000
G1 X4.695 Y-9.920 F480.000
G1 X5.140 Y-9.695 F480.000
G1 X6.005 Y-9.195 F480.000
G1 X6.830 Y-8.630 F480.000
G1 X7.225 Y-8.325 F480.000
G1 X7.610 Y-8.005 F480.000
G1 X7.970 Y-7.660 F480.000
G1 X8.320 Y-7.305 F480.000
G1 X8.655 Y-6.935 F480.000
G1 X8.970 Y-6.545 F480.000
G1 X9.255 Y-6.130 F480.000
G1 X9.785 Y-5.275 F480.000
G1 X10.025 Y-4.835 F480.000
G1 X10.245 Y-4.385 F480.000
G1 X10.450 Y-3.930 F480.000
G1 X10.620 Y-3.460 F480.000
G1 X10.775 Y-2.985 F480.000
G1 X10.910 Y-2.500 F480.000
G1 X11.015 Y-2.010 F480.000
G1 X11.100 Y-1.515 F480.000
G1 X11.160 Y-1.015 F480.000
G1 X11.195 Y-0.515 F480.000
G1 X11.210 Y-0.015 F480.000
G1 X11.200 Y0.480 F480.000
G1 X11.165 Y0.975 F480.000
G1 X11.115 Y1.470 F480.000
G1 X11.040 Y1.960 F480.000
G1 X10.945 Y2.450 F480.000
G1 X10.830 Y2.935 F480.000
G1 X10.690 Y3.415 F480.000
G1 X10.515 Y3.880 F480.000
G1 X10.325 Y4.340 F480.000
G1 X10.120 Y4.795 F480.000
G1 X9.895 Y5.240 F480.000
G1 X9.650 Y5.675 F480.000
G1 X9.390 Y6.100 F480.000
G1 X9.115 Y6.515 F480.000
G1 X8.820 Y6.920 F480.000
G1 X8.510 Y7.310 F480.000
G1 X8.170 Y7.675 F480.000
G1 X7.820 Y8.030 F480.000
G1 X7.450 Y8.365 F480.000
G1 X7.065 Y8.685 F480.000
G1 X6.665 Y8.990 F480.000
G1 X5.835 Y9.550 F480.000
G1 X5.405 Y9.805 F480.000
G1 X4.965 Y10.040 F480.000
G1 X4.515 Y10.260 F480.000
G1 X4.055 Y10.460 F480.000
G1 X3.585 Y10.630 F480.000
G1 X3.110 Y10.785 F480.000
G1 X2.620 Y10.900 F480.000
G1 X1.630 Y11.080 F480.000
G1 X1.130 Y11.145 F480.000
G1 X0.630 Y11.185 F480.000
G1 X0.130 Y11.210 F480.000
G1 X-0.365 Y11.215 F480.000
G1 X-0.860 Y11.195 F480.000
G1 X-1.355 Y11.160 F480.000
G1 X-1.850 Y11.105 F480.000
G1 X-2.340 Y11.030 F480.000
G1 X-2.825 Y10.920 F480.000
G1 X-3.300 Y10.775 F480.000
G1 X-3.770 Y10.615 F480.000
G1 X-4.235 Y10.440 F480.000
G1 X-4.695 Y10.240 F480.000
G1 X-5.145 Y10.020 F480.000
G1 X-5.585 Y9.785 F480.000
G1 X-6.015 Y9.530 F480.000
G1 X-6.435 Y9.255 F480.000
G1 X-6.840 Y8.965 F480.000
G1 X-7.220 Y8.640 F480.000
G1 X-7.590 Y8.305 F480.000
G1 X-7.950 Y7.960 F480.000
G1 X-8.285 Y7.590 F480.000
G1 X-8.610 Y7.210 F480.000
G1 X-8.915 Y6.815 F480.000
G1 X-9.475 Y5.990 F480.000
G1 X-9.730 Y5.560 F480.000
G1 X-9.965 Y5.120 F480.000
G1 X-10.185 Y4.670 F480.000
G1 X-10.385 Y4.210 F480.000
G1 X-10.570 Y3.745 F480.000
G1 X-10.735 Y3.270 F480.000
G1 X-10.880 Y2.790 F480.000
G1 X-11.005 Y2.305 F480.000
G1 X-11.155 Y1.315 F480.000
G1 X-11.205 Y0.815 F480.000
G1 X-11.230 Y0.315 F480.000
G1 X-11.235 Y-0.180 F480.000
G1 X-11.220 Y-0.675 F480.000
G1 X-11.185 Y-1.170 F480.000
G1 X-11.130 Y-1.665 F480.000
G1 X-11.050 Y-2.155 F480.000
G1 X-10.950 Y-2.645 F480.000
G1 X-10.830 Y-3.130 F480.000
G1 X-10.690 Y-3.610 F480.000
G1 X-10.530 Y-4.080 F480.000
G1 X-10.350 Y-4.545 F480.000
G1 X-10.150 Y-5.000 F480.000
G1 X-9.930 Y-5.450 F480.000
G1 X-9.690 Y-5.890 F480.000
G1 X-9.430 Y-6.320 F480.000
G1 X-8.830 Y-7.120 F480.000
G1 X-8.500 Y-7.495 F480.000
G1 X-8.160 Y-7.860 F480.000
G1 X-7.800 Y-8.205 F480.000
G1 X-7.430 Y-8.540 F480.000
G1 X-6.650 Y-9.170 F480.000
G1 X-6.245 Y-9.460 F480.000
G1 X-5.825 Y-9.735 F480.000
G1 X-5.400 Y-9.995 F480.000
G1 X-4.965 Y-10.240 F480.000
G1 X-4.520 Y-10.470 F480.000
G1 X-4.065 Y-10.680 F480.000
G1 X-3.120 Y-11.020 F480.000
G1 X-2.640 Y-11.160 F480.000
G1 X-2.155 Y-11.285 F480.000
G1 X-1.665 Y-11.390 F480.000
G1 X-1.170 Y-11.475 F480.000
G1 X-0.670 Y-11.540 F480.000
G1 X-0.170 Y-11.580 F480.000
G1 X0.325 Y-11.600 F480.000
G1 X0.820 Y-11.580 F480.000
G1 X1.315 Y-11.545 F480.000
G1 X1.810 Y-11.485 F480.000
G1 X2.300 Y-11.395 F480.000
G1 X3.270 Y-11.165 F480.000
G1 X3.745 Y-11.020 F480.000
G1 X4.215 Y-10.855 F480.000
G1 X4.680 Y-10.675 F480.000
G1 X5.135 Y-10.475 F480.000
G1 X5.575 Y-10.245 F480.000
G1 X6.010 Y-10.000 F480.000
G1 X6.435 Y-9.735 F480.000
G1 X7.255 Y-9.165 F480.000
G1 X8.035 Y-8.535 F480.000
G1 X8.405 Y-8.200 F480.000
G1 X9.085 Y-7.465 F480.000
G1 X9.400 Y-7.080 F480.000
G1 X9.695 Y-6.675 F480.000
G1 X9.975 Y-6.260 F480.000
G1 X10.490 Y-5.400 F480.000
G1 X10.720 Y-4.955 F480.000
G1 X11.130 Y-4.040 F480.000
G1 X11.305 Y-3.570 F480.000
G1 X11.575 Y-2.605 F480.000
G1 X11.680 Y-2.115 F480.000
G1 X11.755 Y-1.620 F480.000
G1 X11.855 Y-0.620 F480.000
G1 X11.870 Y-0.120 F480.000
G1 X11.865 Y0.375 F480.000
G1 X11.845 Y0.870 F480.000
G1 X11.800 Y1.365 F480.000
G1 X11.735 Y1.860 F480.000
G1 X11.650 Y2.350 F480.000
G1 X11.545 Y2.835 F480.000
G1 X11.420 Y3.315 F480.000
G1 X11.275 Y3.790 F480.000
G1 X11.110 Y4.260 F480.000
G1 X10.925 Y4.720 F480.000
G1 X10.705 Y5.165 F480.000
G1 X10.225 Y6.040 F480.000
G1 X9.965 Y6.465 F480.000
G1 X9.395 Y7.290 F480.000
G1 X8.745 Y8.050 F480.000
G1 X8.400 Y8.410 F480.000
G1 X8.035 Y8.750 F480.000
G1 X7.660 Y9.080 F480.000
G1 X7.270 Y9.390 F480.000
G1 X6.865 Y9.685 F480.000
G1 X6.020 Y10.230 F480.000
G1 X5.585 Y10.475 F480.000
G1 X5.140 Y10.705 F480.000
G1 X4.685 Y10.920 F480.000
G1 X4.225 Y11.115 F480.000
G1 X3.750 Y11.280 F480.000
G1 X2.780 Y11.545 F480.000
G1 X2.290 Y11.655 F480.000
G1 X1.795 Y11.735 F480.000
G1 X1.295 Y11.800 F480.000
G1 X0.295 Y11.880 F480.000
G1 X-0.200 Y11.890 F480.000
G1 X-0.695 Y11.885 F480.000
G1 X-1.190 Y11.865 F480.000
G1 X-1.685 Y11.825 F480.000
G1 X-2.665 Y11.645 F480.000
G1 X-3.150 Y11.525 F480.000
G1 X-3.625 Y11.375 F480.000
G1 X-4.095 Y11.210 F480.000
G1 X-4.560 Y11.030 F480.000
G1 X-5.465 Y10.610 F480.000
G1 X-5.905 Y10.375 F480.000
G1 X-6.335 Y10.125 F480.000
G1 X-6.750 Y9.850 F480.000
G1 X-7.160 Y9.560 F480.000
G1 X-7.555 Y9.255 F480.000
G1 X-7.935 Y8.930 F480.000
G1 X-8.295 Y8.585 F480.000
G1 X-8.640 Y8.225 F480.000
G1 X-8.970 Y7.845 F480.000
G1 X-9.580 Y7.050 F480.000
G1 X-9.865 Y6.640 F480.000
G1 X-10.385 Y5.785 F480.000
G1 X-10.625 Y5.345 F480.000
G1 X-10.845 Y4.895 F480.000
G1 X-11.050 Y4.440 F480.000
G1 X-11.380 Y3.495 F480.000
G1 X-11.515 Y3.010 F480.000
G1 X-11.635 Y2.525 F480.000
G1 X-11.730 Y2.030 F480.000
G1 X-11.805 Y1.535 F480.000
G1 X-11.865 Y1.035 F480.000
G1 X-11.900 Y0.535 F480.000
G1 X-11.915 Y0.035 F480.000
G1 X-11.910 Y-0.460 F480.000
G1 X-11.885 Y-0.955 F480.000
G1 X-11.840 Y-1.450 F480.000
G1 X-11.775 Y-1.945 F480.000
G1 X-11.690 Y-2.435 F480.000
G1 X-11.585 Y-2.920 F480.000
G1 X-11.460 Y-3.400 F480.000
G1 X-11.315 Y-3.875 F480.000
G1 X-11.150 Y-4.345 F480.000
G1 X-10.970 Y-4.810 F480.000
G1 X-10.770 Y-5.265 F480.000
G1 X-10.550 Y-5.715 F480.000
G1 X-10.315 Y-6.155 F480.000
G1 X-10.060 Y-6.585 F480.000
G1 X-9.775 Y-6.995 F480.000
G1 X-9.475 Y-7.395 F480.000
G1 X-9.155 Y-7.780 F480.000
G1 X-8.465 Y-8.505 F480.000
G1 X-7.725 Y-9.180 F480.000
G1 X-7.335 Y-9.495 F480.000
G1 X-6.530 Y-10.085 F480.000
G1 X-6.110 Y-10.360 F480.000
G1 X-5.680 Y-10.620 F480.000
G1 X-5.245 Y-10.865 F480.000
G1 X-4.800 Y-11.095 F480.000
G1 X-3.875 Y-11.485 F480.000
G1 X-3.405 Y-11.655 F480.000
G1 X-2.925 Y-11.800 F480.000
G1 X-2.440 Y-11.930 F480.000
G1 X-1.950 Y-12.040 F480.000
G1 X-1.455 Y-12.125 F480.000
G1 X-0.955 Y-12.190 F480.000
G1 X-0.455 Y-12.235 F480.000
G1 X0.040 Y-12.260 F480.000
G1 X0.535 Y-12.265 F480.000
G1 X1.030 Y-12.250 F480.000
G1 X1.525 Y-12.195 F480.000
G1 X2.020 Y-12.125 F480.000
G1 X2.510 Y-12.040 F480.000
G1 X2.995 Y-11.935 F480.000
G1 X3.475 Y-11.810 F480.000
G1 X3.950 Y-11.665 F480.000
G1 X4.420 Y-11.505 F480.000
G1 X4.885 Y-11.325 F480.000
G1 X5.345 Y-11.130 F480.000
G1 X5.795 Y-10.915 F480.000
G1 X6.650 Y-10.405 F480.000
G1 X7.070 Y-10.135 F480.000
G1 X7.480 Y-9.850 F480.000
G1 X7.880 Y-9.550 F480.000
G1 X8.270 Y-9.235 F480.000
G1 X8.995 Y-8.545 F480.000
G1 X9.340 Y-8.180 F480.000
G1 X9.665 Y-7.800 F480.000
G1 X10.275 Y-7.005 F480.000
G1 X10.555 Y-6.590 F480.000
G1 X10.820 Y-6.165 F480.000
G1 X11.070 Y-5.730 F480.000
G1 X11.300 Y-5.285 F480.000
G1 X11.515 Y-4.835 F480.000
G1 X11.715 Y-4.375 F480.000
G1 X11.895 Y-3.905 F480.000
G1 X12.060 Y-3.430 F480.000
G1 X12.300 Y-2.455 F480.000
G1 X12.390 Y-1.960 F480.000
G1 X12.460 Y-1.465 F480.000
G1 X12.505 Y-0.965 F480.000
G1 X12.545 Y0.030 F480.000
G1 X12.535 Y0.525 F480.000
G1 X12.505 Y1.020 F480.000
G1 X12.460 Y1.515 F480.000
G1 X12.395 Y2.010 F480.000
G1 X12.310 Y2.500 F480.000
G1 X12.210 Y2.990 F480.000
G1 X12.090 Y3.475 F480.000
G1 X11.950 Y3.955 F480.000
G1 X11.780 Y4.425 F480.000
G1 X11.595 Y4.890 F480.000
G1 X11.390 Y5.345 F480.000
G1 X11.160 Y5.790 F480.000
G1 X10.660 Y6.655 F480.000
G1 X10.380 Y7.070 F480.000
G1 X9.780 Y7.870 F480.000
G1 X9.455 Y8.250 F480.000
G1 X9.115 Y8.620 F480.000
G1 X8.765 Y8.975 F480.000
G1 X8.400 Y9.315 F480.000
G1 X8.020 Y9.645 F480.000
G1 X7.630 Y9.960 F480.000
G1 X7.230 Y10.260 F480.000
G1 X6.815 Y10.540 F480.000
G1 X6.390 Y10.805 F480.000
G1 X5.955 Y11.055 F480.000
G1 X5.510 Y11.290 F480.000
G1 X5.060 Y11.505 F480.000
G1 X4.120 Y11.860 F480.000
G1 X3.640 Y12.010 F480.000
G1 X3.155 Y12.145 F480.000
G1 X2.665 Y12.260 F480.000
G1 X2.170 Y12.355 F480.000
G1 X1.675 Y12.435 F480.000
G1 X1.175 Y12.495 F480.000
G1 X0.675 Y12.535 F480.000
G1 X-0.320 Y12.575 F480.000
G1 X-0.815 Y12.565 F480.000
G1 X-1.310 Y12.540 F480.000
G1 X-2.300 Y12.410 F480.000
G1 X-2.790 Y12.320 F480.000
G1 X-3.275 Y12.205 F480.000
G1 X-3.755 Y12.070 F480.000
G1 X-4.230 Y11.915 F480.000
G1 X-4.695 Y11.740 F480.000
G1 X-5.155 Y11.545 F480.000
G1 X-5.605 Y11.330 F480.000
G1 X-6.045 Y11.095 F480.000
G1 X-6.475 Y10.840 F480.000
G1 X-7.310 Y10.290 F480.000
G1 X-8.100 Y9.680 F480.000
G1 X-8.480 Y9.355 F480.000
G1 X-9.175 Y8.640 F480.000
G1 X-9.815 Y7.870 F480.000
G1 X-10.400 Y7.055 F480.000
G1 X-10.670 Y6.635 F480.000
G1 X-11.170 Y5.765 F480.000
G1 X-11.395 Y5.320 F480.000
G1 X-11.605 Y4.865 F480.000
G1 X-11.945 Y3.920 F480.000
G1 X-12.225 Y2.955 F480.000
G1 X-12.335 Y2.465 F480.000
G1 X-12.425 Y1.970 F480.000
G1 X-12.500 Y1.475 F480.000
G1 X-12.555 Y0.975 F480.000
G1 X-12.595 Y0.475 F480.000
G1 X-12.615 Y-0.020 F480.000
G1 X-12.615 Y-0.515 F480.000
G1 X-12.585 Y-1.010 F480.000
G1 X-12.540 Y-1.505 F480.000
G1 X-12.475 Y-2.000 F480.000
G1 X-12.385 Y-2.490 F480.000
G1 X-12.155 Y-3.460 F480.000
G1 X-11.860 Y-4.410 F480.000
G1 X-11.690 Y-4.880 F480.000
G1 X-11.500 Y-5.340 F480.000
G1 X-11.285 Y-5.790 F480.000
G1 X-11.055 Y-6.235 F480.000
G1 X-10.805 Y-6.670 F480.000
G1 X-10.535 Y-7.090 F480.000
G1 X-10.250 Y-7.500 F480.000
G1 X-9.950 Y-7.900 F480.000
G1 X-9.630 Y-8.285 F480.000
G1 X-9.295 Y-8.655 F480.000
G1 X-8.945 Y-9.010 F480.000
G1 X-8.580 Y-9.350 F480.000
G1 X-7.815 Y-9.995 F480.000
G1 X-7.010 Y-10.590 F480.000
G1 X-6.595 Y-10.870 F480.000
G1 X-5.740 Y-11.390 F480.000
G1 X-5.295 Y-11.620 F480.000
G1 X-4.845 Y-11.835 F480.000
G1 X-4.385 Y-12.035 F480.000
G1 X-3.915 Y-12.215 F480.000
G1 X-3.440 Y-12.380 F480.000
G1 X-2.960 Y-12.525 F480.000
G1 X-1.980 Y-12.735 F480.000
G1 X-0.990 Y-12.880 F480.000
G1 X-0.490 Y-12.920 F480.000
G1 X0.005 Y-12.945 F480.000
G1 X0.500 Y-12.955 F480.000
G1 X1.490 Y-12.885 F480.000
G1 X1.985 Y-12.825 F480.000
G1 X2.475 Y-12.745 F480.000
G1 X2.965 Y-12.645 F480.000
G1 X3.450 Y-12.525 F480.000
G1 X3.930 Y-12.390 F480.000
G1 X4.405 Y-12.235 F480.000
G1 X4.870 Y-12.060 F480.000
G1 X5.330 Y-11.870 F480.000
G1 X5.780 Y-11.660 F480.000
G1 X6.225 Y-11.435 F480.000
G1 X6.660 Y-11.190 F480.000
G1 X7.505 Y-10.660 F480.000
G1 X7.915 Y-10.375 F480.000
G1 X8.705 Y-9.765 F480.000
G1 X9.430 Y-9.075 F480.000
G1 X10.105 Y-8.335 F480.000
G1 X10.420 Y-7.950 F480.000
G1 X10.725 Y-7.550 F480.000
G1 X11.095 Y-7.000 F480.000
G1 X11.365 Y-6.575 F480.000
G1 X11.855 Y-5.700 F480.000
G1 X11.945 Y-5.475 F480.000
G1 X12.220 Y-4.870 F480.000
G1 X12.370 Y-4.405 F480.000
G1 X12.550 Y-3.935 F480.000
G1 X12.750 Y-3.300 F480.000
G1 X12.810 Y-2.980 F480.000
G1 X12.950 Y-2.415 F480.000
G1 X13.130 Y-0.960 F480.000
G1 X13.100 Y1.395 F480.000
G1 X12.840 Y3.045 F480.000
G1 X12.010 Y5.410 F480.000
G1 X11.015 Y7.185 F480.000
G1 X9.725 Y8.850 F480.000
G1 X8.590 Y9.970 F480.000
G1 X7.075 Y11.095 F480.000
G1 X5.360 Y12.020 F480.000
G1 X3.765 Y12.610 F480.000
G1 X2.175 Y12.995 F480.000
G1 X0.415 Y13.200 F480.000
G1 X-1.560 Y13.160 F480.000
G1 X-3.135 Y12.905 F480.000
G1 X-5.285 Y12.160 F480.000
G1 X-7.140 Y11.120 F480.000
G1 X-8.475 Y10.120 F480.000
G1 X-9.615 Y9.005 F480.000
G1 X-10.540 Y7.895 F480.000
G1 X-11.650 Y6.100 F480.000
G1 X-11.935 Y5.590 F480.000
G1 X-12.625 Y3.675 F480.000
G1 X-12.665 Y3.515 F480.000
G1 X-12.865 Y2.880 F480.000
G1 X-13.145 Y1.120 F480.000
G1 X-13.140 Y-1.575 F480.000
G1 X-12.670 Y-3.900 F480.000
G1 X-11.935 Y-5.825 F480.000
G1 X-11.280 Y-7.015 F480.000
G1 X-10.000 Y-8.730 F480.000
G1 X-7.965 Y-10.620 F480.000
G1 X-6.855 Y-11.400 F480.000
G1 X-4.730 Y-12.555 F480.000
G1 X-3.275 Y-13.075 F480.000
G1 X-1.675 Y-13.430 F480.000
G1 X-0.315 Y-13.570 F480.000
G1 X1.575 Y-13.530 F480.000
G1 X3.075 Y-13.285 F480.000
G1 X4.500 Y-12.875 F480.000
G1 X6.235 Y-12.130 F480.000
G1 X7.990 Y-11.065 F480.000
G1 X9.355 Y-9.955 F480.000
G1 X10.510 Y-8.750 F480.000
G1 X11.605 Y-7.260 F480.000
G1 X12.255 Y-6.145 F480.000
G1 X13.040 Y-4.270 F480.000
G1 X13.610 Y-1.870 F480.000
G1 X13.730 Y0.420 F480.000
G1 X13.580 Y2.145 F480.000
G1 X13.175 Y3.945 F480.000
G1 X12.645 Y5.370 F480.000
G1 X11.725 Y7.105 F480.000
G1 X10.980 Y8.210 F480.000
G1 X9.405 Y9.985 F480.000
G1 X8.265 Y10.955 F480.000
G1 X6.195 Y12.235 F480.000
G1 X4.325 Y13.040 F480.000
G1 X3.205 Y13.360 F480.000
G1 X1.205 Y13.725 F480.000
G1 X-0.070 Y13.790 F480.000
G1 X-1.645 Y13.695 F480.000
G1 X-3.970 Y13.210 F480.000
G1 X-5.320 Y12.725 F480.000
G1 X-7.400 Y11.615 F480.000
G1 X-9.325 Y10.075 F480.000
G1 X-10.420 Y8.910 F480.000
G1 X-11.645 Y7.235 F480.000
G1 X-12.590 Y5.435 F480.000
G1 X-13.250 Y3.600 F480.000
G1 X-13.585 Y2.080 F480.000
G1 X-13.750 Y0.400 F480.000
G1 X-13.710 Y-1.425 F480.000
G1 X-13.475 Y-2.925 F480.000
G1 X-13.110 Y-4.275 F480.000
G1 X-12.720 Y-5.320 F480.000
G1 X-11.950 Y-6.860 F480.000
G1 X-11.240 Y-7.985 F480.000
G1 X-10.185 Y-9.280 F480.000
G1 X-8.145 Y-11.125 F480.000
G1 X-7.140 Y-11.785 F480.000
G1 X-5.860 Y-12.485 F480.000
G1 X-4.660 Y-12.980 F480.000
G1 X-2.950 Y-13.475 F480.000
G1 X-1.830 Y-13.670 F480.000
G1 X-0.150 Y-13.785 F480.000
G1 X0.980 Y-13.760 F480.000
G1 X2.705 Y-13.510 F480.000
G1 X3.530 Y-13.330 F480.000
G1 X5.455 Y-12.655 F480.000
G1 X5.955 Y-12.440 F480.000
G1 X7.215 Y-11.755 F480.000
G1 X8.515 Y-10.855 F480.000
G1 X9.465 Y-10.020 F480.000
G1 X10.455 Y-8.990 F480.000
G1 X11.200 Y-8.045 F480.000
G1 X12.095 Y-6.620 F480.000
G1 X12.635 Y-5.535 F480.000
G1 X13.195 Y-4.025 F480.000
G1 X13.545 Y-2.590 F480.000
G1 X13.690 Y-1.710 F480.000
G1 X13.790 Y0.345 F480.000
G1 X13.705 Y1.545 F480.000
G1 X13.595 Y2.220 F480.000
G1 X13.595 Y2.220 F480.000
G1 X13.535 Y2.370 F480.000
G1 X13.455 Y2.460 F480.000
G0 X13.430 Y2.490
G0 X12.965 Y2.940
G0 X12.565 Y4.250
G0 X12.655 Y4.725
G1 X12.665 Y4.760 F480.000
G1 X12.695 Y4.880 F480.000
G1 X12.745 Y5.125 F480.000
G1 X12.725 Y5.295 F480.000
G1 X12.725 Y5.295 F480.000
G1 X12.135 Y6.560 F480.000
G1 X11.350 Y7.830 F480.000
G1 X10.380 Y9.085 F480.000
G1 X9.330 Y10.150 F480.000
G1 X8.370 Y10.960 F480.000
G1 X7.250 Y11.725 F480.000
G1 X5.985 Y12.425 F480.000
G1 X4.710 Y12.965 F480.000
G1 X3.685 Y13.290 F480.000
G1 X3.365 Y13.360 F480.000
G1 X3.365 Y13.360 F480.000
G1 X3.195 Y13.355 F480.000
G1 X3.070 Y13.320 F480.000
G0 X3.030 Y13.310
G0 X-8.300 Y10.675
G1 X-8.370 Y10.660 F480.000
G1 X-8.595 Y10.615 F480.000
G1 X-8.800 Y10.570 F480.000
G1 X-8.915 Y10.515 F480.000
G1 X-8.915 Y10.515 F480.000
G1 X-10.020 Y9.455 F480.000
G1 X-10.770 Y8.610 F480.000
G1 X-11.570 Y7.505 F480.000
G1 X-12.400 Y6.025 F480.000
G1 X-12.800 Y5.135 F480.000
G1 X-13.310 Y3.630 F480.000
G1 X-13.595 Y2.350 F480.000
G1 X-13.745 Y1.150 F480.000
G1 X-13.760 Y0.830 F480.000
G0 Z5.000
(Helix to depth: -0.800000)
G0 Z5.000
G0 X0.153 Y1.482 Z5.000
G0 X0.153 Y1.482 Z3.000
G1 X0.153 Y1.482 Z-0.400 F240.000
G1 X0.153 Y1.482 Z-0.400 F240.000
G1 X-0.139 Y1.483 Z-0.426 F240.000
G1 X-0.426 Y1.428 Z-0.452 F240.000
G1 X-0.696 Y1.317 Z-0.477 F240.000
G1 X-0.940 Y1.156 Z-0.503 F240.000
G1 X-1.147 Y0.951 Z-0.529 F240.000
G1 X-1.311 Y0.708 Z-0.555 F240.000
G1 X-1.424 Y0.439 Z-0.580 F240.000
G1 X-1.482 Y0.153 Z-0.606 F240.000
G1 X-1.483 Y-0.139 Z-0.632 F240.000
G1 X-1.428 Y-0.426 Z-0.658 F240.000
G1 X-1.317 Y-0.696 Z-0.683 F240.000
G1 X-1.156 Y-0.940 Z-0.709 F240.000
G1 X-0.951 Y-1.147 Z-0.735 F240.000
G1 X-0.708 Y-1.311 Z-0.761 F240.000
G1 X-0.439 Y-1.424 Z-0.787 F240.000
G1 X-0.153 Y-1.482 Z-0.800 F480.000
G1 X0.139 Y-1.483 Z-0.800 F480.000
G1 X0.426 Y-1.428 Z-0.800 F480.000
G1 X0.696 Y-1.317 Z-0.800 F480.000
G1 X0.940 Y-1.156 Z-0.800 F480.000
G1 X1.147 Y-0.951 Z-0.800 F480.000
G1 X1.311 Y-0.708 Z-0.800 F480.000
G1 X1.424 Y-0.439 Z-0.800 F480.000
G1 X1.482 Y-0.153 Z-0.800 F480.000
G1 X1.483 Y0.139 Z-0.800 F480.000
G1 X1.428 Y0.426 Z-0.800 F480.000
G1 X1.317 Y0.696 Z-0.800 F480.000
G1 X1.156 Y0.940 Z-0.800 F480.000
G1 X0.951 Y1.147 Z-0.800 F480.000
G1 X0.708 Y1.311 Z-0.800 F480.000
G1 X0.439 Y1.424 Z-0.800 F480.000
G1 X0.153 Y1.482 Z-0.800 F480.000
G1 X-0.139 Y1.483 Z-0.800 F480.000
G1 X-0.426 Y1.428 Z-0.800 F480.000
G1 X-0.696 Y1.317 Z-0.800 F480.000
G1 X-0.940 Y1.156 Z-0.800 F480.000
G1 X-1.147 Y0.951 Z-0.800 F480.000
G1 X-1.311 Y0.708 Z-0.800 F480.000
G1 X-1.424 Y0.439 Z-0.800 F480.000
G1 X-1.482 Y0.153 Z-0.800 F480.000
G1 X-1.483 Y-0.139 Z-0.800 F480.000
G1 X-1.428 Y-0.426 Z-0.800 F480.000
G1 X-1.317 Y-0.696 Z-0.800 F480.000
G1 X-1.156 Y-0.940 Z-0.800 F480.000
G1 X-0.951 Y-1.147 Z-0.800 F480.000
G1 X-0.708 Y-1.311 Z-0.800 F480.000
G1 X-0.439 Y-1.424 Z-0.800 F480.000
(Adaptive - depth: -0.800000)
G1 X0.000 Y-1.500 F480.000
G1 X0.055 Y-1.555 F480.000
G1 X0.200 Y-1.610 F480.000
G1 X0.350 Y-1.635 F480.000
G1 X0.575 Y-1.620 F480.000
G1 X0.650 Y-1.605 F480.000
G1 X1.115 Y-1.425 F480.000
G1 X1.350 Y-1.240 F480.000
G1 X1.470 Y-1.105 F480.000
G1 X1.575 Y-0.955 F480.000
G1 X1.695 Y-0.740 F480.000
G1 X1.810 Y-0.430 F480.000
G1 X1.860 Y-0.140 F480.000
G1 X1.865 Y0.095 F480.000
G1 X1.835 Y0.335 F480.000
G1 X1.775 Y0.580 F480.000
G1 X1.660 Y0.865 F480.000
G1 X1.500 Y1.125 F480.000
G1 X1.325 Y1.320 F480.000
G1 X1.145 Y1.475 F480.000
G1 X0.925 Y1.625 F480.000
G1 X0.640 Y1.760 F480.000
G1 X0.365 Y1.840 F480.000
G1 X0.105 Y1.875 F480.000
G1 X-0.140 Y1.870 F480.000
G1 X-0.400 Y1.830 F480.000
G1 X-0.665 Y1.755 F480.000
G1 X-0.950 Y1.625 F480.000
G1 X-1.185 Y1.460 F480.000
G1 X-1.365 Y1.295 F480.000
G1 X-1.525 Y1.095 F480.000
G1 X-1.660 Y0.875 F480.000
G1 X-1.775 Y0.595 F480.000
G1 X-1.840 Y0.330 F480.000
G1 X-1.870 Y0.055 F480.000
G1 X-1.860 Y-0.220 F480.000
G1 X-1.810 Y-0.490 F480.000
G1 X-1.725 Y-0.755 F480.000
G1 X-1.595 Y-1.000 F480.000
G1 X-1.450 Y-1.200 F480.000
G1 X-1.260 Y-1.390 F480.000
G1 X-1.055 Y-1.555 F480.000
G1 X-0.800 Y-1.720 F480.000
G1 X-0.490 Y-1.880 F480.000
G1 X-0.090 Y-1.975 F480.000
G1 X0.440 Y-2.015 F480.000
G1 X0.930 Y-1.935 F480.000
G1 X1.305 Y-1.765 F480.000
G1 X1.475 Y-1.640 F480.000
G1 X1.610 Y-1.515 F480.000
G1 X1.770 Y-1.345 F480.000
G1 X1.985 Y-1.045 F480.000
G1 X2.135 Y-0.720 F480.000
G1 X2.210 Y-0.465 F480.000
G1 X2.255 Y-0.210 F480.000
G1 X2.270 Y0.070 F480.000
G1 X2.245 Y0.390 F480.000
G1 X2.180 Y0.705 F480.000
G1 X2.065 Y0.990 F480.000
G1 X1.940 Y1.225 F480.000
G1 X1.765 Y1.465 F480.000
G1 X1.565 Y1.675 F480.000
G1 X1.325 Y1.870 F480.000
G1 X1.070 Y2.025 F480.000
G1 X0.795 Y2.150 F480.000
G1 X0.500 Y2.235 F480.000
G1 X0.200 Y2.280 F480.000
G1 X-0.095 Y2.290 F480.000
G1 X-0.390 Y2.260 F480.000
G1 X-0.680 Y2.190 F480.000
G1 X-0.960 Y2.090 F480.000
G1 X-1.255 Y1.935 F480.000
G1 X-1.505 Y1.745 F480.000
G1 X-1.695 Y1.565 F480.000
G1 X-1.880 Y1.330 F480.000
G1 X-2.025 Y1.075 F480.000
G1 X-2.140 Y0.815 F480.000
G1 X-2.230 Y0.500 F480.000
G1 X-2.275 Y0.200 F480.000
G1 X-2.285 Y-0.100 F480.000
G1 X-2.250 Y-0.405 F480.000
G1 X-2.185 Y-0.700 F480.000
G1 X-2.070 Y-1.010 F480.000
G1 X-1.915 Y-1.280 F480.000
G1 X-1.755 Y-1.500 F480.000
G1 X-1.540 Y-1.720 F480.000
G1 X-1.315 Y-1.915 F480.000
G1 X-1.000 Y-2.120 F480.000
G1 X-0.710 Y-2.260 F480.000
G1 X-0.405 Y-2.370 F480.000
G1 X-0.070 Y-2.445 F480.000
G1 X0.255 Y-2.480 F480.000
G1 X0.580 Y-2.460 F480.000
G1 X0.855 Y-2.415 F480.000
G1 X1.150 Y-2.325 F480.000
G1 X1.425 Y-2.195 F480.000
G1 X1.675 Y-2.035 F480.000
G1 X1.905 Y-1.840 F480.000
G1 X2.110 Y-1.625 F480.000
G1 X2.310 Y-1.350 F480.000
G1 X2.460 Y-1.075 F480.000
G1 X2.580 Y-0.775 F480.000
G1 X2.665 Y-0.460 F480.000
G1 X2.710 Y-0.140 F480.000
G1 X2.715 Y0.175 F480.000
G1 X2.680 Y0.490 F480.000
G1 X2.610 Y0.800 F480.000
G1 X2.490 Y1.130 F480.000
G1 X2.340 Y1.425 F480.000
G1 X2.160 Y1.700 F480.000
G1 X1.945 Y1.955 F480.000
G1 X1.695 Y2.175 F480.000
G1 X1.455 Y2.345 F480.000
G1 X1.170 Y2.495 F480.000
G1 X0.875 Y2.610 F480.000
G1 X0.550 Y2.690 F480.000
G1 X0.225 Y2.735 F480.000
G1 X-0.130 Y2.750 F480.000
G1 X-0.495 Y2.720 F480.000
G1 X-0.835 Y2.640 F480.000
G1 X-1.110 Y2.545 F480.000
G1 X-1.410 Y2.395 F480.000
G1 X-1.680 Y2.215 F480.000
G1 X-1.925 Y2.005 F480.000
G1 X-2.145 Y1.765 F480.000
G1 X-2.330 Y1.500 F480.000
G1 X-2.485 Y1.215 F480.000
G1 X-2.605 Y0.910 F480.000
G1 X-2.685 Y0.595 F480.000
G1 X-2.735 Y0.270 F480.000
G1 X-2.745 Y-0.090 F480.000
G1 X-2.715 Y-0.420 F480.000
G1 X-2.645 Y-0.750 F480.000
G1 X-2.535 Y-1.075 F480.000
G1 X-2.390 Y-1.380 F480.000
G1 X-2.210 Y-1.670 F480.000
G1 X-1.995 Y-1.940 F480.000
G1 X-1.755 Y-2.180 F480.000
G1 X-1.485 Y-2.395 F480.000
G1 X-1.190 Y-2.575 F480.000
G1 X-0.880 Y-2.720 F480.000
G1 X-0.550 Y-2.830 F480.000
G1 X-0.210 Y-2.910 F480.000
G1 X0.170 Y-2.950 F480.000
G1 X0.520 Y-2.950 F480.000
G1 X0.875 Y-2.895 F480.000
G1 X1.165 Y-2.820 F480.000
G1 X1.475 Y-2.695 F480.000
G1 X1.765 Y-2.540 F480.000
G1 X2.050 Y-2.340 F480.000
G1 X2.305 Y-2.115 F480.000
G1 X2.530 Y-1.860 F480.000
G1 X2.725 Y-1.580 F480.000
G1 X2.895 Y-1.285 F480.000
G1 X3.040 Y-0.940 F480.000
G1 X3.140 Y-0.600 F480.000
G1 X3.185 Y-0.245 F480.000
G1 X3.200 Y0.040 F480.000
G1 X3.185 Y0.395 F480.000
G1 X3.125 Y0.780 F480.000
G1 X3.010 Y1.150 F480.000
G1 X2.885 Y1.450 F480.000
G1 X2.710 Y1.770 F480.000
G1 X2.500 Y2.060 F480.000
G1 X2.265 Y2.320 F480.000
G1 X2.000 Y2.555 F480.000
G1 X1.710 Y2.760 F480.000
G1 X1.400 Y2.930 F480.000
G1 X1.070 Y3.065 F480.000
G1 X0.725 Y3.165 F480.000
G1 X0.375 Y3.225 F480.000
G1 X0.020 Y3.245 F480.000
G1 X-0.330 Y3.235 F480.000
G1 X-0.730 Y3.175 F480.000
G1 X-1.085 Y3.080 F480.000
G1 X-1.430 Y2.935 F480.000
G1 X-1.710 Y2.785 F480.000
G1 X-2.000 Y2.580 F480.000
G1 X-2.265 Y2.350 F480.000
G1 X-2.515 Y2.080 F480.000
G1 X-2.725 Y1.795 F480.000
G1 X-2.905 Y1.485 F480.000
G1 X-3.050 Y1.155 F480.000
G1 X-3.160 Y0.810 F480.000
G1 X-3.230 Y0.455 F480.000
G1 X-3.260 Y0.095 F480.000
G1 X-3.250 Y-0.260 F480.000
G1 X-3.200 Y-0.615 F480.000
G1 X-3.110 Y-0.960 F480.000
G1 X-2.985 Y-1.295 F480.000
G1 X-2.830 Y-1.620 F480.000
G1 X-2.615 Y-1.960 F480.000
G1 X-2.385 Y-2.255 F480.000
G1 X-2.120 Y-2.530 F480.000
G1 X-1.825 Y-2.780 F480.000
G1 X-1.500 Y-2.980 F480.000
G1 X-1.215 Y-3.120 F480.000
G1 X-0.885 Y-3.255 F480.000
G1 X-0.470 Y-3.380 F480.000
G1 X-0.035 Y-3.445 F480.000
G1 X0.300 Y-3.460 F480.000
G1 X0.630 Y-3.440 F480.000
G1 X0.995 Y-3.385 F480.000
G1 X1.405 Y-3.275 F480.000
G1 X1.750 Y-3.130 F480.000
G1 X2.040 Y-2.975 F480.000
G1 X2.345 Y-2.765 F480.000
G1 X2.610 Y-2.530 F480.000
G1 X2.850 Y-2.275 F480.000
G1 X3.085 Y-1.960 F480.000
G1 X3.280 Y-1.650 F480.000
G1 X3.470 Y-1.270 F480.000
G1 X3.590 Y-0.890 F480.000
G1 X3.665 Y-0.570 F480.000
G1 X3.710 Y-0.195 F480.000
G1 X3.720 Y0.165 F480.000
G1 X3.685 Y0.565 F480.000
G1 X3.615 Y0.935 F480.000
G1 X3.505 Y1.295 F480.000
G1 X3.355 Y1.655 F480.000
G1 X3.170 Y1.990 F480.000
G1 X2.950 Y2.305 F480.000
G1 X2.700 Y2.595 F480.000
G1 X2.420 Y2.860 F480.000
G1 X2.115 Y3.095 F480.000
G1 X1.785 Y3.300 F480.000
G1 X1.435 Y3.470 F480.000
G1 X1.070 Y3.600 F480.000
G1 X0.695 Y3.695 F480.000
G1 X0.310 Y3.750 F480.000
G1 X-0.070 Y3.765 F480.000
G1 X-0.450 Y3.740 F480.000
G1 X-0.825 Y3.675 F480.000
G1 X-1.195 Y3.580 F480.000
G1 X-1.605 Y3.425 F480.000
G1 X-1.955 Y3.235 F480.000
G1 X-2.230 Y3.055 F480.000
G1 X-2.525 Y2.810 F480.000
G1 X-2.790 Y2.550 F480.000
G1 X-3.055 Y2.225 F480.000
G1 X-3.270 Y1.900 F480.000
G1 X-3.455 Y1.550 F480.000
G1 X-3.605 Y1.180 F480.000
G1 X-3.705 Y0.795 F480.000
G1 X-3.765 Y0.455 F480.000
G1 X-3.785 Y0.075 F480.000
G1 X-3.770 Y-0.290 F480.000
G1 X-3.710 Y-0.690 F480.000
G1 X-3.625 Y-1.065 F480.000
G1 X-3.485 Y-1.480 F480.000
G1 X-3.315 Y-1.850 F480.000
G1 X-3.100 Y-2.200 F480.000
G1 X-2.890 Y-2.480 F480.000
G1 X-2.635 Y-2.770 F480.000
G1 X-2.305 Y-3.060 F480.000
G1 X-1.990 Y-3.290 F480.000
G1 X-1.645 Y-3.500 F480.000
G1 X-1.275 Y-3.675 F480.000
G1 X-0.895 Y-3.810 F480.000
G1 X-0.500 Y-3.910 F480.000
G1 X-0.095 Y-3.970 F480.000
G1 X0.305 Y-3.990 F480.000
G1 X0.705 Y-3.970 F480.000
G1 X1.105 Y-3.910 F480.000
G1 X1.495 Y-3.810 F480.000
G1 X1.870 Y-3.660 F480.000
G1 X2.165 Y-3.510 F480.000
G1 X2.490 Y-3.310 F480.000
G1 X2.835 Y-3.045 F480.000
G1 X3.145 Y-2.755 F480.000
G1 X3.410 Y-2.440 F480.000
G1 X3.625 Y-2.135 F480.000
G1 X3.820 Y-1.785 F480.000
G1 X3.975 Y-1.420 F480.000
G1 X4.095 Y-1.045 F480.000
G1 X4.185 Y-0.660 F480.000
G1 X4.240 Y-0.205 F480.000
G1 X4.255 Y0.200 F480.000
G1 X4.230 Y0.615 F480.000
G1 X4.145 Y1.030 F480.000
G1 X4.050 Y1.355 F480.000
G1 X3.915 Y1.720 F480.000
G1 X3.710 Y2.140 F480.000
G1 X3.480 Y2.520 F480.000
G1 X3.210 Y2.855 F480.000
G1 X2.970 Y3.105 F480.000
G1 X2.665 Y3.365 F480.000
G1 X2.350 Y3.595 F480.000
G1 X1.940 Y3.830 F480.000
G1 X1.560 Y4.005 F480.000
G1 X1.165 Y4.145 F480.000
G1 X0.740 Y4.250 F480.000
G1 X0.315 Y4.295 F480.000
G1 X-0.025 Y4.305 F480.000
G1 X-0.415 Y4.290 F480.000
G1 X-0.875 Y4.230 F480.000
G1 X-1.325 Y4.125 F480.000
G1 X-1.735 Y3.965 F480.000
G1 X-2.025 Y3.825 F480.000
G1 X-2.365 Y3.615 F480.000
G1 X-2.675 Y3.390 F480.000
G1 X-3.035 Y3.080 F480.000
G1 X-3.360 Y2.740 F480.000
G1 X-3.620 Y2.385 F480.000
G1 X-3.805 Y2.080 F480.000
G1 X-3.985 Y1.705 F480.000
G1 X-4.120 Y1.325 F480.000
G1 X-4.215 Y0.950 F480.000
G1 X-4.280 Y0.555 F480.000
G1 X-4.320 Y0.105 F480.000
G1 X-4.315 Y-0.360 F480.000
G1 X-4.250 Y-0.795 F480.000
G1 X-4.175 Y-1.135 F480.000
G1 X-4.055 Y-1.530 F480.000
G1 X-3.860 Y-1.970 F480.000
G1 X-3.665 Y-2.330 F480.000
G1 X-3.430 Y-2.690 F480.000
G1 X-3.155 Y-3.025 F480.000
G1 X-2.860 Y-3.330 F480.000
G1 X-2.525 Y-3.600 F480.000
G1 X-2.205 Y-3.815 F480.000
G1 X-1.845 Y-4.020 F480.000
G1 X-1.430 Y-4.215 F480.000
G1 X-0.970 Y-4.380 F480.000
G1 X-0.530 Y-4.475 F480.000
G1 X-0.175 Y-4.525 F480.000
G1 X0.240 Y-4.550 F480.000
G1 X0.685 Y-4.535 F480.000
G1 X1.145 Y-4.465 F480.000
G1 X1.515 Y-4.380 F480.000
G1 X1.920 Y-4.240 F480.000
G1 X2.305 Y-4.060 F480.000
G1 X2.660 Y-3.855 F480.000
G1 X3.005 Y-3.620 F480.000
G1 X3.360 Y-3.320 F480.000
G1 X3.655 Y-3.005 F480.000
G1 X3.885 Y-2.715 F480.000
G1 X4.120 Y-2.365 F480.000
G1 X4.345 Y-1.940 F480.000
G1 X4.510 Y-1.550 F480.000
G1 X4.645 Y-1.135 F480.000
G1 X4.740 Y-0.700 F480.000
G1 X4.795 Y-0.270 F480.000
G1 X4.815 Y0.160 F480.000
G1 X4.790 Y0.590 F480.000
G1 X4.730 Y1.020 F480.000
G1 X4.630 Y1.440 F480.000
G1 X4.490 Y1.850 F480.000
G1 X4.315 Y2.245 F480.000
G1 X4.105 Y2.625 F480.000
G1 X3.845 Y2.975 F480.000
G1 X3.610 Y3.245 F480.000
G1 X3.320 Y3.535 F480.000
G1 X2.940 Y3.860 F480.000
G1 X2.530 Y4.150 F480.000
G1 X2.115 Y4.380 F480.000
G1 X1.755 Y4.545 F480.000
G1 X1.320 Y4.700 F480.000
G1 X0.890 Y4.805 F480.000
G1 X0.460 Y4.855 F480.000
G1 X0.100 Y4.870 F480.000
G1 X-0.300 Y4.865 F480.000
G1 X-0.795 Y4.820 F480.000
G1 X-1.285 Y4.730 F480.000
G1 X-1.760 Y4.575 F480.000
G1 X-2.090 Y4.435 F480.000
G1 X-2.420 Y4.255 F480.000
G1 X-2.760 Y4.035 F480.000
G1 X-3.155 Y3.745 F480.000
G1 X-3.525 Y3.410 F480.000
G1 X-3.830 Y3.050 F480.000
G1 X-4.045 Y2.760 F480.000
G1 X-4.275 Y2.375 F480.000
G1 X-4.460 Y2.000 F480.000
G1 X-4.630 Y1.555 F480.000
G1 X-4.750 Y1.125 F480.000
G1 X-4.835 Y0.685 F480.000
G1 X-4.880 Y0.230 F480.000
G1 X-4.885 Y-0.215 F480.000
G1 X-4.855 Y-0.660 F480.000
G1 X-4.785 Y-1.100 F480.000
G1 X-4.660 Y-1.530 F480.000
G1 X-4.525 Y-1.885 F480.000
G1 X-4.350 Y-2.270 F480.000
G1 X-4.105 Y-2.705 F480.000
G1 X-3.825 Y-3.120 F480.000
G1 X-3.510 Y-3.480 F480.000
G1 X-3.245 Y-3.745 F480.000
G1 X-2.900 Y-4.025 F480.000
G1 X-2.550 Y-4.275 F480.000
G1 X-2.115 Y-4.525 F480.000
G1 X-1.695 Y-4.725 F480.000
G1 X-1.255 Y-4.890 F480.000
G1 X-0.785 Y-5.020 F480.000
G1 X-0.320 Y-5.090 F480.000
G1 X0.050 Y-5.120 F480.000
G1 X0.480 Y-5.125 F480.000
G1 X0.970 Y-5.085 F480.000
G1 X1.460 Y-4.990 F480.000
G1 X1.845 Y-4.885 F480.000
G1 X2.280 Y-4.725 F480.000
G1 X2.690 Y-4.525 F480.000
G1 X3.060 Y-4.290 F480.000
G1 X3.365 Y-4.060 F480.000
G1 X3.685 Y-3.785 F480.000
G1 X4.035 Y-3.430 F480.000
G1 X4.355 Y-3.045 F480.000
G1 X4.625 Y-2.640 F480.000
G1 X4.835 Y-2.275 F480.000
G1 X5.030 Y-1.845 F480.000
G1 X5.180 Y-1.415 F480.000
G1 X5.295 Y-0.980 F480.000
G1 X5.370 Y-0.525 F480.000
G1 X5.405 Y-0.070 F480.000
G1 X5.400 Y0.380 F480.000
G1 X5.355 Y0.830 F480.000
G1 X5.270 Y1.275 F480.000
G1 X5.155 Y1.715 F480.000
G1 X4.985 Y2.185 F480.000
G1 X4.775 Y2.605 F480.000
G1 X4.575 Y2.945 F480.000
G1 X4.315 Y3.315 F480.000
G1 X3.990 Y3.690 F480.000
G1 X3.675 Y4.005 F480.000
G1 X3.315 Y4.305 F480.000
G1 X2.940 Y4.580 F480.000
G1 X2.510 Y4.835 F480.000
G1 X2.075 Y5.050 F480.000
G1 X1.610 Y5.210 F480.000
G1 X1.250 Y5.305 F480.000
G1 X0.815 Y5.390 F480.000
G1 X0.315 Y5.445 F480.000
G1 X-0.180 Y5.460 F480.000
G1 X-0.675 Y5.440 F480.000
G1 X-1.165 Y5.360 F480.000
G1 X-1.560 Y5.250 F480.000
G1 X-1.915 Y5.135 F480.000
G1 X-2.375 Y4.940 F480.000
G1 X-2.810 Y4.700 F480.000
G1 X-3.195 Y4.455 F480.000
G1 X-3.585 Y4.155 F480.000
G1 X-3.940 Y3.825 F480.000
G1 X-4.250 Y3.465 F480.000
G1 X-4.470 Y3.160 F480.000
G1 X-4.710 Y2.790 F480.000
G1 X-4.945 Y2.345 F480.000
G1 X-5.140 Y1.885 F480.000
G1 X-5.280 Y1.415 F480.000
G1 X-5.370 Y1.015 F480.000
G1 X-5.445 Y0.550 F480.000
G1 X-5.470 Y0.050 F480.000
G1 X-5.460 Y-0.410 F480.000
G1 X-5.410 Y-0.890 F480.000
G1 X-5.320 Y-1.370 F480.000
G1 X-5.175 Y-1.825 F480.000
G1 X-5.030 Y-2.195 F480.000
G1 X-4.840 Y-2.605 F480.000
G1 X-4.590 Y-3.040 F480.000
G1 X-4.310 Y-3.455 F480.000
G1 X-3.980 Y-3.830 F480.000
G1 X-3.705 Y-4.100 F480.000
G1 X-3.360 Y-4.410 F480.000
G1 X-2.960 Y-4.710 F480.000
G1 X-2.535 Y-4.980 F480.000
G1 X-2.085 Y-5.200 F480.000
G1 X-1.695 Y-5.360 F480.000
G1 X-1.230 Y-5.505 F480.000
G1 X-0.770 Y-5.615 F480.000
G1 X-0.275 Y-5.690 F480.000
G1 X0.220 Y-5.730 F480.000
G1 X0.715 Y-5.715 F480.000
G1 X1.130 Y-5.670 F480.000
G1 X1.595 Y-5.580 F480.000
G1 X2.040 Y-5.450 F480.000
G1 X2.465 Y-5.290 F480.000
G1 X2.880 Y-5.085 F480.000
G1 X3.275 Y-4.850 F480.000
G1 X3.655 Y-4.590 F480.000
G1 X4.040 Y-4.270 F480.000
G1 X4.385 Y-3.930 F480.000
G1 X4.710 Y-3.560 F480.000
G1 X5.005 Y-3.155 F480.000
G1 X5.265 Y-2.740 F480.000
G1 X5.490 Y-2.300 F480.000
G1 X5.680 Y-1.840 F480.000
G1 X5.815 Y-1.360 F480.000
G1 X5.895 Y-0.970 F480.000
G1 X5.965 Y-0.520 F480.000
G1 X5.995 Y-0.020 F480.000
G1 X5.990 Y0.475 F480.000
G1 X5.950 Y0.970 F480.000
G1 X5.850 Y1.460 F480.000
G1 X5.740 Y1.865 F480.000
G1 X5.575 Y2.320 F480.000
G1 X5.380 Y2.750 F480.000
G1 X5.135 Y3.185 F480.000
G1 X4.860 Y3.595 F480.000
G1 X4.555 Y3.985 F480.000
G1 X4.215 Y4.350 F480.000
G1 X3.835 Y4.675 F480.000
G1 X3.505 Y4.925 F480.000
G1 X3.115 Y5.185 F480.000
G1 X2.670 Y5.420 F480.000
G1 X2.230 Y5.615 F480.000
G1 X1.755 Y5.785 F480.000
G1 X1.270 Y5.910 F480.000
G1 X0.775 Y6.000 F480.000
G1 X0.275 Y6.050 F480.000
G1 X-0.220 Y6.060 F480.000
G1 X-0.715 Y6.030 F480.000
G1 X-1.210 Y5.965 F480.000
G1 X-1.695 Y5.845 F480.000
G1 X-2.095 Y5.715 F480.000
G1 X-2.530 Y5.530 F480.000
G1 X-2.945 Y5.325 F480.000
G1 X-3.370 Y5.065 F480.000
G1 X-3.775 Y4.770 F480.000
G1 X-4.160 Y4.450 F480.000
G1 X-4.505 Y4.085 F480.000
G1 X-4.775 Y3.760 F480.000
G1 X-5.060 Y3.365 F480.000
G1 X-5.320 Y2.935 F480.000
G1 X-5.545 Y2.490 F480.000
G1 X-5.725 Y2.020 F480.000
G1 X-5.850 Y1.605 F480.000
G1 X-5.955 Y1.125 F480.000
G1 X-6.030 Y0.655 F480.000
G1 X-6.065 Y0.155 F480.000
G1 X-6.060 Y-0.340 F480.000
G1 X-6.025 Y-0.835 F480.000
G1 X-5.950 Y-1.325 F480.000
G1 X-5.815 Y-1.805 F480.000
G1 X-5.680 Y-2.190 F480.000
G1 X-5.495 Y-2.640 F480.000
G1 X-5.270 Y-3.085 F480.000
G1 X-5.010 Y-3.510 F480.000
G1 X-4.705 Y-3.905 F480.000
G1 X-4.425 Y-4.225 F480.000
G1 X-4.075 Y-4.585 F480.000
G1 X-3.700 Y-4.915 F480.000
G1 X-3.305 Y-5.220 F480.000
G1 X-2.875 Y-5.475 F480.000
G1 X-2.510 Y-5.665 F480.000
G1 X-2.050 Y-5.865 F480.000
G1 X-1.580 Y-6.035 F480.000
G1 X-1.095 Y-6.170 F480.000
G1 X-0.605 Y-6.270 F480.000
G1 X-0.105 Y-6.320 F480.000
G1 X0.355 Y-6.340 F480.000
G1 X0.850 Y-6.320 F480.000
G1 X1.345 Y-6.260 F480.000
G1 X1.830 Y-6.145 F480.000
G1 X2.220 Y-6.025 F480.000
G1 X2.660 Y-5.855 F480.000
G1 X3.110 Y-5.645 F480.000
G1 X3.545 Y-5.400 F480.000
G1 X3.960 Y-5.125 F480.000
G1 X4.355 Y-4.820 F480.000
G1 X4.725 Y-4.485 F480.000
G1 X5.055 Y-4.110 F480.000
G1 X5.315 Y-3.780 F480.000
G1 X5.600 Y-3.370 F480.000
G1 X5.855 Y-2.940 F480.000
G1 X6.075 Y-2.490 F480.000
G1 X6.255 Y-2.020 F480.000
G1 X6.405 Y-1.555 F480.000
G1 X6.520 Y-1.065 F480.000
G1 X6.595 Y-0.570 F480.000
G1 X6.635 Y-0.070 F480.000
G1 X6.635 Y0.425 F480.000
G1 X6.580 Y0.920 F480.000
G1 X6.505 Y1.335 F480.000
G1 X6.395 Y1.810 F480.000
G1 X6.245 Y2.285 F480.000
G1 X6.060 Y2.750 F480.000
G1 X5.845 Y3.200 F480.000
G1 X5.585 Y3.625 F480.000
G1 X5.320 Y4.000 F480.000
G1 X5.000 Y4.385 F480.000
G1 X4.660 Y4.750 F480.000
G1 X4.290 Y5.090 F480.000
G1 X3.900 Y5.400 F480.000
G1 X3.490 Y5.685 F480.000
G1 X3.050 Y5.920 F480.000
G1 X2.660 Y6.100 F480.000
G1 X2.195 Y6.285 F480.000
G1 X1.715 Y6.435 F480.000
G1 X1.225 Y6.550 F480.000
G1 X0.730 Y6.635 F480.000
G1 X0.230 Y6.685 F480.000
G1 X-0.265 Y6.680 F480.000
G1 X-0.695 Y6.655 F480.000
G1 X-1.190 Y6.585 F480.000
G1 X-1.680 Y6.485 F480.000
G1 X-2.160 Y6.345 F480.000
G1 X-2.625 Y6.170 F480.000
G1 X-3.080 Y5.965 F480.000
G1 X-3.510 Y5.710 F480.000
G1 X-3.880 Y5.460 F480.000
G1 X-4.270 Y5.150 F480.000
G1 X-4.640 Y4.815 F480.000
G1 X-4.985 Y4.450 F480.000
G1 X-5.300 Y4.065 F480.000
G1 X-5.590 Y3.660 F480.000
G1 X-5.850 Y3.230 F480.000
G1 X-6.080 Y2.785 F480.000
G1 X-6.275 Y2.325 F480.000
G1 X-6.420 Y1.845 F480.000
G1 X-6.520 Y1.420 F480.000
G1 X-6.610 Y0.925 F480.000
G1 X-6.665 Y0.425 F480.000
G1 X-6.685 Y-0.070 F480.000
G1 X-6.675 Y-0.565 F480.000
G1 X-6.610 Y-1.060 F480.000
G1 X-6.525 Y-1.525 F480.000
G1 X-6.395 Y-2.005 F480.000
G1 X-6.225 Y-2.475 F480.000
G1 X-6.035 Y-2.935 F480.000
G1 X-5.805 Y-3.380 F480.000
G1 X-5.545 Y-3.805 F480.000
G1 X-5.260 Y-4.215 F480.000
G1 X-4.945 Y-4.600 F480.000
G1 X-4.600 Y-4.965 F480.000
G1 X-4.235 Y-5.305 F480.000
G1 X-3.845 Y-5.615 F480.000
G1 X-3.420 Y-5.880 F480.000
G1 X-3.035 Y-6.095 F480.000
G1 X-2.585 Y-6.315 F480.000
G1 X-2.120 Y-6.505 F480.000
G1 X-1.645 Y-6.665 F480.000
G1 X-1.160 Y-6.795 F480.000
G1 X-0.670 Y-6.895 F480.000
G1 X-0.170 Y-6.950 F480.000
G1 X0.325 Y-6.980 F480.000
G1 X0.820 Y-6.955 F480.000
G1 X1.265 Y-6.900 F480.000
G1 X1.755 Y-6.805 F480.000
G1 X2.235 Y-6.665 F480.000
G1 X2.695 Y-6.505 F480.000
G1 X3.155 Y-6.315 F480.000
G1 X3.600 Y-6.085 F480.000
G1 X4.030 Y-5.830 F480.000
G1 X4.440 Y-5.550 F480.000
G1 X4.830 Y-5.240 F480.000
G1 X5.185 Y-4.890 F480.000
G1 X5.490 Y-4.555 F480.000
G1 X5.805 Y-4.170 F480.000
G1 X6.085 Y-3.755 F480.000
G1 X6.340 Y-3.325 F480.000
G1 X6.565 Y-2.875 F480.000
G1 X6.765 Y-2.415 F480.000
G1 X6.930 Y-1.940 F480.000
G1 X7.065 Y-1.455 F480.000
G1 X7.170 Y-0.965 F480.000
G1 X7.240 Y-0.470 F480.000
G1 X7.260 Y0.025 F480.000
G1 X7.255 Y0.505 F480.000
G1 X7.210 Y1.000 F480.000
G1 X7.125 Y1.490 F480.000
G1 X7.010 Y1.975 F480.000
G1 X6.855 Y2.450 F480.000
G1 X6.665 Y2.910 F480.000
G1 X6.450 Y3.360 F480.000
G1 X6.200 Y3.790 F480.000
G1 X5.920 Y4.205 F480.000
G1 X5.615 Y4.600 F480.000
G1 X5.290 Y4.980 F480.000
G1 X4.940 Y5.335 F480.000
G1 X4.565 Y5.670 F480.000
G1 X4.175 Y5.980 F480.000
G1 X3.750 Y6.245 F480.000
G1 X3.355 Y6.465 F480.000
G1 X2.900 Y6.675 F480.000
G1 X2.435 Y6.860 F480.000
G1 X1.955 Y7.010 F480.000
G1 X1.465 Y7.130 F480.000
G1 X0.970 Y7.220 F480.000
G1 X0.470 Y7.275 F480.000
G1 X-0.025 Y7.300 F480.000
G1 X-0.520 Y7.290 F480.000
G1 X-1.015 Y7.250 F480.000
G1 X-1.505 Y7.175 F480.000
G1 X-1.990 Y7.070 F480.000
G1 X-2.465 Y6.915 F480.000
G1 X-2.905 Y6.745 F480.000
G1 X-3.355 Y6.530 F480.000
G1 X-3.785 Y6.275 F480.000
G1 X-4.195 Y5.995 F480.000
G1 X-4.595 Y5.695 F480.000
G1 X-4.965 Y5.360 F480.000
G1 X-5.315 Y5.000 F480.000
G1 X-5.640 Y4.620 F480.000
G1 X-5.945 Y4.225 F480.000
G1 X-6.220 Y3.805 F480.000
G1 X-6.470 Y3.370 F480.000
G1 X-6.695 Y2.920 F480.000
G1 X-6.875 Y2.450 F480.000
G1 X-7.030 Y1.980 F480.000
G1 X-7.150 Y1.495 F480.000
G1 X-7.230 Y1.000 F480.000
G1 X-7.280 Y0.500 F480.000
G1 X-7.305 Y0.000 F480.000
G1 X-7.290 Y-0.495 F480.000
G1 X-7.245 Y-0.990 F480.000
G1 X-7.170 Y-1.480 F480.000
G1 X-7.060 Y-1.965 F480.000
G1 X-6.920 Y-2.445 F480.000
G1 X-6.750 Y-2.915 F480.000
G1 X-6.535 Y-3.365 F480.000
G1 X-6.300 Y-3.790 F480.000
G1 X-6.035 Y-4.215 F480.000
G1 X-5.740 Y-4.620 F480.000
G1 X-5.420 Y-5.005 F480.000
G1 X-5.080 Y-5.370 F480.000
G1 X-4.715 Y-5.715 F480.000
G1 X-4.330 Y-6.035 F480.000
G1 X-3.915 Y-6.315 F480.000
G1 X-3.500 Y-6.560 F480.000
G1 X-3.055 Y-6.790 F480.000
G1 X-2.600 Y-6.995 F480.000
G1 X-2.130 Y-7.170 F480.000
G1 X-1.650 Y-7.315 F480.000
G1 X-1.160 Y-7.430 F480.000
G1 X-0.665 Y-7.515 F480.000
G1 X-0.165 Y-7.570 F480.000
G1 X0.330 Y-7.595 F480.000
G1 X0.825 Y-7.575 F480.000
G1 X1.320 Y-7.530 F480.000
G1 X1.810 Y-7.445 F480.000
G1 X2.295 Y-7.325 F480.000
G1 X2.770 Y-7.175 F480.000
G1 X3.235 Y-6.990 F480.000
G1 X3.685 Y-6.770 F480.000
G1 X4.120 Y-6.520 F480.000
G1 X4.540 Y-6.255 F480.000
G1 X4.940 Y-5.955 F480.000
G1 X5.320 Y-5.630 F480.000
G1 X5.680 Y-5.285 F480.000
G1 X6.015 Y-4.915 F480.000
G1 X6.330 Y-4.525 F480.000
G1 X6.620 Y-4.115 F480.000
G1 X6.880 Y-3.690 F480.000
G1 X7.115 Y-3.245 F480.000
G1 X7.320 Y-2.790 F480.000
G1 X7.495 Y-2.320 F480.000
G1 X7.640 Y-1.840 F480.000
G1 X7.755 Y-1.350 F480.000
G1 X7.840 Y-0.855 F480.000
G1 X7.895 Y-0.355 F480.000
G1 X7.905 Y0.140 F480.000
G1 X7.890 Y0.635 F480.000
G1 X7.840 Y1.130 F480.000
G1 X7.755 Y1.620 F480.000
G1 X7.635 Y2.105 F480.000
G1 X7.485 Y2.580 F480.000
G1 X7.300 Y3.045 F480.000
G1 X7.085 Y3.495 F480.000
G1 X6.845 Y3.935 F480.000
G1 X6.585 Y4.360 F480.000
G1 X6.295 Y4.765 F480.000
G1 X5.985 Y5.155 F480.000
G1 X5.650 Y5.525 F480.000
G1 X5.295 Y5.875 F480.000
G1 X4.920 Y6.205 F480.000
G1 X4.525 Y6.510 F480.000
G1 X4.105 Y6.780 F480.000
G1 X3.670 Y7.030 F480.000
G1 X3.220 Y7.250 F480.000
G1 X2.755 Y7.435 F480.000
G1 X2.280 Y7.590 F480.000
G1 X1.795 Y7.715 F480.000
G1 X1.305 Y7.815 F480.000
G1 X0.805 Y7.880 F480.000
G1 X0.305 Y7.915 F480.000
G1 X-0.190 Y7.935 F480.000
G1 X-0.685 Y7.915 F480.000
G1 X-1.180 Y7.870 F480.000
G1 X-1.670 Y7.780 F480.000
G1 X-2.155 Y7.665 F480.000
G1 X-2.630 Y7.520 F480.000
G1 X-3.095 Y7.340 F480.000
G1 X-3.550 Y7.135 F480.000
G1 X-3.990 Y6.900 F480.000
G1 X-4.415 Y6.635 F480.000
G1 X-4.820 Y6.345 F480.000
G1 X-5.205 Y6.025 F480.000
G1 X-5.570 Y5.680 F480.000
G1 X-5.910 Y5.315 F480.000
G1 X-6.225 Y4.925 F480.000
G1 X-6.515 Y4.515 F480.000
G1 X-6.790 Y4.095 F480.000
G1 X-7.030 Y3.655 F480.000
G1 X-7.245 Y3.205 F480.000
G1 X-7.435 Y2.740 F480.000
G1 X-7.595 Y2.265 F480.000
G1 X-7.730 Y1.780 F480.000
G1 X-7.835 Y1.290 F480.000
G1 X-7.910 Y0.795 F480.000
G1 X-7.935 Y0.295 F480.000
G1 X-7.940 Y-0.200 F480.000
G1 X-7.920 Y-0.695 F480.000
G1 X-7.865 Y-1.190 F480.000
G1 X-7.785 Y-1.680 F480.000
G1 X-7.675 Y-2.165 F480.000
G1 X-7.540 Y-2.645 F480.000
G1 X-7.355 Y-3.110 F480.000
G1 X-7.150 Y-3.565 F480.000
G1 X-6.915 Y-4.005 F480.000
G1 X-6.660 Y-4.435 F480.000
G1 X-6.375 Y-4.845 F480.000
G1 X-6.065 Y-5.235 F480.000
G1 X-5.735 Y-5.610 F480.000
G1 X-5.380 Y-5.960 F480.000
G1 X-5.005 Y-6.290 F480.000
G1 X-4.610 Y-6.595 F480.000
G1 X-4.195 Y-6.875 F480.000
G1 X-3.765 Y-7.130 F480.000
G1 X-3.320 Y-7.360 F480.000
G1 X-2.865 Y-7.570 F480.000
G1 X-2.395 Y-7.750 F480.000
G1 X-1.920 Y-7.905 F480.000
G1 X-1.435 Y-8.035 F480.000
G1 X-0.945 Y-8.135 F480.000
G1 X-0.450 Y-8.210 F480.000
G1 X0.045 Y-8.235 F480.000
G1 X0.540 Y-8.240 F480.000
G1 X1.035 Y-8.210 F480.000
G1 X1.530 Y-8.140 F480.000
G1 X2.020 Y-8.040 F480.000
G1 X2.505 Y-7.920 F480.000
G1 X2.980 Y-7.765 F480.000
G1 X3.445 Y-7.585 F480.000
G1 X3.900 Y-7.380 F480.000
G1 X4.340 Y-7.145 F480.000
G1 X4.765 Y-6.885 F480.000
G1 X5.175 Y-6.600 F480.000
G1 X5.565 Y-6.290 F480.000
G1 X5.940 Y-5.955 F480.000
G1 X6.295 Y-5.600 F480.000
G1 X6.625 Y-5.225 F480.000
G1 X6.935 Y-4.830 F480.000
G1 X7.220 Y-4.420 F480.000
G1 X7.480 Y-3.990 F480.000
G1 X7.715 Y-3.545 F480.000
G1 X7.920 Y-3.090 F480.000
G1 X8.100 Y-2.620 F480.000
G1 X8.250 Y-2.140 F480.000
G1 X8.375 Y-1.655 F480.000
G1 X8.470 Y-1.160 F480.000
G1 X8.535 Y-0.660 F480.000
G1 X8.570 Y-0.160 F480.000
G1 X8.575 Y0.335 F480.000
G1 X8.530 Y0.830 F480.000
G1 X8.465 Y1.325 F480.000
G1 X8.365 Y1.815 F480.000
G1 X8.245 Y2.300 F480.000
G1 X8.090 Y2.775 F480.000
G1 X7.905 Y3.240 F480.000
G1 X7.695 Y3.695 F480.000
G1 X7.470 Y4.140 F480.000
G1 X7.215 Y4.570 F480.000
G1 X6.935 Y4.985 F480.000
G1 X6.635 Y5.385 F480.000
G1 X6.315 Y5.770 F480.000
G1 X5.975 Y6.135 F480.000
G1 X5.615 Y6.480 F480.000
G1 X5.225 Y6.795 F480.000
G1 X4.825 Y7.095 F480.000
G1 X4.405 Y7.365 F480.000
G1 X3.965 Y7.605 F480.000
G1 X3.515 Y7.820 F480.000
G1 X3.050 Y8.010 F480.000
G1 X2.575 Y8.170 F480.000
G1 X2.090 Y8.300 F480.000
G1 X1.600 Y8.410 F480.000
G1 X1.105 Y8.485 F480.000
G1 X0.605 Y8.535 F480.000
G1 X0.105 Y8.560 F480.000
G1 X-0.390 Y8.565 F480.000
G1 X-0.885 Y8.540 F480.000
G1 X-1.380 Y8.490 F480.000
G1 X-1.870 Y8.400 F480.000
G1 X-2.355 Y8.290 F480.000
G1 X-2.835 Y8.150 F480.000
G1 X-3.305 Y7.980 F480.000
G1 X-3.755 Y7.760 F480.000
G1 X-4.170 Y7.535 F480.000
G1 X-4.595 Y7.275 F480.000
G1 X-5.010 Y6.995 F480.000
G1 X-5.405 Y6.690 F480.000
G1 X-5.785 Y6.365 F480.000
G1 X-6.145 Y6.020 F480.000
G1 X-6.475 Y5.645 F480.000
G1 X-6.790 Y5.255 F480.000
G1 X-7.080 Y4.845 F480.000
G1 X-7.340 Y4.415 F480.000
G1 X-7.585 Y3.980 F480.000
G1 X-7.800 Y3.525 F480.000
G1 X-7.990 Y3.060 F480.000
G1 X-8.155 Y2.585 F480.000
G1 X-8.300 Y2.105 F480.000
G1 X-8.415 Y1.615 F480.000
G1 X-8.510 Y1.120 F480.000
G1 X-8.555 Y0.620 F480.000
G1 X-8.585 Y0.120 F480.000
G1 X-8.580 Y-0.375 F480.000
G1 X-8.550 Y-0.870 F480.000
G1 X-8.490 Y-1.365 F480.000
G1 X-8.405 Y-1.855 F480.000
G1 X-8.290 Y-2.340 F480.000
G1 X-8.150 Y-2.820 F480.000
G1 X-7.980 Y-3.290 F480.000
G1 X-7.785 Y-3.750 F480.000
G1 X-7.565 Y-4.200 F480.000
G1 X-7.320 Y-4.635 F480.000
G1 X-7.050 Y-5.055 F480.000
G1 X-6.750 Y-5.455 F480.000
G1 X-6.430 Y-5.840 F480.000
G1 X-6.085 Y-6.200 F480.000
G1 X-5.715 Y-6.540 F480.000
G1 X-5.330 Y-6.855 F480.000
G1 X-4.930 Y-7.160 F480.000
G1 X-4.510 Y-7.435 F480.000
G1 X-4.075 Y-7.685 F480.000
G1 X-3.630 Y-7.915 F480.000
G1 X-3.180 Y-8.130 F480.000
G1 X-2.715 Y-8.320 F480.000
G1 X-2.240 Y-8.490 F480.000
G1 X-1.755 Y-8.620 F480.000
G1 X-1.265 Y-8.730 F480.000
G1 X-0.770 Y-8.815 F480.000
G1 X-0.270 Y-8.865 F480.000
G1 X0.225 Y-8.890 F480.000
G1 X0.720 Y-8.890 F480.000
G1 X1.215 Y-8.840 F480.000
G1 X1.710 Y-8.770 F480.000
G1 X2.195 Y-8.665 F480.000
G1 X2.680 Y-8.545 F480.000
G1 X3.155 Y-8.390 F480.000
G1 X3.620 Y-8.210 F480.000
G1 X4.075 Y-8.010 F480.000
G1 X4.520 Y-7.780 F480.000
G1 X4.950 Y-7.525 F480.000
G1 X5.365 Y-7.250 F480.000
G1 X5.765 Y-6.950 F480.000
G1 X6.150 Y-6.630 F480.000
G1 X6.515 Y-6.290 F480.000
G1 X6.860 Y-5.930 F480.000
G1 X7.185 Y-5.550 F480.000
G1 X7.490 Y-5.155 F480.000
G1 X7.775 Y-4.740 F480.000
G1 X8.035 Y-4.310 F480.000
G1 X8.270 Y-3.870 F480.000
G1 X8.480 Y-3.415 F480.000
G1 X8.665 Y-2.950 F480.000
G1 X8.825 Y-2.475 F480.000
G1 X8.960 Y-1.990 F480.000
G1 X9.070 Y-1.500 F480.000
G1 X9.150 Y-1.005 F480.000
G1 X9.205 Y-0.505 F480.000
G1 X9.220 Y-0.005 F480.000
G1 X9.210 Y0.490 F480.000
G1 X9.170 Y0.985 F480.000
G1 X9.095 Y1.480 F480.000
G1 X8.995 Y1.970 F480.000
G1 X8.865 Y2.450 F480.000
G1 X8.720 Y2.925 F480.000
G1 X8.540 Y3.390 F480.000
G1 X8.345 Y3.850 F480.000
G1 X8.125 Y4.300 F480.000
G1 X7.885 Y4.735 F480.000
G1 X7.625 Y5.160 F480.000
G1 X7.345 Y5.570 F480.000
G1 X6.695 Y6.330 F480.000
G1 X6.340 Y6.680 F480.000
G1 X5.970 Y7.020 F480.000
G1 X5.580 Y7.335 F480.000
G1 X5.175 Y7.630 F480.000
G1 X4.755 Y7.905 F480.000
G1 X4.320 Y8.160 F480.000
G1 X3.865 Y8.370 F480.000
G1 X3.405 Y8.565 F480.000
G1 X2.930 Y8.730 F480.000
G1 X2.450 Y8.875 F480.000
G1 X1.960 Y8.990 F480.000
G1 X1.465 Y9.080 F480.000
G1 X0.965 Y9.145 F480.000
G1 X0.465 Y9.195 F480.000
G1 X-0.030 Y9.215 F480.000
G1 X-0.525 Y9.210 F480.000
G1 X-1.020 Y9.185 F480.000
G1 X-1.515 Y9.135 F480.000
G1 X-2.005 Y9.045 F480.000
G1 X-2.490 Y8.935 F480.000
G1 X-2.970 Y8.795 F480.000
G1 X-3.440 Y8.625 F480.000
G1 X-3.895 Y8.415 F480.000
G1 X-4.340 Y8.185 F480.000
G1 X-4.775 Y7.935 F480.000
G1 X-5.195 Y7.665 F480.000
G1 X-5.600 Y7.370 F480.000
G1 X-5.990 Y7.060 F480.000
G1 X-6.365 Y6.730 F480.000
G1 X-6.710 Y6.365 F480.000
G1 X-7.040 Y5.990 F480.000
G1 X-7.345 Y5.595 F480.000
G1 X-7.635 Y5.185 F480.000
G1 X-7.900 Y4.760 F480.000
G1 X-8.140 Y4.320 F480.000
G1 X-8.360 Y3.870 F480.000
G1 X-8.555 Y3.405 F480.000
G1 X-8.725 Y2.935 F480.000
G1 X-8.880 Y2.460 F480.000
G1 X-9.005 Y1.975 F480.000
G1 X-9.110 Y1.485 F480.000
G1 X-9.190 Y0.990 F480.000
G1 X-9.225 Y0.490 F480.000
G1 X-9.245 Y-0.005 F480.000
G1 X-9.230 Y-0.500 F480.000
G1 X-9.195 Y-0.995 F480.000
G1 X-9.135 Y-1.490 F480.000
G1 X-9.045 Y-1.980 F480.000
G1 X-8.935 Y-2.465 F480.000
G1 X-8.795 Y-2.945 F480.000
G1 X-8.635 Y-3.415 F480.000
G1 X-8.450 Y-3.880 F480.000
G1 X-8.240 Y-4.335 F480.000
G1 X-8.005 Y-4.775 F480.000
G1 X-7.750 Y-5.205 F480.000
G1 X-7.460 Y-5.615 F480.000
G1 X-7.155 Y-6.010 F480.000
G1 X-6.825 Y-6.385 F480.000
G1 X-6.475 Y-6.740 F480.000
G1 X-6.105 Y-7.075 F480.000
G1 X-5.715 Y-7.390 F480.000
G1 X-5.315 Y-7.690 F480.000
G1 X-4.895 Y-7.965 F480.000
G1 X-4.465 Y-8.225 F480.000
G1 X-4.025 Y-8.460 F480.000
G1 X-3.570 Y-8.675 F480.000
G1 X-3.110 Y-8.870 F480.000
G1 X-2.640 Y-9.045 F480.000
G1 X-2.160 Y-9.195 F480.000
G1 X-1.675 Y-9.325 F480.000
G1 X-1.185 Y-9.430 F480.000
G1 X-0.690 Y-9.510 F480.000
G1 X-0.190 Y-9.550 F480.000
G1 X0.305 Y-9.570 F480.000
G1 X0.800 Y-9.560 F480.000
G1 X1.295 Y-9.515 F480.000
G1 X1.790 Y-9.450 F480.000
G1 X2.280 Y-9.355 F480.000
G1 X2.760 Y-9.230 F480.000
G1 X3.235 Y-9.075 F480.000
G1 X3.700 Y-8.895 F480.000
G1 X4.160 Y-8.700 F480.000
G1 X4.605 Y-8.475 F480.000
G1 X5.465 Y-7.965 F480.000
G1 X5.875 Y-7.680 F480.000
G1 X6.270 Y-7.375 F480.000
G1 X6.655 Y-7.055 F480.000
G1 X7.020 Y-6.715 F480.000
G1 X7.370 Y-6.355 F480.000
G1 X7.695 Y-5.975 F480.000
G1 X8.005 Y-5.580 F480.000
G1 X8.290 Y-5.170 F480.000
G1 X8.555 Y-4.745 F480.000
G1 X8.800 Y-4.305 F480.000
G1 X9.020 Y-3.855 F480.000
G1 X9.215 Y-3.395 F480.000
G1 X9.385 Y-2.925 F480.000
G1 X9.530 Y-2.445 F480.000
G1 X9.650 Y-1.960 F480.000
G1 X9.745 Y-1.465 F480.000
G1 X9.815 Y-0.970 F480.000
G1 X9.860 Y-0.470 F480.000
G1 X9.875 Y0.025 F480.000
G1 X9.865 Y0.520 F480.000
G1 X9.830 Y1.015 F480.000
G1 X9.770 Y1.510 F480.000
G1 X9.680 Y2.000 F480.000
G1 X9.565 Y2.485 F480.000
G1 X9.425 Y2.965 F480.000
G1 X9.260 Y3.435 F480.000
G1 X9.070 Y3.895 F480.000
G1 X8.855 Y4.345 F480.000
G1 X8.620 Y4.785 F480.000
G1 X8.370 Y5.215 F480.000
G1 X8.095 Y5.630 F480.000
G1 X7.800 Y6.035 F480.000
G1 X7.490 Y6.425 F480.000
G1 X7.160 Y6.800 F480.000
G1 X6.815 Y7.160 F480.000
G1 X6.440 Y7.490 F480.000
G1 X6.050 Y7.805 F480.000
G1 X5.650 Y8.105 F480.000
G1 X5.230 Y8.375 F480.000
G1 X4.800 Y8.630 F480.000
G1 X4.355 Y8.860 F480.000
G1 X3.900 Y9.065 F480.000
G1 X3.435 Y9.250 F480.000
G1 X2.960 Y9.410 F480.000
G1 X2.475 Y9.545 F480.000
G1 X1.985 Y9.655 F480.000
G1 X1.490 Y9.740 F480.000
G1 X0.995 Y9.810 F480.000
G1 X0.495 Y9.850 F480.000
G1 X0.000 Y9.870 F480.000
G1 X-0.495 Y9.870 F480.000
G1 X-0.990 Y9.845 F480.000
G1 X-1.485 Y9.795 F480.000
G1 X-1.980 Y9.725 F480.000
G1 X-2.470 Y9.630 F480.000
G1 X-2.950 Y9.495 F480.000
G1 X-3.420 Y9.325 F480.000
G1 X-3.880 Y9.135 F480.000
G1 X-4.335 Y8.930 F480.000
G1 X-4.780 Y8.700 F480.000
G1 X-5.210 Y8.450 F480.000
G1 X-5.630 Y8.180 F480.000
G1 X-6.035 Y7.890 F480.000
G1 X-6.425 Y7.580 F480.000
G1 X-6.790 Y7.240 F480.000
G1 X-7.145 Y6.885 F480.000
G1 X-7.475 Y6.510 F480.000
G1 X-8.075 Y5.710 F480.000
G1 X-8.345 Y5.285 F480.000
G1 X-8.600 Y4.855 F480.000
G1 X-8.835 Y4.410 F480.000
G1 X-9.045 Y3.955 F480.000
G1 X-9.240 Y3.490 F480.000
G1 X-9.410 Y3.020 F480.000
G1 X-9.560 Y2.540 F480.000
G1 X-9.690 Y2.055 F480.000
G1 X-9.775 Y1.560 F480.000
G1 X-9.845 Y1.060 F480.000
G1 X-9.885 Y0.560 F480.000
G1 X-9.900 Y0.060 F480.000
G1 X-9.890 Y-0.435 F480.000
G1 X-9.855 Y-0.930 F480.000
G1 X-9.805 Y-1.425 F480.000
G1 X-9.725 Y-1.915 F480.000
G1 X-9.625 Y-2.405 F480.000
G1 X-9.505 Y-2.890 F480.000
G1 X-9.360 Y-3.365 F480.000
G1 X-9.195 Y-3.835 F480.000
G1 X-9.005 Y-4.295 F480.000
G1 X-8.785 Y-4.745 F480.000
G1 X-8.550 Y-5.185 F480.000
G1 X-8.290 Y-5.610 F480.000
G1 X-8.005 Y-6.020 F480.000
G1 X-7.685 Y-6.405 F480.000
G1 X-7.350 Y-6.775 F480.000
G1 X-7.000 Y-7.135 F480.000
G1 X-6.635 Y-7.475 F480.000
G1 X-6.250 Y-7.795 F480.000
G1 X-5.855 Y-8.100 F480.000
G1 X-5.445 Y-8.385 F480.000
G1 X-4.590 Y-8.905 F480.000
G1 X-4.145 Y-9.135 F480.000
G1 X-3.690 Y-9.350 F480.000
G1 X-3.230 Y-9.545 F480.000
G1 X-2.760 Y-9.720 F480.000
G1 X-2.285 Y-9.875 F480.000
G1 X-1.795 Y-9.995 F480.000
G1 X-1.305 Y-10.100 F480.000
G1 X-0.810 Y-10.175 F480.000
G1 X-0.310 Y-10.220 F480.000
G1 X0.185 Y-10.245 F480.000
G1 X0.680 Y-10.245 F480.000
G1 X1.175 Y-10.215 F480.000
G1 X1.670 Y-10.160 F480.000
G1 X2.160 Y-10.080 F480.000
G1 X2.645 Y-9.960 F480.000
G1 X3.125 Y-9.820 F480.000
G1 X3.595 Y-9.660 F480.000
G1 X4.055 Y-9.475 F480.000
G1 X4.505 Y-9.265 F480.000
G1 X4.950 Y-9.040 F480.000
G1 X5.385 Y-8.790 F480.000
G1 X5.805 Y-8.525 F480.000
G1 X6.620 Y-7.945 F480.000
G1 X7.010 Y-7.630 F480.000
G1 X7.385 Y-7.300 F480.000
G1 X8.065 Y-6.565 F480.000
G1 X8.380 Y-6.175 F480.000
G1 X8.680 Y-5.775 F480.000
G1 X8.955 Y-5.360 F480.000
G1 X9.210 Y-4.930 F480.000
G1 X9.450 Y-4.490 F480.000
G1 X9.665 Y-4.035 F480.000
G1 X9.860 Y-3.575 F480.000
G1 X10.035 Y-3.105 F480.000
G1 X10.185 Y-2.625 F480.000
G1 X10.295 Y-2.135 F480.000
G1 X10.385 Y-1.640 F480.000
G1 X10.460 Y-1.145 F480.000
G1 X10.510 Y-0.645 F480.000
G1 X10.535 Y-0.145 F480.000
G1 X10.540 Y0.350 F480.000
G1 X10.520 Y0.845 F480.000
G1 X10.480 Y1.340 F480.000
G1 X10.395 Y1.830 F480.000
G1 X10.295 Y2.320 F480.000
G1 X10.165 Y2.800 F480.000
G1 X10.020 Y3.275 F480.000
G1 X9.845 Y3.740 F480.000
G1 X9.650 Y4.200 F480.000
G1 X9.435 Y4.650 F480.000
G1 X9.205 Y5.095 F480.000
G1 X8.950 Y5.525 F480.000
G1 X8.680 Y5.945 F480.000
G1 X8.395 Y6.355 F480.000
G1 X8.090 Y6.750 F480.000
G1 X7.770 Y7.135 F480.000
G1 X7.055 Y7.835 F480.000
G1 X6.675 Y8.160 F480.000
G1 X5.865 Y8.750 F480.000
G1 X5.440 Y9.015 F480.000
G1 X5.005 Y9.265 F480.000
G1 X4.560 Y9.495 F480.000
G1 X4.105 Y9.705 F480.000
G1 X3.635 Y9.885 F480.000
G1 X3.160 Y10.050 F480.000
G1 X2.680 Y10.190 F480.000
G1 X2.190 Y10.300 F480.000
G1 X1.695 Y10.390 F480.000
G1 X1.195 Y10.455 F480.000
G1 X0.695 Y10.505 F480.000
G1 X-0.300 Y10.545 F480.000
G1 X-0.795 Y10.535 F480.000
G1 X-1.290 Y10.505 F480.000
G1 X-1.785 Y10.445 F480.000
G1 X-2.275 Y10.345 F480.000
G1 X-2.760 Y10.230 F480.000
G1 X-3.240 Y10.095 F480.000
G1 X-3.710 Y9.925 F480.000
G1 X-4.170 Y9.735 F480.000
G1 X-4.620 Y9.525 F480.000
G1 X-5.065 Y9.300 F480.000
G1 X-5.495 Y9.050 F480.000
G1 X-5.915 Y8.780 F480.000
G1 X-6.325 Y8.495 F480.000
G1 X-6.720 Y8.190 F480.000
G1 X-7.100 Y7.870 F480.000
G1 X-7.455 Y7.520 F480.000
G1 X-7.800 Y7.155 F480.000
G1 X-8.125 Y6.775 F480.000
G1 X-8.425 Y6.375 F480.000
G1 X-8.705 Y5.960 F480.000
G1 X-8.970 Y5.535 F480.000
G1 X-9.220 Y5.100 F480.000
G1 X-9.450 Y4.655 F480.000
G1 X-9.665 Y4.200 F480.000
G1 X-9.860 Y3.740 F480.000
G1 X-10.035 Y3.270 F480.000
G1 X-10.190 Y2.795 F480.000
G1 X-10.410 Y1.815 F480.000
G1 X-10.485 Y1.320 F480.000
G1 X-10.530 Y0.820 F480.000
G1 X-10.555 Y0.320 F480.000
G1 X-10.565 Y-0.175 F480.000
G1 X-10.545 Y-0.670 F480.000
G1 X-10.505 Y-1.165 F480.000
G1 X-10.445 Y-1.660 F480.000
G1 X-10.360 Y-2.150 F480.000
G1 X-10.260 Y-2.640 F480.000
G1 X-10.135 Y-3.125 F480.000
G1 X-9.990 Y-3.600 F480.000
G1 X-9.830 Y-4.070 F480.000
G1 X-9.420 Y-4.975 F480.000
G1 X-9.185 Y-5.415 F480.000
G1 X-8.925 Y-5.840 F480.000
G1 X-8.645 Y-6.255 F480.000
G1 X-8.345 Y-6.655 F480.000
G1 X-8.025 Y-7.035 F480.000
G1 X-7.685 Y-7.400 F480.000
G1 X-7.325 Y-7.750 F480.000
G1 X-6.565 Y-8.400 F480.000
G1 X-6.160 Y-8.695 F480.000
G1 X-5.325 Y-9.245 F480.000
G1 X-4.895 Y-9.500 F480.000
G1 X-4.455 Y-9.740 F480.000
G1 X-4.010 Y-9.965 F480.000
G1 X-3.075 Y-10.325 F480.000
G1 X-2.600 Y-10.480 F480.000
G1 X-2.115 Y-10.605 F480.000
G1 X-1.625 Y-10.710 F480.000
G1 X-1.130 Y-10.800 F480.000
G1 X-0.630 Y-10.865 F480.000
G1 X-0.130 Y-10.910 F480.000
G1 X0.365 Y-10.915 F480.000
G1 X0.860 Y-10.905 F480.000
G1 X1.355 Y-10.870 F480.000
G1 X1.850 Y-10.800 F480.000
G1 X2.340 Y-10.710 F480.000
G1 X2.825 Y-10.595 F480.000
G1 X3.305 Y-10.460 F480.000
G1 X3.775 Y-10.300 F480.000
G1 X4.240 Y-10.120 F480.000
G1 X4.695 Y-9.920 F480.000
G1 X5.140 Y-9.695 F480.000
G1 X6.005 Y-9.195 F480.000
G1 X6.830 Y-8.630 F480.000
G1 X7.225 Y-8.325 F480.000
G1 X7.610 Y-8.005 F480.000
G1 X7.970 Y-7.660 F480.000
G1 X8.320 Y-7.305 F480.000
G1 X8.655 Y-6.935 F480.000
G1 X8.970 Y-6.545 F480.000
G1 X9.255 Y-6.130 F480.000
G1 X9.785 Y-5.275 F480.000
G1 X10.025 Y-4.835 F480.000
G1 X10.245 Y-4.385 F480.000
G1 X10.450 Y-3.930 F480.000
G1 X10.620 Y-3.460 F480.000
G1 X10.775 Y-2.985 F480.000
G1 X10.910 Y-2.500 F480.000
G1 X11.015 Y-2.010 F480.000
G1 X11.100 Y-1.515 F480.000
G1 X11.160 Y-1.015 F480.000
G1 X11.195 Y-0.515 F480.000
G1 X11.210 Y-0.015 F480.000
G1 X11.200 Y0.480 F480.000
G1 X11.165 Y0.975 F480.000
G1 X11.115 Y1.470 F480.000
G1 X11.040 Y1.960 F480.000
G1 X10.945 Y2.450 F480.000
G1 X10.830 Y2.935 F480.000
G1 X10.690 Y3.415 F480.000
G1 X10.515 Y3.880 F480.000
G1 X10.325 Y4.340 F480.000
G1 X10.120 Y4.795 F480.000
G1 X9.895 Y5.240 F480.000
G1 X9.650 Y5.675 F480.000
G1 X9.390 Y6.100 F480.000
G1 X9.115 Y6.515 F480.000
G1 X8.820 Y6.920 F480.000
G1 X8.510 Y7.310 F480.000
G1 X8.170 Y7.675 F480.000
G1 X7.820 Y8.030 F480.000
G1 X7.450 Y8.365 F480.000
G1 X7.065 Y8.685 F480.000
G1 X6.665 Y8.990 F480.000
G1 X5.835 Y9.550 F480.000
G1 X5.405 Y9.805 F480.000
G1 X4.965 Y10.040 F480.000
G1 X4.515 Y10.260 F480.000
G1 X4.055 Y10.460 F480.000
G1 X3.585 Y10.630 F480.000
G1 X3.110 Y10.785 F480.000
G1 X2.620 Y10.900 F480.000
G1 X1.630 Y11.080 F480.000
G1 X1.130 Y11.145 F480.000
G1 X0.630 Y11.185 F480.000
G1 X0.130 Y11.210 F480.000
G1 X-0.365 Y11.215 F480.000
G1 X-0.860 Y11.195 F480.000
G1 X-1.355 Y11.160 F480.000
G1 X-1.850 Y11.105 F480.000
G1 X-2.340 Y11.030 F480.000
G1 X-2.825 Y10.920 F480.000
G1 X-3.300 Y10.775 F480.000
G1 X-3.770 Y10.615 F480.000
G1 X-4.235 Y10.440 F480.000
G1 X-4.695 Y10.240 F480.000
G1 X-5.145 Y10.020 F480.000
G1 X-5.585 Y9.785 F480.000
G1 X-6.015 Y9.530 F480.000
G1 X-6.435 Y9.255 F480.000
G1 X-6.840 Y8.965 F480.000
G1 X-7.220 Y8.640 F480.000
G1 X-7.590 Y8.305 F480.000
G1 X-7.950 Y7.960 F480.000
G1 X-8.285 Y7.590 F480.000
G1 X-8.610 Y7.210 F480.000
G1 X-8.915 Y6.815 F480.000
G1 X-9.475 Y5.990 F480.000
G1 X-9.730 Y5.560 F480.000
G1 X-9.965 Y5.120 F480.000
G1 X-10.185 Y4.670 F480.000
G1 X-10.385 Y4.210 F480.000
G1 X-10.570 Y3.745 F480.000
G1 X-10.735 Y3.270 F480.000
G1 X-10.880 Y2.790 F480.000
G1 X-11.005 Y2.305 F480.000
G1 X-11.155 Y1.315 F480.000
G1 X-11.205 Y0.815 F480.000
G1 X-11.230 Y0.315 F480.000
G1 X-11.235 Y-0.180 F480.000
G1 X-11.220 Y-0.675 F480.000
G1 X-11.185 Y-1.170 F480.000
G1 X-11.130 Y-1.665 F480.000
G1 X-11.050 Y-2.155 F480.000
G1 X-10.950 Y-2.645 F480.000
G1 X-10.830 Y-3.130 F480.000
G1 X-10.690 Y-3.610 F480.000
G1 X-10.530 Y-4.080 F480.000
G1 X-10.350 Y-4.545 F480.000
G1 X-10.150 Y-5.000 F480.000
G1 X-9.930 Y-5.450 F480.000
G1 X-9.690 Y-5.890 F480.000
G1 X-9.430 Y-6.320 F480.000
G1 X-8.830 Y-7.120 F480.000
G1 X-8.500 Y-7.495 F480.000
G1 X-8.160 Y-7.860 F480.000
G1 X-7.800 Y-8.205 F480.000
G1 X-7.430 Y-8.540 F480.000
G1 X-6.650 Y-9.170 F480.000
G1 X-6.245 Y-9.460 F480.000
G1 X-5.825 Y-9.735 F480.000
G1 X-5.400 Y-9.995 F480.000
G1 X-4.965 Y-10.240 F480.000
G1 X-4.520 Y-10.470 F480.000
G1 X-4.065 Y-10.680 F480.000
G1 X-3.120 Y-11.020 F480.000
G1 X-2.640 Y-11.160 F480.000
G1 X-2.155 Y-11.285 F480.000
G1 X-1.665 Y-11.390 F480.000
G1 X-1.170 Y-11.475 F480.000
G1 X-0.670 Y-11.540 F480.000
G1 X-0.170 Y-11.580 F480.000
G1 X0.325 Y-11.600 F480.000
G1 X0.820 Y-11.580 F480.000
G1 X1.315 Y-11.545 F480.000
G1 X1.810 Y-11.485 F480.000
G1 X2.300 Y-11.395 F480.000
G1 X3.270 Y-11.165 F480.000
G1 X3.745 Y-11.020 F480.000
G1 X4.215 Y-10.855 F480.000
G1 X4.680 Y-10.675 F480.000
G1 X5.135 Y-10.475 F480.000
G1 X5.575 Y-10.245 F480.000
G1 X6.010 Y-10.000 F480.000
G1 X6.435 Y-9.735 F480.000
G1 X7.255 Y-9.165 F480.000
G1 X8.035 Y-8.535 F480.000
G1 X8.405 Y-8.200 F480.000
G1 X9.085 Y-7.465 F480.000
G1 X9.400 Y-7.080 F480.000
G1 X9.695 Y-6.675 F480.000
G1 X9.975 Y-6.260 F480.000
G1 X10.490 Y-5.400 F480.000
G1 X10.720 Y-4.955 F480.000
G1 X11.130 Y-4.040 F480.000
G1 X11.305 Y-3.570 F480.000
G1 X11.575 Y-2.605 F480.000
G1 X11.680 Y-2.115 F480.000
G1 X11.755 Y-1.620 F480.000
G1 X11.855 Y-0.620 F480.000
G1 X11.870 Y-0.120 F480.000
G1 X11.865 Y0.375 F480.000
G1 X11.845 Y0.870 F480.000
G1 X11.800 Y1.365 F480.000
G1 X11.735 Y1.860 F480.000
G1 X11.650 Y2.350 F480.000
G1 X11.545 Y2.835 F480.000
G1 X11.420 Y3.315 F480.000
G1 X11.275 Y3.790 F480.000
G1 X11.110 Y4.260 F480.000
G1 X10.925 Y4.720 F480.000
G1 X10.705 Y5.165 F480.000
G1 X10.225 Y6.040 F480.000
G1 X9.965 Y6.465 F480.000
G1 X9.395 Y7.290 F480.000
G1 X8.745 Y8.050 F480.000
G1 X8.400 Y8.410 F480.000
G1 X8.035 Y8.750 F480.000
G1 X7.660 Y9.080 F480.000
G1 X7.270 Y9.390 F480.000
G1 X6.865 Y9.685 F480.000
G1 X6.020 Y10.230 F480.000
G1 X5.585 Y10.475 F480.000
G1 X5.140 Y10.705 F480.000
G1 X4.685 Y10.920 F480.000
G1 X4.225 Y11.115 F480.000
G1 X3.750 Y11.280 F480.000
G1 X2.780 Y11.545 F480.000
G1 X2.290 Y11.655 F480.000
G1 X1.795 Y11.735 F480.000
G1 X1.295 Y11.800 F480.000
G1 X0.295 Y11.880 F480.000
G1 X-0.200 Y11.890 F480.000
G1 X-0.695 Y11.885 F480.000
G1 X-1.190 Y11.865 F480.000
G1 X-1.685 Y11.825 F480.000
G1 X-2.665 Y11.645 F480.000
G1 X-3.150 Y11.525 F480.000
G1 X-3.625 Y11.375 F480.000
G1 X-4.095 Y11.210 F480.000
G1 X-4.560 Y11.030 F480.000
G1 X-5.465 Y10.610 F480.000
G1 X-5.905 Y10.375 F480.000
G1 X-6.335 Y10.125 F480.000
G1 X-6.750 Y9.850 F480.000
G1 X-7.160 Y9.560 F480.000
G1 X-7.555 Y9.255 F480.000
G1 X-7.935 Y8.930 F480.000
G1 X-8.295 Y8.585 F480.000
G1 X-8.640 Y8.225 F480.000
G1 X-8.970 Y7.845 F480.000
G1 X-9.580 Y7.050 F480.000
G1 X-9.865 Y6.640 F480.000
G1 X-10.385 Y5.785 F480.000
G1 X-10.625 Y5.345 F480.000
G1 X-10.845 Y4.895 F480.000
G1 X-11.050 Y4.440 F480.000
G1 X-11.380 Y3.495 F480.000
G1 X-11.515 Y3.010 F480.000
G1 X-11.635 Y2.525 F480.000
G1 X-11.730 Y2.030 F480.000
G1 X-11.805 Y1.535 F480.000
G1 X-11.865 Y1.035 F480.000
G1 X-11.900 Y0.535 F480.000
G1 X-11.915 Y0.035 F480.000
G1 X-11.910 Y-0.460 F480.000
G1 X-11.885 Y-0.955 F480.000
G1 X-11.840 Y-1.450 F480.000
G1 X-11.775 Y-1.945 F480.000
G1 X-11.690 Y-2.435 F480.000
G1 X-11.585 Y-2.920 F480.000
G1 X-11.460 Y-3.400 F480.000
G1 X-11.315 Y-3.875 F480.000
G1 X-11.150 Y-4.345 F480.000
G1 X-10.970 Y-4.810 F480.000
G1 X-10.770 Y-5.265 F480.000
G1 X-10.550 Y-5.715 F480.000
G1 X-10.315 Y-6.155 F480.000
G1 X-10.060 Y-6.585 F480.000
G1 X-9.775 Y-6.995 F480.000
G1 X-9.475 Y-7.395 F480.000
G1 X-9.155 Y-7.780 F480.000
G1 X-8.465 Y-8.505 F480.000
G1 X-7.725 Y-9.180 F480.000
G1 X-7.335 Y-9.495 F480.000
G1 X-6.530 Y-10.085 F480.000
G1 X-6.110 Y-10.360 F480.000
G1 X-5.680 Y-10.620 F480.000
G1 X-5.245 Y-10.865 F480.000
G1 X-4.800 Y-11.095 F480.000
G1 X-3.875 Y-11.485 F480.000
G1 X-3.405 Y-11.655 F480.000
G1 X-2.925 Y-11.800 F480.000
G1 X-2.440 Y-11.930 F480.000
G1 X-1.950 Y-12.040 F480.000
G1 X-1.455 Y-12.125 F480.000
G1 X-0.955 Y-12.190 F480.000
G1 X-0.455 Y-12.235 F480.000
G1 X0.040 Y-12.260 F480.000
G1 X0.535 Y-12.265 F480.000
G1 X1.030 Y-12.250 F480.000
G1 X1.525 Y-12.195 F480.000
G1 X2.020 Y-12.125 F480.000
G1 X2.510 Y-12.040 F480.000
G1 X2.995 Y-11.935 F480.000
G1 X3.475 Y-11.810 F480.000
G1 X3.950 Y-11.665 F480.000
G1 X4.420 Y-11.505 F480.000
G1 X4.885 Y-11.325 F480.000
G1 X5.345 Y-11.130 F480.000
G1 X5.795 Y-10.915 F480.000
G1 X6.650 Y-10.405 F480.000
G1 X7.070 Y-10.135 F480.000
G1 X7.480 Y-9.850 F480.000
G1 X7.880 Y-9.550 F480.000
G1 X8.270 Y-9.235 F480.000
G1 X8.995 Y-8.545 F480.000
G1 X9.340 Y-8.180 F480.000
G1 X9.665 Y-7.800 F480.000
G1 X10.275 Y-7.005 F480.000
G1 X10.555 Y-6.590 F480.000
G1 X10.820 Y-6.165 F480.000
G1 X11.070 Y-5.730 F480.000
G1 X11.300 Y-5.285 F480.000
G1 X11.515 Y-4.835 F480.000
G1 X11.715 Y-4.375 F480.000
G1 X11.895 Y-3.905 F480.000
G1 X12.060 Y-3.430 F480.000
G1 X12.300 Y-2.455 F480.000
G1 X12.390 Y-1.960 F480.000
G1 X12.460 Y-1.465 F480.000
G1 X12.505 Y-0.965 F480.000
G1 X12.545 Y0.030 F480.000
G1 X12.535 Y0.525 F480.000
G1 X12.505 Y1.020 F480.000
G1 X12.460 Y1.515 F480.000
G1 X12.395 Y2.010 F480.000
G1 X12.310 Y2.500 F480.000
G1 X12.210 Y2.990 F480.000
G1 X12.090 Y3.475 F480.000
G1 X11.950 Y3.955 F480.000
G1 X11.780 Y4.425 F480.000
G1 X11.595 Y4.890 F480.000
G1 X11.390 Y5.345 F480.000
G1 X11.160 Y5.790 F480.000
G1 X10.660 Y6.655 F480.000
G1 X10.380 Y7.070 F480.000
G1 X9.780 Y7.870 F480.000
G1 X9.455 Y8.250 F480.000
G1 X9.115 Y8.620 F480.000
G1 X8.765 Y8.975 F480.000
G1 X8.400 Y9.315 F480.000
G1 X8.020 Y9.645 F480.000
G1 X7.630 Y9.960 F480.000
G1 X7.230 Y10.260 F480.000
G1 X6.815 Y10.540 F480.000
G1 X6.390 Y10.805 F480.000
G1 X5.955 Y11.055 F480.000
G1 X5.510 Y11.290 F480.000
G1 X5.060 Y11.505 F480.000
G1 X4.120 Y11.860 F480.000
G1 X3.640 Y12.010 F480.000
G1 X3.155 Y12.145 F480.000
G1 X2.665 Y12.260 F480.000
G1 X2.170 Y12.355 F480.000
G1 X1.675 Y12.435 F480.000
G1 X1.175 Y12.495 F480.000
G1 X0.675 Y12.535 F480.000
G1 X-0.320 Y12.575 F480.000
G1 X-0.815 Y12.565 F480.000
G1 X-1.310 Y12.540 F480.000
G1 X-2.300 Y12.410 F480.000
G1 X-2.790 Y12.320 F480.000
G1 X-3.275 Y12.205 F480.000
G1 X-3.755 Y12.070 F480.000
G1 X-4.230 Y11.915 F480.000
G1 X-4.695 Y11.740 F480.000
G1 X-5.155 Y11.545 F480.000
G1 X-5.605 Y11.330 F480.000
G1 X-6.045 Y11.095 F480.000
G1 X-6.475 Y10.840 F480.000
G1 X-7.310 Y10.290 F480.000
G1 X-8.100 Y9.680 F480.000
G1 X-8.480 Y9.355 F480.000
G1 X-9.175 Y8.640 F480.000
G1 X-9.815 Y7.870 F480.000
G1 X-10.400 Y7.055 F480.000
G1 X-10.670 Y6.635 F480.000
G1 X-11.170 Y5.765 F480.000
G1 X-11.395 Y5.320 F480.000
G1 X-11.605 Y4.865 F480.000
G1 X-11.945 Y3.920 F480.000
G1 X-12.225 Y2.955 F480.000
G1 X-12.335 Y2.465 F480.000
G1 X-12.425 Y1.970 F480.000
G1 X-12.500 Y1.475 F480.000
G1 X-12.555 Y0.975 F480.000
G1 X-12.595 Y0.475 F480.000
G1 X-12.615 Y-0.020 F480.000
G1 X-12.615 Y-0.515 F480.000
G1 X-12.585 Y-1.010 F480.000
G1 X-12.540 Y-1.505 F480.000
G1 X-12.475 Y-2.000 F480.000
G1 X-12.385 Y-2.490 F480.000
G1 X-12.155 Y-3.460 F480.000
G1 X-11.860 Y-4.410 F480.000
G1 X-11.690 Y-4.880 F480.000
G1 X-11.500 Y-5.340 F480.000
G1 X-11.285 Y-5.790 F480.000
G1 X-11.055 Y-6.235 F480.000
G1 X-10.805 Y-6.670 F480.000
G1 X-10.535 Y-7.090 F480.000
G1 X-10.250 Y-7.500 F480.000
G1 X-9.950 Y-7.900 F480.000
G1 X-9.630 Y-8.285 F480.000
G1 X-9.295 Y-8.655 F480.000
G1 X-8.945 Y-9.010 F480.000
G1 X-8.580 Y-9.350 F480.000
